%
(1001)
(T1  D=2. CR=0. - ZMIN=-0.5 - FLAT END MILL)
(T2  D=3. CR=0. TAPER=118DEG - ZMIN=-1. - DRILL)
N10 G90 G94 G17 G91.1
N15 G21
N20 G53 G0 Z0.
(DRILL1)
N25 T2 M6
N30 T1
N35 S12000 M3
N40 G54
N45 M8
N50 G0 X222.247 Y17.498
N55 G43 Z10. H2
N60 G0 Z5.
N65 G98 G81 X222.247 Y17.498 Z-1. R5. F150.
N70 X198.781 Y11.56
N75 X163.781
N80 X129.459 Y8.253
N85 X104.459
N90 X79.459
N95 X54.459
N100 X29.459
N105 X11.779 Y25.93
N110 X29.459 Y33.253
N115 X36.779 Y25.93
N120 X54.459 Y33.253
N125 X61.779 Y25.93
N130 X79.459 Y33.253
N135 X86.779 Y25.93
N140 X104.459 Y33.253
N145 X111.779 Y25.93
N150 X129.459 Y33.253
N155 X143.983 Y31.363
N160 X163.781 Y46.56
N165 X178.983 Y31.363
N170 X198.781 Y46.56
N175 X222.251 Y94.499
N180 X198.781 Y81.56
N185 X178.983 Y66.363
N190 X163.781 Y81.56
N195 X178.983 Y101.363
N200 X143.983
N205 X111.779 Y100.93
N210 X86.779
N215 Y75.93
N220 X104.459 Y83.253
N225 X111.779 Y75.93
N230 X129.459 Y83.253
N235 X143.983 Y66.363
N240 X129.459 Y58.253
N245 X111.779 Y50.93
N250 X104.459 Y58.253
N255 X86.779 Y50.93
N260 X61.779
N265 X50. Y66.
N270 X36.779 Y50.93
N275 X11.779
N280 X50. Y96.
N285 G80
N290 G0 Z10.
N295 M5
N300 G53 Z0.
(2D INNERCONTOUR3)
N305 M9
N310 M1
N315 T1 M6
N320 T2
N325 S12000 M3
N330 G54
N335 M8
N340 G0 X128.52 Y66.89
N345 G43 Z11.5 H1
N350 G0 Z6.5
N355 G1 Z2.8 F50.
N360 Z1.414
N365 G18 G2 X128.72 Z1.214 I0.2 K0. F100.
N370 G1 X128.92
N375 G17 G3 X129.12 Y67.09 I0. J0.2
N380 X112.12 I-8.5 J0.
N385 X129.12 I8.5 J0.
N390 X128.92 Y67.29 I-0.2 J0.
N395 G1 X128.72
N400 G18 G3 X128.52 Z1.414 I0. K0.2
N405 G0 Z6.5
N410 Y66.89
N415 G1 Z2.514 F50.
N420 Z1.129
N425 G2 X128.72 Z0.929 I0.2 K0. F100.
N430 G1 X128.92
N435 G17 G3 X129.12 Y67.09 I0. J0.2
N440 X112.12 I-8.5 J0.
N445 X129.12 I8.5 J0.
N450 X128.92 Y67.29 I-0.2 J0.
N455 G1 X128.72
N460 G18 G3 X128.52 Z1.129 I0. K0.2
N465 G0 Z6.5
N470 Y66.89
N475 G1 Z2.229 F50.
N480 Z0.843
N485 G2 X128.72 Z0.643 I0.2 K0. F100.
N490 G1 X128.92
N495 G17 G3 X129.12 Y67.09 I0. J0.2
N500 X112.12 I-8.5 J0.
N505 X129.12 I8.5 J0.
N510 X128.92 Y67.29 I-0.2 J0.
N515 G1 X128.72
N520 G18 G3 X128.52 Z0.843 I0. K0.2
N525 G0 Z6.5
N530 Y66.89
N535 G1 Z1.943 F50.
N540 Z0.557
N545 G2 X128.72 Z0.357 I0.2 K0. F100.
N550 G1 X128.92
N555 G17 G3 X129.12 Y67.09 I0. J0.2
N560 X112.12 I-8.5 J0.
N565 X129.12 I8.5 J0.
N570 X128.92 Y67.29 I-0.2 J0.
N575 G1 X128.72
N580 G18 G3 X128.52 Z0.557 I0. K0.2
N585 G0 Z6.5
N590 Y66.89
N595 G1 Z1.657 F50.
N600 Z0.271
N605 G2 X128.72 Z0.071 I0.2 K0. F100.
N610 G1 X128.92
N615 G17 G3 X129.12 Y67.09 I0. J0.2
N620 X112.12 I-8.5 J0.
N625 X129.12 I8.5 J0.
N630 X128.92 Y67.29 I-0.2 J0.
N635 G1 X128.72
N640 G18 G3 X128.52 Z0.271 I0. K0.2
N645 G0 Z6.5
N650 Y66.89
N655 G1 Z1.371 F50.
N660 Z0.
N665 X128.72 F100.
N670 X128.92
N675 G17 G3 X129.12 Y67.09 I0. J0.2
N680 X129.028 Y68.34 I-8.5 J0.
N685 G1 Z-0.214 F50.
N690 G3 X117.499 Y74.996 I-8.408 J-1.25 F100.
N695 G1 Z0.
N700 G3 X115.334 Y73.746 I3.121 J-7.906
N705 G1 Z-0.214 F50.
N710 G3 Y60.434 I5.286 J-6.656 F100.
N715 G1 Z0.
N720 G3 X117.499 Y59.184 I5.286 J6.656
N725 G1 Z-0.214 F50.
N730 G3 X129.028 Y65.84 I3.121 J7.906 F100.
N735 G1 Z0.
N740 G3 X129.12 Y67.09 I-8.408 J1.25
N745 X128.92 Y67.29 I-0.2 J0.
N750 G1 X128.52
N755 G0 Z6.5
N760 Y66.89
N765 G1 Z1.086 F50.
N770 Z0.
N775 Z6.5 F100.
N780 Z0. F50.
N785 X128.72 F100.
N790 X128.92
N795 G3 X129.12 Y67.09 I0. J0.2
N800 X129.028 Y68.34 I-8.5 J0.
N805 G1 Z-0.5 F50.
N810 G3 X117.499 Y74.996 I-8.408 J-1.25 F100.
N815 G1 Z0.
N820 G3 X115.334 Y73.746 I3.121 J-7.906
N825 G1 Z-0.5 F50.
N830 G3 Y60.434 I5.286 J-6.656 F100.
N835 G1 Z0.
N840 G3 X117.499 Y59.184 I5.286 J6.656
N845 G1 Z-0.5 F50.
N850 G3 X129.028 Y65.84 I3.121 J7.906 F100.
N855 G1 Z0.
N860 G3 X129.12 Y67.09 I-8.408 J1.25
N865 X128.92 Y67.29 I-0.2 J0.
N870 G1 X128.52
N875 G0 Z6.5
N880 X163.775 Y56.26
N885 G1 Z2.8 F50.
N890 Z1.414
N895 G18 G2 X163.975 Z1.214 I0.2 K0. F100.
N900 G1 X164.175
N905 G17 G3 X164.375 Y56.46 I0. J0.2
N910 X143.375 I-10.5 J0.
N915 X164.375 I10.5 J0.
N920 X164.175 Y56.66 I-0.2 J0.
N925 G1 X163.975
N930 G18 G3 X163.775 Z1.414 I0. K0.2
N935 G0 Z6.5
N940 Y56.26
N945 G1 Z2.514 F50.
N950 Z1.129
N955 G2 X163.975 Z0.929 I0.2 K0. F100.
N960 G1 X164.175
N965 G17 G3 X164.375 Y56.46 I0. J0.2
N970 X143.375 I-10.5 J0.
N975 X164.375 I10.5 J0.
N980 X164.175 Y56.66 I-0.2 J0.
N985 G1 X163.975
N990 G18 G3 X163.775 Z1.129 I0. K0.2
N995 G0 Z6.5
N1000 Y56.26
N1005 G1 Z2.229 F50.
N1010 Z0.843
N1015 G2 X163.975 Z0.643 I0.2 K0. F100.
N1020 G1 X164.175
N1025 G17 G3 X164.375 Y56.46 I0. J0.2
N1030 X143.375 I-10.5 J0.
N1035 X164.375 I10.5 J0.
N1040 X164.175 Y56.66 I-0.2 J0.
N1045 G1 X163.975
N1050 G18 G3 X163.775 Z0.843 I0. K0.2
N1055 G0 Z6.5
N1060 Y56.26
N1065 G1 Z1.943 F50.
N1070 Z0.557
N1075 G2 X163.975 Z0.357 I0.2 K0. F100.
N1080 G1 X164.175
N1085 G17 G3 X164.375 Y56.46 I0. J0.2
N1090 X143.375 I-10.5 J0.
N1095 X164.375 I10.5 J0.
N1100 X164.175 Y56.66 I-0.2 J0.
N1105 G1 X163.975
N1110 G18 G3 X163.775 Z0.557 I0. K0.2
N1115 G0 Z6.5
N1120 Y56.26
N1125 G1 Z1.657 F50.
N1130 Z0.271
N1135 G2 X163.975 Z0.071 I0.2 K0. F100.
N1140 G1 X164.175
N1145 G17 G3 X164.375 Y56.46 I0. J0.2
N1150 X143.375 I-10.5 J0.
N1155 X164.375 I10.5 J0.
N1160 X164.175 Y56.66 I-0.2 J0.
N1165 G1 X163.975
N1170 G18 G3 X163.775 Z0.271 I0. K0.2
N1175 G0 Z6.5
N1180 Y56.26
N1185 G1 Z1.371 F50.
N1190 Z-0.014
N1195 G2 X163.975 Z-0.214 I0.2 K0. F100.
N1200 G1 X164.175
N1205 G17 G3 X164.375 Y56.46 I0. J0.2
N1210 X162.131 Y62.948 I-10.5 J0.
N1215 G1 Z0.
N1220 G3 X160.363 Y64.716 I-8.256 J-6.488
N1225 G1 Z-0.214 F50.
N1230 G3 X147.387 I-6.488 J-8.256 F100.
N1235 G1 Z0.
N1240 G3 X145.619 Y62.948 I6.488 J-8.256
N1245 G1 Z-0.214 F50.
N1250 G3 Y49.973 I8.256 J-6.488 F100.
N1255 G1 Z0.
N1260 G3 X147.387 Y48.205 I8.256 J6.488
N1265 G1 Z-0.214 F50.
N1270 G3 X160.363 I6.488 J8.256 F100.
N1275 G1 Z0.
N1280 G3 X162.131 Y49.973 I-6.488 J8.256
N1285 G1 Z-0.214 F50.
N1290 G3 X164.375 Y56.46 I-8.256 J6.488 F100.
N1295 X164.175 Y56.66 I-0.2 J0.
N1300 G1 X163.975
N1305 G18 G3 X163.775 Z-0.014 I0. K0.2
N1310 G0 Z6.5
N1315 Y56.26
N1320 G1 Z1.086 F50.
N1325 Z-0.3
N1330 G2 X163.975 Z-0.5 I0.2 K0. F100.
N1335 G1 X164.175
N1340 G17 G3 X164.375 Y56.46 I0. J0.2
N1345 X162.131 Y62.948 I-10.5 J0.
N1350 G1 Z0.
N1355 G3 X160.363 Y64.716 I-8.256 J-6.488
N1360 G1 Z-0.5 F50.
N1365 G3 X147.387 I-6.488 J-8.256 F100.
N1370 G1 Z0.
N1375 G3 X145.619 Y62.948 I6.488 J-8.256
N1380 G1 Z-0.5 F50.
N1385 G3 Y49.973 I8.256 J-6.488 F100.
N1390 G1 Z0.
N1395 G3 X147.387 Y48.205 I8.256 J6.488
N1400 G1 Z-0.5 F50.
N1405 G3 X160.363 I6.488 J8.256 F100.
N1410 G1 Z0.
N1415 G3 X162.131 Y49.973 I-6.488 J8.256
N1420 G1 Z-0.5 F50.
N1425 G3 X164.375 Y56.46 I-8.256 J6.488 F100.
N1430 X164.175 Y56.66 I-0.2 J0.
N1435 G1 X163.975
N1440 G18 G3 X163.775 Z-0.3 I0. K0.2
N1445 G0 Z6.5
N1450 X198.775 Y56.26
N1455 G1 Z2.8 F50.
N1460 Z1.414
N1465 G2 X198.975 Z1.214 I0.2 K0. F100.
N1470 G1 X199.175
N1475 G17 G3 X199.375 Y56.46 I0. J0.2
N1480 X178.375 I-10.5 J0.
N1485 X199.375 I10.5 J0.
N1490 X199.175 Y56.66 I-0.2 J0.
N1495 G1 X198.975
N1500 G18 G3 X198.775 Z1.414 I0. K0.2
N1505 G0 Z6.5
N1510 Y56.26
N1515 G1 Z2.514 F50.
N1520 Z1.129
N1525 G2 X198.975 Z0.929 I0.2 K0. F100.
N1530 G1 X199.175
N1535 G17 G3 X199.375 Y56.46 I0. J0.2
N1540 X178.375 I-10.5 J0.
N1545 X199.375 I10.5 J0.
N1550 X199.175 Y56.66 I-0.2 J0.
N1555 G1 X198.975
N1560 G18 G3 X198.775 Z1.129 I0. K0.2
N1565 G0 Z6.5
N1570 Y56.26
N1575 G1 Z2.229 F50.
N1580 Z0.843
N1585 G2 X198.975 Z0.643 I0.2 K0. F100.
N1590 G1 X199.175
N1595 G17 G3 X199.375 Y56.46 I0. J0.2
N1600 X178.375 I-10.5 J0.
N1605 X199.375 I10.5 J0.
N1610 X199.175 Y56.66 I-0.2 J0.
N1615 G1 X198.975
N1620 G18 G3 X198.775 Z0.843 I0. K0.2
N1625 G0 Z6.5
N1630 Y56.26
N1635 G1 Z1.943 F50.
N1640 Z0.557
N1645 G2 X198.975 Z0.357 I0.2 K0. F100.
N1650 G1 X199.175
N1655 G17 G3 X199.375 Y56.46 I0. J0.2
N1660 X178.375 I-10.5 J0.
N1665 X199.375 I10.5 J0.
N1670 X199.175 Y56.66 I-0.2 J0.
N1675 G1 X198.975
N1680 G18 G3 X198.775 Z0.557 I0. K0.2
N1685 G0 Z6.5
N1690 Y56.26
N1695 G1 Z1.657 F50.
N1700 Z0.271
N1705 G2 X198.975 Z0.071 I0.2 K0. F100.
N1710 G1 X199.175
N1715 G17 G3 X199.375 Y56.46 I0. J0.2
N1720 X178.375 I-10.5 J0.
N1725 X199.375 I10.5 J0.
N1730 X199.175 Y56.66 I-0.2 J0.
N1735 G1 X198.975
N1740 G18 G3 X198.775 Z0.271 I0. K0.2
N1745 G0 Z6.5
N1750 Y56.26
N1755 G1 Z1.371 F50.
N1760 Z-0.014
N1765 G2 X198.975 Z-0.214 I0.2 K0. F100.
N1770 G1 X199.175
N1775 G17 G3 X199.375 Y56.46 I0. J0.2
N1780 X197.131 Y62.948 I-10.5 J0.
N1785 G1 Z0.
N1790 G3 X195.363 Y64.716 I-8.256 J-6.488
N1795 G1 Z-0.214 F50.
N1800 G3 X182.387 I-6.488 J-8.256 F100.
N1805 G1 Z0.
N1810 G3 X180.619 Y62.948 I6.488 J-8.256
N1815 G1 Z-0.214 F50.
N1820 G3 Y49.973 I8.256 J-6.488 F100.
N1825 G1 Z0.
N1830 G3 X182.387 Y48.205 I8.256 J6.488
N1835 G1 Z-0.214 F50.
N1840 G3 X195.363 I6.488 J8.256 F100.
N1845 G1 Z0.
N1850 G3 X197.131 Y49.973 I-6.488 J8.256
N1855 G1 Z-0.214 F50.
N1860 G3 X199.375 Y56.46 I-8.256 J6.488 F100.
N1865 X199.175 Y56.66 I-0.2 J0.
N1870 G1 X198.975
N1875 G18 G3 X198.775 Z-0.014 I0. K0.2
N1880 G0 Z6.5
N1885 Y56.26
N1890 G1 Z1.086 F50.
N1895 Z-0.3
N1900 G2 X198.975 Z-0.5 I0.2 K0. F100.
N1905 G1 X199.175
N1910 G17 G3 X199.375 Y56.46 I0. J0.2
N1915 X197.131 Y62.948 I-10.5 J0.
N1920 G1 Z0.
N1925 G3 X195.363 Y64.716 I-8.256 J-6.488
N1930 G1 Z-0.5 F50.
N1935 G3 X182.387 I-6.488 J-8.256 F100.
N1940 G1 Z0.
N1945 G3 X180.619 Y62.948 I6.488 J-8.256
N1950 G1 Z-0.5 F50.
N1955 G3 Y49.973 I8.256 J-6.488 F100.
N1960 G1 Z0.
N1965 G3 X182.387 Y48.205 I8.256 J6.488
N1970 G1 Z-0.5 F50.
N1975 G3 X195.363 I6.488 J8.256 F100.
N1980 G1 Z0.
N1985 G3 X197.131 Y49.973 I-6.488 J8.256
N1990 G1 Z-0.5 F50.
N1995 G3 X199.375 Y56.46 I-8.256 J6.488 F100.
N2000 X199.175 Y56.66 I-0.2 J0.
N2005 G1 X198.975
N2010 G18 G3 X198.775 Z-0.3 I0. K0.2
N2015 G0 Z6.5
N2020 X212.4 Y84.8
N2025 G1 Z2.8 F50.
N2030 Z1.414
N2035 G2 X212.6 Z1.214 I0.2 K0. F100.
N2040 G1 X212.8
N2045 G17 G3 X213. Y85. I0. J0.2
N2050 X209. I-2. J0.
N2055 G1 Y27.
N2060 G3 X213. I2. J0.
N2065 G1 Y85.
N2070 G3 X212.8 Y85.2 I-0.2 J0.
N2075 G1 X212.6
N2080 G18 G3 X212.4 Z1.414 I0. K0.2
N2085 G0 Z6.5
N2090 Y84.8
N2095 G1 Z2.514 F50.
N2100 Z1.129
N2105 G2 X212.6 Z0.929 I0.2 K0. F100.
N2110 G1 X212.8
N2115 G17 G3 X213. Y85. I0. J0.2
N2120 X209. I-2. J0.
N2125 G1 Y27.
N2130 G3 X213. I2. J0.
N2135 G1 Y85.
N2140 G3 X212.8 Y85.2 I-0.2 J0.
N2145 G1 X212.6
N2150 G18 G3 X212.4 Z1.129 I0. K0.2
N2155 G0 Z6.5
N2160 Y84.8
N2165 G1 Z2.229 F50.
N2170 Z0.843
N2175 G2 X212.6 Z0.643 I0.2 K0. F100.
N2180 G1 X212.8
N2185 G17 G3 X213. Y85. I0. J0.2
N2190 X209. I-2. J0.
N2195 G1 Y27.
N2200 G3 X213. I2. J0.
N2205 G1 Y85.
N2210 G3 X212.8 Y85.2 I-0.2 J0.
N2215 G1 X212.6
N2220 G18 G3 X212.4 Z0.843 I0. K0.2
N2225 G0 Z6.5
N2230 Y84.8
N2235 G1 Z1.943 F50.
N2240 Z0.557
N2245 G2 X212.6 Z0.357 I0.2 K0. F100.
N2250 G1 X212.8
N2255 G17 G3 X213. Y85. I0. J0.2
N2260 X209. I-2. J0.
N2265 G1 Y27.
N2270 G3 X213. I2. J0.
N2275 G1 Y85.
N2280 G3 X212.8 Y85.2 I-0.2 J0.
N2285 G1 X212.6
N2290 G18 G3 X212.4 Z0.557 I0. K0.2
N2295 G0 Z6.5
N2300 Y84.8
N2305 G1 Z1.657 F50.
N2310 Z0.271
N2315 G2 X212.6 Z0.071 I0.2 K0. F100.
N2320 G1 X212.8
N2325 G17 G3 X213. Y85. I0. J0.2
N2330 X209. I-2. J0.
N2335 G1 Y27.
N2340 G3 X213. I2. J0.
N2345 G1 Y85.
N2350 G3 X212.8 Y85.2 I-0.2 J0.
N2355 G1 X212.6
N2360 G18 G3 X212.4 Z0.271 I0. K0.2
N2365 G0 Z6.5
N2370 Y84.8
N2375 G1 Z1.371 F50.
N2380 Z-0.014
N2385 G2 X212.6 Z-0.214 I0.2 K0. F100.
N2390 G1 X212.8
N2395 G17 G3 X213. Y85. I0. J0.2
N2400 X209. I-2. J0.
N2405 G1 Y76.583
N2410 Z0.
N2415 Y74.083
N2420 Z-0.214 F50.
N2425 Y57.25 F100.
N2430 Z0.
N2435 Y54.75
N2440 Z-0.214 F50.
N2445 Y37.917 F100.
N2450 Z0.
N2455 Y35.417
N2460 Z-0.214 F50.
N2465 Y27. F100.
N2470 G3 X213. I2. J0.
N2475 G1 Y35.417
N2480 Z0.
N2485 Y37.917
N2490 Z-0.214 F50.
N2495 Y54.75 F100.
N2500 Z0.
N2505 Y57.25
N2510 Z-0.214 F50.
N2515 Y74.083 F100.
N2520 Z0.
N2525 Y76.583
N2530 Z-0.214 F50.
N2535 Y85. F100.
N2540 G3 X212.8 Y85.2 I-0.2 J0.
N2545 G1 X212.6
N2550 G18 G3 X212.4 Z-0.014 I0. K0.2
N2555 G0 Z6.5
N2560 Y84.8
N2565 G1 Z1.086 F50.
N2570 Z-0.3
N2575 G2 X212.6 Z-0.5 I0.2 K0. F100.
N2580 G1 X212.8
N2585 G17 G3 X213. Y85. I0. J0.2
N2590 X209. I-2. J0.
N2595 G1 Y76.583
N2600 Z0.
N2605 Y74.083
N2610 Z-0.5 F50.
N2615 Y57.25 F100.
N2620 Z0.
N2625 Y54.75
N2630 Z-0.5 F50.
N2635 Y37.917 F100.
N2640 Z0.
N2645 Y35.417
N2650 Z-0.5 F50.
N2655 Y27. F100.
N2660 G3 X213. I2. J0.
N2665 G1 Y35.417
N2670 Z0.
N2675 Y37.917
N2680 Z-0.5 F50.
N2685 Y54.75 F100.
N2690 Z0.
N2695 Y57.25
N2700 Z-0.5 F50.
N2705 Y74.083 F100.
N2710 Z0.
N2715 Y76.583
N2720 Z-0.5 F50.
N2725 Y85. F100.
N2730 G3 X212.8 Y85.2 I-0.2 J0.
N2735 G1 X212.6
N2740 G18 G3 X212.4 Z-0.3 I0. K0.2
N2745 G0 Z6.5
N2750 X198.775 Y91.26
N2755 G1 Z2.8 F50.
N2760 Z1.414
N2765 G2 X198.975 Z1.214 I0.2 K0. F100.
N2770 G1 X199.175
N2775 G17 G3 X199.375 Y91.46 I0. J0.2
N2780 X178.375 I-10.5 J0.
N2785 X199.375 I10.5 J0.
N2790 X199.175 Y91.66 I-0.2 J0.
N2795 G1 X198.975
N2800 G18 G3 X198.775 Z1.414 I0. K0.2
N2805 G0 Z6.5
N2810 Y91.26
N2815 G1 Z2.514 F50.
N2820 Z1.129
N2825 G2 X198.975 Z0.929 I0.2 K0. F100.
N2830 G1 X199.175
N2835 G17 G3 X199.375 Y91.46 I0. J0.2
N2840 X178.375 I-10.5 J0.
N2845 X199.375 I10.5 J0.
N2850 X199.175 Y91.66 I-0.2 J0.
N2855 G1 X198.975
N2860 G18 G3 X198.775 Z1.129 I0. K0.2
N2865 G0 Z6.5
N2870 Y91.26
N2875 G1 Z2.229 F50.
N2880 Z0.843
N2885 G2 X198.975 Z0.643 I0.2 K0. F100.
N2890 G1 X199.175
N2895 G17 G3 X199.375 Y91.46 I0. J0.2
N2900 X178.375 I-10.5 J0.
N2905 X199.375 I10.5 J0.
N2910 X199.175 Y91.66 I-0.2 J0.
N2915 G1 X198.975
N2920 G18 G3 X198.775 Z0.843 I0. K0.2
N2925 G0 Z6.5
N2930 Y91.26
N2935 G1 Z1.943 F50.
N2940 Z0.557
N2945 G2 X198.975 Z0.357 I0.2 K0. F100.
N2950 G1 X199.175
N2955 G17 G3 X199.375 Y91.46 I0. J0.2
N2960 X178.375 I-10.5 J0.
N2965 X199.375 I10.5 J0.
N2970 X199.175 Y91.66 I-0.2 J0.
N2975 G1 X198.975
N2980 G18 G3 X198.775 Z0.557 I0. K0.2
N2985 G0 Z6.5
N2990 Y91.26
N2995 G1 Z1.657 F50.
N3000 Z0.271
N3005 G2 X198.975 Z0.071 I0.2 K0. F100.
N3010 G1 X199.175
N3015 G17 G3 X199.375 Y91.46 I0. J0.2
N3020 X178.375 I-10.5 J0.
N3025 X199.375 I10.5 J0.
N3030 X199.175 Y91.66 I-0.2 J0.
N3035 G1 X198.975
N3040 G18 G3 X198.775 Z0.271 I0. K0.2
N3045 G0 Z6.5
N3050 Y91.26
N3055 G1 Z1.371 F50.
N3060 Z-0.014
N3065 G2 X198.975 Z-0.214 I0.2 K0. F100.
N3070 G1 X199.175
N3075 G17 G3 X199.375 Y91.46 I0. J0.2
N3080 X197.131 Y97.948 I-10.5 J0.
N3085 G1 Z0.
N3090 G3 X195.363 Y99.716 I-8.256 J-6.488
N3095 G1 Z-0.214 F50.
N3100 G3 X182.387 I-6.488 J-8.256 F100.
N3105 G1 Z0.
N3110 G3 X180.619 Y97.948 I6.488 J-8.256
N3115 G1 Z-0.214 F50.
N3120 G3 Y84.973 I8.256 J-6.488 F100.
N3125 G1 Z0.
N3130 G3 X182.387 Y83.205 I8.256 J6.488
N3135 G1 Z-0.214 F50.
N3140 G3 X195.363 I6.488 J8.256 F100.
N3145 G1 Z0.
N3150 G3 X197.131 Y84.973 I-6.488 J8.256
N3155 G1 Z-0.214 F50.
N3160 G3 X199.375 Y91.46 I-8.256 J6.488 F100.
N3165 X199.175 Y91.66 I-0.2 J0.
N3170 G1 X198.975
N3175 G18 G3 X198.775 Z-0.014 I0. K0.2
N3180 G0 Z6.5
N3185 Y91.26
N3190 G1 Z1.086 F50.
N3195 Z-0.3
N3200 G2 X198.975 Z-0.5 I0.2 K0. F100.
N3205 G1 X199.175
N3210 G17 G3 X199.375 Y91.46 I0. J0.2
N3215 X197.131 Y97.948 I-10.5 J0.
N3220 G1 Z0.
N3225 G3 X195.363 Y99.716 I-8.256 J-6.488
N3230 G1 Z-0.5 F50.
N3235 G3 X182.387 I-6.488 J-8.256 F100.
N3240 G1 Z0.
N3245 G3 X180.619 Y97.948 I6.488 J-8.256
N3250 G1 Z-0.5 F50.
N3255 G3 Y84.973 I8.256 J-6.488 F100.
N3260 G1 Z0.
N3265 G3 X182.387 Y83.205 I8.256 J6.488
N3270 G1 Z-0.5 F50.
N3275 G3 X195.363 I6.488 J8.256 F100.
N3280 G1 Z0.
N3285 G3 X197.131 Y84.973 I-6.488 J8.256
N3290 G1 Z-0.5 F50.
N3295 G3 X199.375 Y91.46 I-8.256 J6.488 F100.
N3300 X199.175 Y91.66 I-0.2 J0.
N3305 G1 X198.975
N3310 G18 G3 X198.775 Z-0.3 I0. K0.2
N3315 G0 Z6.5
N3320 X163.777 Y91.526
N3325 G1 Z2.8 F50.
N3330 Z1.414
N3335 X163.784 Z1.363 F100.
N3340 X163.804 Y91.527 Z1.314
N3345 X163.835 Y91.528 Z1.273
N3350 X163.877 Y91.529 Z1.241
N3355 X163.925 Y91.53 Z1.221
N3360 X163.977 Y91.532 Z1.214
N3365 X164.177 Y91.537
N3370 G17 G3 X164.371 Y91.742 I-0.005 J0.2
N3375 X143.379 Y91.179 I-10.496 J-0.282
N3380 X164.371 Y91.742 I10.496 J0.282
N3385 X164.166 Y91.937 I-0.2 J-0.005
N3390 G1 X163.966 Y91.931
N3395 X163.914 Y91.93 Z1.221
N3400 X163.866 Y91.929 Z1.241
N3405 X163.825 Y91.928 Z1.273
N3410 X163.793 Y91.927 Z1.314
N3415 X163.773 Y91.926 Z1.363
N3420 X163.766 Z1.414
N3425 G0 Z6.5
N3430 X163.777 Y91.526
N3435 G1 Z2.514 F50.
N3440 Z1.129
N3445 X163.784 Z1.077 F100.
N3450 X163.804 Y91.527 Z1.029
N3455 X163.835 Y91.528 Z0.987
N3460 X163.877 Y91.529 Z0.955
N3465 X163.925 Y91.53 Z0.935
N3470 X163.977 Y91.532 Z0.929
N3475 X164.177 Y91.537
N3480 G3 X164.371 Y91.742 I-0.005 J0.2
N3485 X143.379 Y91.179 I-10.496 J-0.282
N3490 X164.371 Y91.742 I10.496 J0.282
N3495 X164.166 Y91.937 I-0.2 J-0.005
N3500 G1 X163.966 Y91.931
N3505 X163.914 Y91.93 Z0.935
N3510 X163.866 Y91.929 Z0.955
N3515 X163.825 Y91.928 Z0.987
N3520 X163.793 Y91.927 Z1.029
N3525 X163.773 Y91.926 Z1.077
N3530 X163.766 Z1.129
N3535 G0 Z6.5
N3540 X163.777 Y91.526
N3545 G1 Z2.229 F50.
N3550 Z0.843
N3555 X163.784 Z0.791 F100.
N3560 X163.804 Y91.527 Z0.743
N3565 X163.835 Y91.528 Z0.701
N3570 X163.877 Y91.529 Z0.67
N3575 X163.925 Y91.53 Z0.65
N3580 X163.977 Y91.532 Z0.643
N3585 X164.177 Y91.537
N3590 G3 X164.371 Y91.742 I-0.005 J0.2
N3595 X143.379 Y91.179 I-10.496 J-0.282
N3600 X164.371 Y91.742 I10.496 J0.282
N3605 X164.166 Y91.937 I-0.2 J-0.005
N3610 G1 X163.966 Y91.931
N3615 X163.914 Y91.93 Z0.65
N3620 X163.866 Y91.929 Z0.67
N3625 X163.825 Y91.928 Z0.701
N3630 X163.793 Y91.927 Z0.743
N3635 X163.773 Y91.926 Z0.791
N3640 X163.766 Z0.843
N3645 G0 Z6.5
N3650 X163.777 Y91.526
N3655 G1 Z1.943 F50.
N3660 Z0.557
N3665 X163.784 Z0.505 F100.
N3670 X163.804 Y91.527 Z0.457
N3675 X163.835 Y91.528 Z0.416
N3680 X163.877 Y91.529 Z0.384
N3685 X163.925 Y91.53 Z0.364
N3690 X163.977 Y91.532 Z0.357
N3695 X164.177 Y91.537
N3700 G3 X164.371 Y91.742 I-0.005 J0.2
N3705 X143.379 Y91.179 I-10.496 J-0.282
N3710 X164.371 Y91.742 I10.496 J0.282
N3715 X164.166 Y91.937 I-0.2 J-0.005
N3720 G1 X163.966 Y91.931
N3725 X163.914 Y91.93 Z0.364
N3730 X163.866 Y91.929 Z0.384
N3735 X163.825 Y91.928 Z0.416
N3740 X163.793 Y91.927 Z0.457
N3745 X163.773 Y91.926 Z0.505
N3750 X163.766 Z0.557
N3755 G0 Z6.5
N3760 X163.777 Y91.526
N3765 G1 Z1.657 F50.
N3770 Z0.271
N3775 X163.784 Z0.22 F100.
N3780 X163.804 Y91.527 Z0.171
N3785 X163.835 Y91.528 Z0.13
N3790 X163.877 Y91.529 Z0.098
N3795 X163.925 Y91.53 Z0.078
N3800 X163.977 Y91.532 Z0.071
N3805 X164.177 Y91.537
N3810 G3 X164.371 Y91.742 I-0.005 J0.2
N3815 X143.379 Y91.179 I-10.496 J-0.282
N3820 X164.371 Y91.742 I10.496 J0.282
N3825 X164.166 Y91.937 I-0.2 J-0.005
N3830 G1 X163.966 Y91.931
N3835 X163.914 Y91.93 Z0.078
N3840 X163.866 Y91.929 Z0.098
N3845 X163.825 Y91.928 Z0.13
N3850 X163.793 Y91.927 Z0.171
N3855 X163.773 Y91.926 Z0.22
N3860 X163.766 Z0.271
N3865 G0 Z6.5
N3870 X163.777 Y91.526
N3875 G1 Z1.371 F50.
N3880 Z-0.014
N3885 X163.784 Z-0.066 F100.
N3890 X163.804 Y91.527 Z-0.114
N3895 X163.835 Y91.528 Z-0.156
N3900 X163.877 Y91.529 Z-0.187
N3905 X163.925 Y91.53 Z-0.207
N3910 X163.977 Y91.532 Z-0.214
N3915 X164.177 Y91.537
N3920 G3 X164.371 Y91.742 I-0.005 J0.2
N3925 X162.131 Y97.948 I-10.496 J-0.282
N3930 G1 Z0.
N3935 G3 X160.363 Y99.716 I-8.256 J-6.488
N3940 G1 Z-0.214 F50.
N3945 G3 X147.387 I-6.488 J-8.256 F100.
N3950 G1 Z0.
N3955 G3 X145.619 Y97.948 I6.488 J-8.256
N3960 G1 Z-0.214 F50.
N3965 G3 Y84.973 I8.256 J-6.488 F100.
N3970 G1 Z0.
N3975 G3 X147.387 Y83.205 I8.256 J6.488
N3980 G1 Z-0.214 F50.
N3985 G3 X160.363 I6.488 J8.256 F100.
N3990 G1 Z0.
N3995 G3 X162.131 Y84.973 I-6.488 J8.256
N4000 G1 Z-0.214 F50.
N4005 G3 X164.371 Y91.742 I-8.256 J6.488 F100.
N4010 X164.166 Y91.937 I-0.2 J-0.005
N4015 G1 X163.966 Y91.931
N4020 X163.914 Y91.93 Z-0.207
N4025 X163.866 Y91.929 Z-0.187
N4030 X163.825 Y91.928 Z-0.156
N4035 X163.793 Y91.927 Z-0.114
N4040 X163.773 Y91.926 Z-0.066
N4045 X163.766 Z-0.014
N4050 G0 Z6.5
N4055 X163.777 Y91.526
N4060 G1 Z1.086 F50.
N4065 Z-0.3
N4070 X163.784 Z-0.352 F100.
N4075 X163.804 Y91.527 Z-0.4
N4080 X163.835 Y91.528 Z-0.441
N4085 X163.877 Y91.529 Z-0.473
N4090 X163.925 Y91.53 Z-0.493
N4095 X163.977 Y91.532 Z-0.5
N4100 X164.177 Y91.537
N4105 G3 X164.371 Y91.742 I-0.005 J0.2
N4110 X162.131 Y97.948 I-10.496 J-0.282
N4115 G1 Z0.
N4120 G3 X160.363 Y99.716 I-8.256 J-6.488
N4125 G1 Z-0.5 F50.
N4130 G3 X147.387 I-6.488 J-8.256 F100.
N4135 G1 Z0.
N4140 G3 X145.619 Y97.948 I6.488 J-8.256
N4145 G1 Z-0.5 F50.
N4150 G3 Y84.973 I8.256 J-6.488 F100.
N4155 G1 Z0.
N4160 G3 X147.387 Y83.205 I8.256 J6.488
N4165 G1 Z-0.5 F50.
N4170 G3 X160.363 I6.488 J8.256 F100.
N4175 G1 Z0.
N4180 G3 X162.131 Y84.973 I-6.488 J8.256
N4185 G1 Z-0.5 F50.
N4190 G3 X164.371 Y91.742 I-8.256 J6.488 F100.
N4195 X164.166 Y91.937 I-0.2 J-0.005
N4200 G1 X163.966 Y91.931
N4205 X163.914 Y91.93 Z-0.493
N4210 X163.866 Y91.929 Z-0.473
N4215 X163.825 Y91.928 Z-0.441
N4220 X163.793 Y91.927 Z-0.4
N4225 X163.773 Y91.926 Z-0.352
N4230 X163.766 Z-0.3
N4235 G0 Z6.5
N4240 X128.52 Y91.89
N4245 G1 Z2.8 F50.
N4250 Z1.414
N4255 G18 G2 X128.72 Z1.214 I0.2 K0. F100.
N4260 G1 X128.92
N4265 G17 G3 X129.12 Y92.09 I0. J0.2
N4270 X112.12 I-8.5 J0.
N4275 X129.12 I8.5 J0.
N4280 X128.92 Y92.29 I-0.2 J0.
N4285 G1 X128.72
N4290 G18 G3 X128.52 Z1.414 I0. K0.2
N4295 G0 Z6.5
N4300 Y91.89
N4305 G1 Z2.514 F50.
N4310 Z1.129
N4315 G2 X128.72 Z0.929 I0.2 K0. F100.
N4320 G1 X128.92
N4325 G17 G3 X129.12 Y92.09 I0. J0.2
N4330 X112.12 I-8.5 J0.
N4335 X129.12 I8.5 J0.
N4340 X128.92 Y92.29 I-0.2 J0.
N4345 G1 X128.72
N4350 G18 G3 X128.52 Z1.129 I0. K0.2
N4355 G0 Z6.5
N4360 Y91.89
N4365 G1 Z2.229 F50.
N4370 Z0.843
N4375 G2 X128.72 Z0.643 I0.2 K0. F100.
N4380 G1 X128.92
N4385 G17 G3 X129.12 Y92.09 I0. J0.2
N4390 X112.12 I-8.5 J0.
N4395 X129.12 I8.5 J0.
N4400 X128.92 Y92.29 I-0.2 J0.
N4405 G1 X128.72
N4410 G18 G3 X128.52 Z0.843 I0. K0.2
N4415 G0 Z6.5
N4420 Y91.89
N4425 G1 Z1.943 F50.
N4430 Z0.557
N4435 G2 X128.72 Z0.357 I0.2 K0. F100.
N4440 G1 X128.92
N4445 G17 G3 X129.12 Y92.09 I0. J0.2
N4450 X112.12 I-8.5 J0.
N4455 X129.12 I8.5 J0.
N4460 X128.92 Y92.29 I-0.2 J0.
N4465 G1 X128.72
N4470 G18 G3 X128.52 Z0.557 I0. K0.2
N4475 G0 Z6.5
N4480 Y91.89
N4485 G1 Z1.657 F50.
N4490 Z0.271
N4495 G2 X128.72 Z0.071 I0.2 K0. F100.
N4500 G1 X128.92
N4505 G17 G3 X129.12 Y92.09 I0. J0.2
N4510 X112.12 I-8.5 J0.
N4515 X129.12 I8.5 J0.
N4520 X128.92 Y92.29 I-0.2 J0.
N4525 G1 X128.72
N4530 G18 G3 X128.52 Z0.271 I0. K0.2
N4535 G0 Z6.5
N4540 Y91.89
N4545 G1 Z1.371 F50.
N4550 Z0.
N4555 X128.72 F100.
N4560 X128.92
N4565 G17 G3 X129.12 Y92.09 I0. J0.2
N4570 X129.028 Y93.34 I-8.5 J0.
N4575 G1 Z-0.214 F50.
N4580 G3 X117.499 Y99.996 I-8.408 J-1.25 F100.
N4585 G1 Z0.
N4590 G3 X115.334 Y98.746 I3.121 J-7.906
N4595 G1 Z-0.214 F50.
N4600 G3 Y85.434 I5.286 J-6.656 F100.
N4605 G1 Z0.
N4610 G3 X117.499 Y84.184 I5.286 J6.656
N4615 G1 Z-0.214 F50.
N4620 G3 X129.028 Y90.84 I3.121 J7.906 F100.
N4625 G1 Z0.
N4630 G3 X129.12 Y92.09 I-8.408 J1.25
N4635 X128.92 Y92.29 I-0.2 J0.
N4640 G1 X128.52
N4645 G0 Z6.5
N4650 Y91.89
N4655 G1 Z1.086 F50.
N4660 Z0.
N4665 Z6.5 F100.
N4670 Z0. F50.
N4675 X128.72 F100.
N4680 X128.92
N4685 G3 X129.12 Y92.09 I0. J0.2
N4690 X129.028 Y93.34 I-8.5 J0.
N4695 G1 Z-0.5 F50.
N4700 G3 X117.499 Y99.996 I-8.408 J-1.25 F100.
N4705 G1 Z0.
N4710 G3 X115.334 Y98.746 I3.121 J-7.906
N4715 G1 Z-0.5 F50.
N4720 G3 Y85.434 I5.286 J-6.656 F100.
N4725 G1 Z0.
N4730 G3 X117.499 Y84.184 I5.286 J6.656
N4735 G1 Z-0.5 F50.
N4740 G3 X129.028 Y90.84 I3.121 J7.906 F100.
N4745 G1 Z0.
N4750 G3 X129.12 Y92.09 I-8.408 J1.25
N4755 X128.92 Y92.29 I-0.2 J0.
N4760 G1 X128.52
N4765 G0 Z6.5
N4770 X95.42 Y84.19
N4775 G1 Z2.8 F50.
N4780 Z1.414
N4785 G19 G2 Y83.99 Z1.214 J-0.2 K0. F100.
N4790 G1 Y83.79
N4795 G17 G3 X95.62 Y83.59 I0.2 J0.
N4800 X104.12 Y92.09 I0. J8.5
N4805 X95.62 Y100.59 I-8.5 J0.
N4810 X87.12 Y92.09 I0. J-8.5
N4815 X95.62 Y83.59 I8.5 J0.
N4820 X95.82 Y83.79 I0. J0.2
N4825 G1 Y83.99
N4830 G19 G3 Y84.19 Z1.414 J0. K0.2
N4835 G0 Z6.5
N4840 X95.42
N4845 G1 Z2.514 F50.
N4850 Z1.129
N4855 G2 Y83.99 Z0.929 J-0.2 K0. F100.
N4860 G1 Y83.79
N4865 G17 G3 X95.62 Y83.59 I0.2 J0.
N4870 X104.12 Y92.09 I0. J8.5
N4875 X95.62 Y100.59 I-8.5 J0.
N4880 X87.12 Y92.09 I0. J-8.5
N4885 X95.62 Y83.59 I8.5 J0.
N4890 X95.82 Y83.79 I0. J0.2
N4895 G1 Y83.99
N4900 G19 G3 Y84.19 Z1.129 J0. K0.2
N4905 G0 Z6.5
N4910 X95.42
N4915 G1 Z2.229 F50.
N4920 Z0.843
N4925 G2 Y83.99 Z0.643 J-0.2 K0. F100.
N4930 G1 Y83.79
N4935 G17 G3 X95.62 Y83.59 I0.2 J0.
N4940 X104.12 Y92.09 I0. J8.5
N4945 X95.62 Y100.59 I-8.5 J0.
N4950 X87.12 Y92.09 I0. J-8.5
N4955 X95.62 Y83.59 I8.5 J0.
N4960 X95.82 Y83.79 I0. J0.2
N4965 G1 Y83.99
N4970 G19 G3 Y84.19 Z0.843 J0. K0.2
N4975 G0 Z6.5
N4980 X95.42
N4985 G1 Z1.943 F50.
N4990 Z0.557
N4995 G2 Y83.99 Z0.357 J-0.2 K0. F100.
N5000 G1 Y83.79
N5005 G17 G3 X95.62 Y83.59 I0.2 J0.
N5010 X104.12 Y92.09 I0. J8.5
N5015 X95.62 Y100.59 I-8.5 J0.
N5020 X87.12 Y92.09 I0. J-8.5
N5025 X95.62 Y83.59 I8.5 J0.
N5030 X95.82 Y83.79 I0. J0.2
N5035 G1 Y83.99
N5040 G19 G3 Y84.19 Z0.557 J0. K0.2
N5045 G0 Z6.5
N5050 X95.42
N5055 G1 Z1.657 F50.
N5060 Z0.271
N5065 G2 Y83.99 Z0.071 J-0.2 K0. F100.
N5070 G1 Y83.79
N5075 G17 G3 X95.62 Y83.59 I0.2 J0.
N5080 X104.12 Y92.09 I0. J8.5
N5085 X95.62 Y100.59 I-8.5 J0.
N5090 X87.12 Y92.09 I0. J-8.5
N5095 X95.62 Y83.59 I8.5 J0.
N5100 X95.82 Y83.79 I0. J0.2
N5105 G1 Y83.99
N5110 G19 G3 Y84.19 Z0.271 J0. K0.2
N5115 G0 Z6.5
N5120 X95.42
N5125 G1 Z1.371 F50.
N5130 Z-0.014
N5135 G2 Y83.99 Z-0.214 J-0.2 K0. F100.
N5140 G1 Y83.79
N5145 G17 G3 X95.62 Y83.59 I0.2 J0.
N5150 X104.028 Y90.84 I0. J8.5
N5155 G1 Z0.
N5160 G3 X104.12 Y92.09 I-8.407 J1.25
N5165 X104.028 Y93.34 I-8.5 J0.
N5170 G1 Z-0.214 F50.
N5175 G3 X95.62 Y100.59 I-8.407 J-1.25 F100.
N5180 X92.499 Y99.996 I0. J-8.5
N5185 G1 Z0.
N5190 G3 X90.334 Y98.746 I3.121 J-7.906
N5195 G1 Z-0.214 F50.
N5200 G3 X87.12 Y92.09 I5.286 J-6.656 F100.
N5205 X90.334 Y85.434 I8.5 J0.
N5210 G1 Z0.
N5215 G3 X92.499 Y84.184 I5.286 J6.656
N5220 G1 Z-0.214 F50.
N5225 G3 X95.62 Y83.59 I3.121 J7.906 F100.
N5230 X95.82 Y83.79 I0. J0.2
N5235 G1 Y83.99
N5240 G19 G3 Y84.19 Z-0.014 J0. K0.2
N5245 G0 Z6.5
N5250 X95.42
N5255 G1 Z1.086 F50.
N5260 Z-0.3
N5265 G2 Y83.99 Z-0.5 J-0.2 K0. F100.
N5270 G1 Y83.79
N5275 G17 G3 X95.62 Y83.59 I0.2 J0.
N5280 X104.028 Y90.84 I0. J8.5
N5285 G1 Z0.
N5290 G3 X104.12 Y92.09 I-8.407 J1.25
N5295 X104.028 Y93.34 I-8.5 J0.
N5300 G1 Z-0.5 F50.
N5305 G3 X95.62 Y100.59 I-8.407 J-1.25 F100.
N5310 X92.499 Y99.996 I0. J-8.5
N5315 G1 Z0.
N5320 G3 X90.334 Y98.746 I3.121 J-7.906
N5325 G1 Z-0.5 F50.
N5330 G3 X87.12 Y92.09 I5.286 J-6.656 F100.
N5335 X90.334 Y85.434 I8.5 J0.
N5340 G1 Z0.
N5345 G3 X92.499 Y84.184 I5.286 J6.656
N5350 G1 Z-0.5 F50.
N5355 G3 X95.62 Y83.59 I3.121 J7.906 F100.
N5360 X95.82 Y83.79 I0. J0.2
N5365 G1 Y83.99
N5370 G19 G3 Y84.19 Z-0.3 J0. K0.2
N5375 G0 Z6.5
N5380 X95.42 Y59.19
N5385 G1 Z2.8 F50.
N5390 Z1.414
N5395 G2 Y58.99 Z1.214 J-0.2 K0. F100.
N5400 G1 Y58.79
N5405 G17 G3 X95.62 Y58.59 I0.2 J0.
N5410 X104.12 Y67.09 I0. J8.5
N5415 X87.12 I-8.5 J0.
N5420 X95.62 Y58.59 I8.5 J0.
N5425 X95.82 Y58.79 I0. J0.2
N5430 G1 Y58.99
N5435 G19 G3 Y59.19 Z1.414 J0. K0.2
N5440 G0 Z6.5
N5445 X95.42
N5450 G1 Z2.514 F50.
N5455 Z1.129
N5460 G2 Y58.99 Z0.929 J-0.2 K0. F100.
N5465 G1 Y58.79
N5470 G17 G3 X95.62 Y58.59 I0.2 J0.
N5475 X104.12 Y67.09 I0. J8.5
N5480 X87.12 I-8.5 J0.
N5485 X95.62 Y58.59 I8.5 J0.
N5490 X95.82 Y58.79 I0. J0.2
N5495 G1 Y58.99
N5500 G19 G3 Y59.19 Z1.129 J0. K0.2
N5505 G0 Z6.5
N5510 X95.42
N5515 G1 Z2.229 F50.
N5520 Z0.843
N5525 G2 Y58.99 Z0.643 J-0.2 K0. F100.
N5530 G1 Y58.79
N5535 G17 G3 X95.62 Y58.59 I0.2 J0.
N5540 X104.12 Y67.09 I0. J8.5
N5545 X87.12 I-8.5 J0.
N5550 X95.62 Y58.59 I8.5 J0.
N5555 X95.82 Y58.79 I0. J0.2
N5560 G1 Y58.99
N5565 G19 G3 Y59.19 Z0.843 J0. K0.2
N5570 G0 Z6.5
N5575 X95.42
N5580 G1 Z1.943 F50.
N5585 Z0.557
N5590 G2 Y58.99 Z0.357 J-0.2 K0. F100.
N5595 G1 Y58.79
N5600 G17 G3 X95.62 Y58.59 I0.2 J0.
N5605 X104.12 Y67.09 I0. J8.5
N5610 X87.12 I-8.5 J0.
N5615 X95.62 Y58.59 I8.5 J0.
N5620 X95.82 Y58.79 I0. J0.2
N5625 G1 Y58.99
N5630 G19 G3 Y59.19 Z0.557 J0. K0.2
N5635 G0 Z6.5
N5640 X95.42
N5645 G1 Z1.657 F50.
N5650 Z0.271
N5655 G2 Y58.99 Z0.071 J-0.2 K0. F100.
N5660 G1 Y58.79
N5665 G17 G3 X95.62 Y58.59 I0.2 J0.
N5670 X104.12 Y67.09 I0. J8.5
N5675 X87.12 I-8.5 J0.
N5680 X95.62 Y58.59 I8.5 J0.
N5685 X95.82 Y58.79 I0. J0.2
N5690 G1 Y58.99
N5695 G19 G3 Y59.19 Z0.271 J0. K0.2
N5700 G0 Z6.5
N5705 X95.42
N5710 G1 Z1.371 F50.
N5715 Z-0.014
N5720 G2 Y58.99 Z-0.214 J-0.2 K0. F100.
N5725 G1 Y58.79
N5730 G17 G3 X95.62 Y58.59 I0.2 J0.
N5735 X104.028 Y65.84 I0. J8.5
N5740 G1 Z0.
N5745 G3 X104.12 Y67.09 I-8.407 J1.25
N5750 X104.028 Y68.34 I-8.5 J0.
N5755 G1 Z-0.214 F50.
N5760 G3 X92.499 Y74.996 I-8.407 J-1.25 F100.
N5765 G1 Z0.
N5770 G3 X90.334 Y73.746 I3.121 J-7.906
N5775 G1 Z-0.214 F50.
N5780 G3 X87.12 Y67.09 I5.286 J-6.656 F100.
N5785 X90.334 Y60.434 I8.5 J0.
N5790 G1 Z0.
N5795 G3 X92.499 Y59.184 I5.286 J6.656
N5800 G1 Z-0.214 F50.
N5805 G3 X95.62 Y58.59 I3.121 J7.906 F100.
N5810 X95.82 Y58.79 I0. J0.2
N5815 G1 Y58.99
N5820 G19 G3 Y59.19 Z-0.014 J0. K0.2
N5825 G0 Z6.5
N5830 X95.42
N5835 G1 Z1.086 F50.
N5840 Z-0.3
N5845 G2 Y58.99 Z-0.5 J-0.2 K0. F100.
N5850 G1 Y58.79
N5855 G17 G3 X95.62 Y58.59 I0.2 J0.
N5860 X104.028 Y65.84 I0. J8.5
N5865 G1 Z0.
N5870 G3 X104.12 Y67.09 I-8.407 J1.25
N5875 X104.028 Y68.34 I-8.5 J0.
N5880 G1 Z-0.5 F50.
N5885 G3 X92.499 Y74.996 I-8.407 J-1.25 F100.
N5890 G1 Z0.
N5895 G3 X90.334 Y73.746 I3.121 J-7.906
N5900 G1 Z-0.5 F50.
N5905 G3 X87.12 Y67.09 I5.286 J-6.656 F100.
N5910 X90.334 Y60.434 I8.5 J0.
N5915 G1 Z0.
N5920 G3 X92.499 Y59.184 I5.286 J6.656
N5925 G1 Z-0.5 F50.
N5930 G3 X95.62 Y58.59 I3.121 J7.906 F100.
N5935 X95.82 Y58.79 I0. J0.2
N5940 G1 Y58.99
N5945 G19 G3 Y59.19 Z-0.3 J0. K0.2
N5950 G0 Z6.5
N5955 Y49.99
N5960 G1 Z2.8 F50.
N5965 Z1.414
N5970 G3 Y50.19 Z1.214 J0.2 K0. F100.
N5975 G1 Y50.39
N5980 G17 G3 X95.62 Y50.59 I-0.2 J0.
N5985 X87.12 Y42.09 I0. J-8.5
N5990 X104.12 I8.5 J0.
N5995 X95.62 Y50.59 I-8.5 J0.
N6000 X95.42 Y50.39 I0. J-0.2
N6005 G1 Y50.19
N6010 G19 G2 Y49.99 Z1.414 J0. K0.2
N6015 G0 Z6.5
N6020 X95.82
N6025 G1 Z2.514 F50.
N6030 Z1.129
N6035 G3 Y50.19 Z0.929 J0.2 K0. F100.
N6040 G1 Y50.39
N6045 G17 G3 X95.62 Y50.59 I-0.2 J0.
N6050 X87.12 Y42.09 I0. J-8.5
N6055 X104.12 I8.5 J0.
N6060 X95.62 Y50.59 I-8.5 J0.
N6065 X95.42 Y50.39 I0. J-0.2
N6070 G1 Y50.19
N6075 G19 G2 Y49.99 Z1.129 J0. K0.2
N6080 G0 Z6.5
N6085 X95.82
N6090 G1 Z2.229 F50.
N6095 Z0.843
N6100 G3 Y50.19 Z0.643 J0.2 K0. F100.
N6105 G1 Y50.39
N6110 G17 G3 X95.62 Y50.59 I-0.2 J0.
N6115 X87.12 Y42.09 I0. J-8.5
N6120 X104.12 I8.5 J0.
N6125 X95.62 Y50.59 I-8.5 J0.
N6130 X95.42 Y50.39 I0. J-0.2
N6135 G1 Y50.19
N6140 G19 G2 Y49.99 Z0.843 J0. K0.2
N6145 G0 Z6.5
N6150 X95.82
N6155 G1 Z1.943 F50.
N6160 Z0.557
N6165 G3 Y50.19 Z0.357 J0.2 K0. F100.
N6170 G1 Y50.39
N6175 G17 G3 X95.62 Y50.59 I-0.2 J0.
N6180 X87.12 Y42.09 I0. J-8.5
N6185 X104.12 I8.5 J0.
N6190 X95.62 Y50.59 I-8.5 J0.
N6195 X95.42 Y50.39 I0. J-0.2
N6200 G1 Y50.19
N6205 G19 G2 Y49.99 Z0.557 J0. K0.2
N6210 G0 Z6.5
N6215 X95.82
N6220 G1 Z1.657 F50.
N6225 Z0.271
N6230 G3 Y50.19 Z0.071 J0.2 K0. F100.
N6235 G1 Y50.39
N6240 G17 G3 X95.62 Y50.59 I-0.2 J0.
N6245 X87.12 Y42.09 I0. J-8.5
N6250 X104.12 I8.5 J0.
N6255 X95.62 Y50.59 I-8.5 J0.
N6260 X95.42 Y50.39 I0. J-0.2
N6265 G1 Y50.19
N6270 G19 G2 Y49.99 Z0.271 J0. K0.2
N6275 G0 Z6.5
N6280 X95.82
N6285 G1 Z1.371 F50.
N6290 Z-0.014
N6295 G3 Y50.19 Z-0.214 J0.2 K0. F100.
N6300 G1 Y50.39
N6305 G17 G3 X95.62 Y50.59 I-0.2 J0.
N6310 X92.499 Y49.996 I0. J-8.5
N6315 G1 Z0.
N6320 G3 X90.334 Y48.746 I3.121 J-7.906
N6325 G1 Z-0.214 F50.
N6330 G3 X87.12 Y42.09 I5.286 J-6.656 F100.
N6335 X90.334 Y35.434 I8.5 J0.
N6340 G1 Z0.
N6345 G3 X92.499 Y34.184 I5.286 J6.656
N6350 G1 Z-0.214 F50.
N6355 G3 X104.028 Y40.84 I3.121 J7.906 F100.
N6360 G1 Z0.
N6365 G3 X104.12 Y42.09 I-8.407 J1.25
N6370 X104.028 Y43.34 I-8.5 J0.
N6375 G1 Z-0.214 F50.
N6380 G3 X95.62 Y50.59 I-8.407 J-1.25 F100.
N6385 X95.42 Y50.39 I0. J-0.2
N6390 G1 Y50.19
N6395 G19 G2 Y49.99 Z-0.014 J0. K0.2
N6400 G0 Z6.5
N6405 X95.82
N6410 G1 Z1.086 F50.
N6415 Z-0.3
N6420 G3 Y50.19 Z-0.5 J0.2 K0. F100.
N6425 G1 Y50.39
N6430 G17 G3 X95.62 Y50.59 I-0.2 J0.
N6435 X92.499 Y49.996 I0. J-8.5
N6440 G1 Z0.
N6445 G3 X90.334 Y48.746 I3.121 J-7.906
N6450 G1 Z-0.5 F50.
N6455 G3 X87.12 Y42.09 I5.286 J-6.656 F100.
N6460 X90.334 Y35.434 I8.5 J0.
N6465 G1 Z0.
N6470 G3 X92.499 Y34.184 I5.286 J6.656
N6475 G1 Z-0.5 F50.
N6480 G3 X104.028 Y40.84 I3.121 J7.906 F100.
N6485 G1 Z0.
N6490 G3 X104.12 Y42.09 I-8.407 J1.25
N6495 X104.028 Y43.34 I-8.5 J0.
N6500 G1 Z-0.5 F50.
N6505 G3 X95.62 Y50.59 I-8.407 J-1.25 F100.
N6510 X95.42 Y50.39 I0. J-0.2
N6515 G1 Y50.19
N6520 G19 G2 Y49.99 Z-0.3 J0. K0.2
N6525 G0 Z6.5
N6530 X78.52 Y41.89
N6535 G1 Z2.8 F50.
N6540 Z1.414
N6545 G18 G2 X78.72 Z1.214 I0.2 K0. F100.
N6550 G1 X78.92
N6555 G17 G3 X79.12 Y42.09 I0. J0.2
N6560 X62.12 I-8.5 J0.
N6565 X79.12 I8.5 J0.
N6570 X78.92 Y42.29 I-0.2 J0.
N6575 G1 X78.72
N6580 G18 G3 X78.52 Z1.414 I0. K0.2
N6585 G0 Z6.5
N6590 Y41.89
N6595 G1 Z2.514 F50.
N6600 Z1.129
N6605 G2 X78.72 Z0.929 I0.2 K0. F100.
N6610 G1 X78.92
N6615 G17 G3 X79.12 Y42.09 I0. J0.2
N6620 X62.12 I-8.5 J0.
N6625 X79.12 I8.5 J0.
N6630 X78.92 Y42.29 I-0.2 J0.
N6635 G1 X78.72
N6640 G18 G3 X78.52 Z1.129 I0. K0.2
N6645 G0 Z6.5
N6650 Y41.89
N6655 G1 Z2.229 F50.
N6660 Z0.843
N6665 G2 X78.72 Z0.643 I0.2 K0. F100.
N6670 G1 X78.92
N6675 G17 G3 X79.12 Y42.09 I0. J0.2
N6680 X62.12 I-8.5 J0.
N6685 X79.12 I8.5 J0.
N6690 X78.92 Y42.29 I-0.2 J0.
N6695 G1 X78.72
N6700 G18 G3 X78.52 Z0.843 I0. K0.2
N6705 G0 Z6.5
N6710 Y41.89
N6715 G1 Z1.943 F50.
N6720 Z0.557
N6725 G2 X78.72 Z0.357 I0.2 K0. F100.
N6730 G1 X78.92
N6735 G17 G3 X79.12 Y42.09 I0. J0.2
N6740 X62.12 I-8.5 J0.
N6745 X79.12 I8.5 J0.
N6750 X78.92 Y42.29 I-0.2 J0.
N6755 G1 X78.72
N6760 G18 G3 X78.52 Z0.557 I0. K0.2
N6765 G0 Z6.5
N6770 Y41.89
N6775 G1 Z1.657 F50.
N6780 Z0.271
N6785 G2 X78.72 Z0.071 I0.2 K0. F100.
N6790 G1 X78.92
N6795 G17 G3 X79.12 Y42.09 I0. J0.2
N6800 X62.12 I-8.5 J0.
N6805 X79.12 I8.5 J0.
N6810 X78.92 Y42.29 I-0.2 J0.
N6815 G1 X78.72
N6820 G18 G3 X78.52 Z0.271 I0. K0.2
N6825 G0 Z6.5
N6830 Y41.89
N6835 G1 Z1.371 F50.
N6840 Z0.
N6845 X78.72 F100.
N6850 X78.92
N6855 G17 G3 X79.12 Y42.09 I0. J0.2
N6860 X79.028 Y43.34 I-8.5 J0.
N6865 G1 Z-0.214 F50.
N6870 G3 X67.499 Y49.996 I-8.408 J-1.25 F100.
N6875 G1 Z0.
N6880 G3 X65.334 Y48.746 I3.121 J-7.906
N6885 G1 Z-0.214 F50.
N6890 G3 Y35.434 I5.286 J-6.656 F100.
N6895 G1 Z0.
N6900 G3 X67.499 Y34.184 I5.286 J6.656
N6905 G1 Z-0.214 F50.
N6910 G3 X79.028 Y40.84 I3.121 J7.906 F100.
N6915 G1 Z0.
N6920 G3 X79.12 Y42.09 I-8.408 J1.25
N6925 X78.92 Y42.29 I-0.2 J0.
N6930 G1 X78.52
N6935 G0 Z6.5
N6940 Y41.89
N6945 G1 Z1.086 F50.
N6950 Z0.
N6955 Z6.5 F100.
N6960 Z0. F50.
N6965 X78.72 F100.
N6970 X78.92
N6975 G3 X79.12 Y42.09 I0. J0.2
N6980 X79.028 Y43.34 I-8.5 J0.
N6985 G1 Z-0.5 F50.
N6990 G3 X67.499 Y49.996 I-8.408 J-1.25 F100.
N6995 G1 Z0.
N7000 G3 X65.334 Y48.746 I3.121 J-7.906
N7005 G1 Z-0.5 F50.
N7010 G3 Y35.434 I5.286 J-6.656 F100.
N7015 G1 Z0.
N7020 G3 X67.499 Y34.184 I5.286 J6.656
N7025 G1 Z-0.5 F50.
N7030 G3 X79.028 Y40.84 I3.121 J7.906 F100.
N7035 G1 Z0.
N7040 G3 X79.12 Y42.09 I-8.408 J1.25
N7045 X78.92 Y42.29 I-0.2 J0.
N7050 G1 X78.52
N7055 G0 Z6.5
N7060 X77.4 Y62.146
N7065 G1 Z2.8 F50.
N7070 Z1.414
N7075 G18 G2 X77.6 Z1.214 I0.2 K0. F100.
N7080 G1 X77.8
N7085 G17 G3 X78. Y62.346 I0. J0.2
N7090 G1 Y100.
N7095 G3 X74. I-2. J0.
N7100 G1 Y62.
N7105 G3 X78. I2. J0.
N7110 G1 Y62.346
N7115 G3 X77.8 Y62.546 I-0.2 J0.
N7120 G1 X77.6
N7125 G18 G3 X77.4 Z1.414 I0. K0.2
N7130 G0 Z6.5
N7135 Y62.146
N7140 G1 Z2.514 F50.
N7145 Z1.129
N7150 G2 X77.6 Z0.929 I0.2 K0. F100.
N7155 G1 X77.8
N7160 G17 G3 X78. Y62.346 I0. J0.2
N7165 G1 Y100.
N7170 G3 X74. I-2. J0.
N7175 G1 Y62.
N7180 G3 X78. I2. J0.
N7185 G1 Y62.346
N7190 G3 X77.8 Y62.546 I-0.2 J0.
N7195 G1 X77.6
N7200 G18 G3 X77.4 Z1.129 I0. K0.2
N7205 G0 Z6.5
N7210 Y62.146
N7215 G1 Z2.229 F50.
N7220 Z0.843
N7225 G2 X77.6 Z0.643 I0.2 K0. F100.
N7230 G1 X77.8
N7235 G17 G3 X78. Y62.346 I0. J0.2
N7240 G1 Y100.
N7245 G3 X74. I-2. J0.
N7250 G1 Y62.
N7255 G3 X78. I2. J0.
N7260 G1 Y62.346
N7265 G3 X77.8 Y62.546 I-0.2 J0.
N7270 G1 X77.6
N7275 G18 G3 X77.4 Z0.843 I0. K0.2
N7280 G0 Z6.5
N7285 Y62.146
N7290 G1 Z1.943 F50.
N7295 Z0.557
N7300 G2 X77.6 Z0.357 I0.2 K0. F100.
N7305 G1 X77.8
N7310 G17 G3 X78. Y62.346 I0. J0.2
N7315 G1 Y100.
N7320 G3 X74. I-2. J0.
N7325 G1 Y62.
N7330 G3 X78. I2. J0.
N7335 G1 Y62.346
N7340 G3 X77.8 Y62.546 I-0.2 J0.
N7345 G1 X77.6
N7350 G18 G3 X77.4 Z0.557 I0. K0.2
N7355 G0 Z6.5
N7360 Y62.146
N7365 G1 Z1.657 F50.
N7370 Z0.271
N7375 G2 X77.6 Z0.071 I0.2 K0. F100.
N7380 G1 X77.8
N7385 G17 G3 X78. Y62.346 I0. J0.2
N7390 G1 Y100.
N7395 G3 X74. I-2. J0.
N7400 G1 Y62.
N7405 G3 X78. I2. J0.
N7410 G1 Y62.346
N7415 G3 X77.8 Y62.546 I-0.2 J0.
N7420 G1 X77.6
N7425 G18 G3 X77.4 Z0.271 I0. K0.2
N7430 G0 Z6.5
N7435 Y62.146
N7440 G1 Z1.371 F50.
N7445 Z-0.014
N7450 G2 X77.6 Z-0.214 I0.2 K0. F100.
N7455 G1 X77.8
N7460 G17 G3 X78. Y62.346 I0. J0.2
N7465 G1 Y70.25
N7470 Z0.
N7475 Y72.75
N7480 Z-0.214 F50.
N7485 Y89.25 F100.
N7490 Z0.
N7495 Y91.75
N7500 Z-0.214 F50.
N7505 Y100. F100.
N7510 G3 X74. I-2. J0.
N7515 G1 Y91.75
N7520 Z0.
N7525 Y89.25
N7530 Z-0.214 F50.
N7535 Y72.75 F100.
N7540 Z0.
N7545 Y70.25
N7550 Z-0.214 F50.
N7555 Y62. F100.
N7560 G3 X78. I2. J0.
N7565 G1 Y62.346
N7570 G3 X77.8 Y62.546 I-0.2 J0.
N7575 G1 X77.6
N7580 G18 G3 X77.4 Z-0.014 I0. K0.2
N7585 G0 Z6.5
N7590 Y62.146
N7595 G1 Z1.086 F50.
N7600 Z-0.3
N7605 G2 X77.6 Z-0.5 I0.2 K0. F100.
N7610 G1 X77.8
N7615 G17 G3 X78. Y62.346 I0. J0.2
N7620 G1 Y70.25
N7625 Z0.
N7630 Y72.75
N7635 Z-0.5 F50.
N7640 Y89.25 F100.
N7645 Z0.
N7650 Y91.75
N7655 Z-0.5 F50.
N7660 Y100. F100.
N7665 G3 X74. I-2. J0.
N7670 G1 Y91.75
N7675 Z0.
N7680 Y89.25
N7685 Z-0.5 F50.
N7690 Y72.75 F100.
N7695 Z0.
N7700 Y70.25
N7705 Z-0.5 F50.
N7710 Y62. F100.
N7715 G3 X78. I2. J0.
N7720 G1 Y62.346
N7725 G3 X77.8 Y62.546 I-0.2 J0.
N7730 G1 X77.6
N7735 G18 G3 X77.4 Z-0.3 I0. K0.2
N7740 G0 Z6.5
N7745 X53.523 Y42.151
N7750 G1 Z2.8 F50.
N7755 Z1.414
N7760 X53.53 Y42.152 Z1.363 F100.
N7765 X53.549 Z1.314
N7770 X53.581 Y42.153 Z1.273
N7775 X53.623 Y42.155 Z1.241
N7780 X53.671 Y42.156 Z1.221
N7785 X53.723 Y42.158 Z1.214
N7790 X53.922 Y42.165
N7795 G17 G3 X54.116 Y42.371 I-0.007 J0.2
N7800 X37.125 Y41.809 I-8.495 J-0.281
N7805 X54.116 Y42.371 I8.495 J0.281
N7810 X53.909 Y42.564 I-0.2 J-0.007
N7815 G1 X53.709 Y42.558
N7820 X53.658 Y42.556 Z1.221
N7825 X53.609 Y42.554 Z1.241
N7830 X53.568 Y42.553 Z1.273
N7835 X53.536 Y42.552 Z1.314
N7840 X53.516 Y42.551 Z1.363
N7845 X53.509 Z1.414
N7850 G0 Z6.5
N7855 X53.523 Y42.151
N7860 G1 Z2.514 F50.
N7865 Z1.129
N7870 X53.53 Y42.152 Z1.077 F100.
N7875 X53.549 Z1.029
N7880 X53.581 Y42.153 Z0.987
N7885 X53.623 Y42.155 Z0.955
N7890 X53.671 Y42.156 Z0.935
N7895 X53.723 Y42.158 Z0.929
N7900 X53.922 Y42.165
N7905 G3 X54.116 Y42.371 I-0.007 J0.2
N7910 X37.125 Y41.809 I-8.495 J-0.281
N7915 X54.116 Y42.371 I8.495 J0.281
N7920 X53.909 Y42.564 I-0.2 J-0.007
N7925 G1 X53.709 Y42.558
N7930 X53.658 Y42.556 Z0.935
N7935 X53.609 Y42.554 Z0.955
N7940 X53.568 Y42.553 Z0.987
N7945 X53.536 Y42.552 Z1.029
N7950 X53.516 Y42.551 Z1.077
N7955 X53.509 Z1.129
N7960 G0 Z6.5
N7965 X53.523 Y42.151
N7970 G1 Z2.229 F50.
N7975 Z0.843
N7980 X53.53 Y42.152 Z0.791 F100.
N7985 X53.549 Z0.743
N7990 X53.581 Y42.153 Z0.701
N7995 X53.623 Y42.155 Z0.67
N8000 X53.671 Y42.156 Z0.65
N8005 X53.723 Y42.158 Z0.643
N8010 X53.922 Y42.165
N8015 G3 X54.116 Y42.371 I-0.007 J0.2
N8020 X37.125 Y41.809 I-8.495 J-0.281
N8025 X54.116 Y42.371 I8.495 J0.281
N8030 X53.909 Y42.564 I-0.2 J-0.007
N8035 G1 X53.709 Y42.558
N8040 X53.658 Y42.556 Z0.65
N8045 X53.609 Y42.554 Z0.67
N8050 X53.568 Y42.553 Z0.701
N8055 X53.536 Y42.552 Z0.743
N8060 X53.516 Y42.551 Z0.791
N8065 X53.509 Z0.843
N8070 G0 Z6.5
N8075 X53.523 Y42.151
N8080 G1 Z1.943 F50.
N8085 Z0.557
N8090 X53.53 Y42.152 Z0.505 F100.
N8095 X53.549 Z0.457
N8100 X53.581 Y42.153 Z0.416
N8105 X53.623 Y42.155 Z0.384
N8110 X53.671 Y42.156 Z0.364
N8115 X53.723 Y42.158 Z0.357
N8120 X53.922 Y42.165
N8125 G3 X54.116 Y42.371 I-0.007 J0.2
N8130 X37.125 Y41.809 I-8.495 J-0.281
N8135 X54.116 Y42.371 I8.495 J0.281
N8140 X53.909 Y42.564 I-0.2 J-0.007
N8145 G1 X53.709 Y42.558
N8150 X53.658 Y42.556 Z0.364
N8155 X53.609 Y42.554 Z0.384
N8160 X53.568 Y42.553 Z0.416
N8165 X53.536 Y42.552 Z0.457
N8170 X53.516 Y42.551 Z0.505
N8175 X53.509 Z0.557
N8180 G0 Z6.5
N8185 X53.523 Y42.151
N8190 G1 Z1.657 F50.
N8195 Z0.271
N8200 X53.53 Y42.152 Z0.22 F100.
N8205 X53.549 Z0.171
N8210 X53.581 Y42.153 Z0.13
N8215 X53.623 Y42.155 Z0.098
N8220 X53.671 Y42.156 Z0.078
N8225 X53.723 Y42.158 Z0.071
N8230 X53.922 Y42.165
N8235 G3 X54.116 Y42.371 I-0.007 J0.2
N8240 X37.125 Y41.809 I-8.495 J-0.281
N8245 X54.116 Y42.371 I8.495 J0.281
N8250 X53.909 Y42.564 I-0.2 J-0.007
N8255 G1 X53.709 Y42.558
N8260 X53.658 Y42.556 Z0.078
N8265 X53.609 Y42.554 Z0.098
N8270 X53.568 Y42.553 Z0.13
N8275 X53.536 Y42.552 Z0.171
N8280 X53.516 Y42.551 Z0.22
N8285 X53.509 Z0.271
N8290 G0 Z6.5
N8295 X53.523 Y42.151
N8300 G1 Z1.371 F50.
N8305 Z0.
N8310 X53.723 Y42.158 F100.
N8315 X53.922 Y42.165
N8320 G3 X54.116 Y42.371 I-0.007 J0.2
N8325 X54.028 Y43.34 I-8.495 J-0.281
N8330 G1 Z-0.214 F50.
N8335 G3 X42.499 Y49.996 I-8.408 J-1.25 F100.
N8340 G1 Z0.
N8345 G3 X40.334 Y48.746 I3.121 J-7.906
N8350 G1 Z-0.214 F50.
N8355 G3 Y35.434 I5.286 J-6.656 F100.
N8360 G1 Z0.
N8365 G3 X42.499 Y34.184 I5.286 J6.656
N8370 G1 Z-0.214 F50.
N8375 G3 X54.028 Y40.84 I3.121 J7.906 F100.
N8380 G1 Z0.
N8385 G3 X54.116 Y42.371 I-8.408 J1.25
N8390 X53.909 Y42.564 I-0.2 J-0.007
N8395 G1 X53.509 Y42.551
N8400 G0 Z6.5
N8405 X53.523 Y42.151
N8410 G1 Z1.086 F50.
N8415 Z0.
N8420 Z6.5 F100.
N8425 Z0. F50.
N8430 X53.723 Y42.158 F100.
N8435 X53.922 Y42.165
N8440 G3 X54.116 Y42.371 I-0.007 J0.2
N8445 X54.028 Y43.34 I-8.495 J-0.281
N8450 G1 Z-0.5 F50.
N8455 G3 X42.499 Y49.996 I-8.408 J-1.25 F100.
N8460 G1 Z0.
N8465 G3 X40.334 Y48.746 I3.121 J-7.906
N8470 G1 Z-0.5 F50.
N8475 G3 Y35.434 I5.286 J-6.656 F100.
N8480 G1 Z0.
N8485 G3 X42.499 Y34.184 I5.286 J6.656
N8490 G1 Z-0.5 F50.
N8495 G3 X54.028 Y40.84 I3.121 J7.906 F100.
N8500 G1 Z0.
N8505 G3 X54.116 Y42.371 I-8.408 J1.25
N8510 X53.909 Y42.564 I-0.2 J-0.007
N8515 G1 X53.509 Y42.551
N8520 G0 Z6.5
N8525 X53.52 Y16.89
N8530 G1 Z2.8 F50.
N8535 Z1.414
N8540 G18 G2 X53.72 Z1.214 I0.2 K0. F100.
N8545 G1 X53.92
N8550 G17 G3 X54.12 Y17.09 I0. J0.2
N8555 X37.12 I-8.5 J0.
N8560 X54.12 I8.5 J0.
N8565 X53.92 Y17.29 I-0.2 J0.
N8570 G1 X53.72
N8575 G18 G3 X53.52 Z1.414 I0. K0.2
N8580 G0 Z6.5
N8585 Y16.89
N8590 G1 Z2.514 F50.
N8595 Z1.129
N8600 G2 X53.72 Z0.929 I0.2 K0. F100.
N8605 G1 X53.92
N8610 G17 G3 X54.12 Y17.09 I0. J0.2
N8615 X37.12 I-8.5 J0.
N8620 X54.12 I8.5 J0.
N8625 X53.92 Y17.29 I-0.2 J0.
N8630 G1 X53.72
N8635 G18 G3 X53.52 Z1.129 I0. K0.2
N8640 G0 Z6.5
N8645 Y16.89
N8650 G1 Z2.229 F50.
N8655 Z0.843
N8660 G2 X53.72 Z0.643 I0.2 K0. F100.
N8665 G1 X53.92
N8670 G17 G3 X54.12 Y17.09 I0. J0.2
N8675 X37.12 I-8.5 J0.
N8680 X54.12 I8.5 J0.
N8685 X53.92 Y17.29 I-0.2 J0.
N8690 G1 X53.72
N8695 G18 G3 X53.52 Z0.843 I0. K0.2
N8700 G0 Z6.5
N8705 Y16.89
N8710 G1 Z1.943 F50.
N8715 Z0.557
N8720 G2 X53.72 Z0.357 I0.2 K0. F100.
N8725 G1 X53.92
N8730 G17 G3 X54.12 Y17.09 I0. J0.2
N8735 X37.12 I-8.5 J0.
N8740 X54.12 I8.5 J0.
N8745 X53.92 Y17.29 I-0.2 J0.
N8750 G1 X53.72
N8755 G18 G3 X53.52 Z0.557 I0. K0.2
N8760 G0 Z6.5
N8765 Y16.89
N8770 G1 Z1.657 F50.
N8775 Z0.271
N8780 G2 X53.72 Z0.071 I0.2 K0. F100.
N8785 G1 X53.92
N8790 G17 G3 X54.12 Y17.09 I0. J0.2
N8795 X37.12 I-8.5 J0.
N8800 X54.12 I8.5 J0.
N8805 X53.92 Y17.29 I-0.2 J0.
N8810 G1 X53.72
N8815 G18 G3 X53.52 Z0.271 I0. K0.2
N8820 G0 Z6.5
N8825 Y16.89
N8830 G1 Z1.371 F50.
N8835 Z0.
N8840 X53.72 F100.
N8845 X53.92
N8850 G17 G3 X54.12 Y17.09 I0. J0.2
N8855 X54.028 Y18.34 I-8.5 J0.
N8860 G1 Z-0.214 F50.
N8865 G3 X42.499 Y24.996 I-8.408 J-1.25 F100.
N8870 G1 Z0.
N8875 G3 X40.334 Y23.746 I3.121 J-7.906
N8880 G1 Z-0.214 F50.
N8885 G3 Y10.434 I5.286 J-6.656 F100.
N8890 G1 Z0.
N8895 G3 X42.499 Y9.184 I5.286 J6.656
N8900 G1 Z-0.214 F50.
N8905 G3 X54.028 Y15.84 I3.121 J7.906 F100.
N8910 G1 Z0.
N8915 G3 X54.12 Y17.09 I-8.408 J1.25
N8920 X53.92 Y17.29 I-0.2 J0.
N8925 G1 X53.52
N8930 G0 Z6.5
N8935 Y16.89
N8940 G1 Z1.086 F50.
N8945 Z0.
N8950 Z6.5 F100.
N8955 Z0. F50.
N8960 X53.72 F100.
N8965 X53.92
N8970 G3 X54.12 Y17.09 I0. J0.2
N8975 X54.028 Y18.34 I-8.5 J0.
N8980 G1 Z-0.5 F50.
N8985 G3 X42.499 Y24.996 I-8.408 J-1.25 F100.
N8990 G1 Z0.
N8995 G3 X40.334 Y23.746 I3.121 J-7.906
N9000 G1 Z-0.5 F50.
N9005 G3 Y10.434 I5.286 J-6.656 F100.
N9010 G1 Z0.
N9015 G3 X42.499 Y9.184 I5.286 J6.656
N9020 G1 Z-0.5 F50.
N9025 G3 X54.028 Y15.84 I3.121 J7.906 F100.
N9030 G1 Z0.
N9035 G3 X54.12 Y17.09 I-8.408 J1.25
N9040 X53.92 Y17.29 I-0.2 J0.
N9045 G1 X53.52
N9050 G0 Z6.5
N9055 X78.523 Y17.151
N9060 G1 Z2.8 F50.
N9065 Z1.414
N9070 X78.53 Y17.152 Z1.363 F100.
N9075 X78.549 Z1.314
N9080 X78.581 Y17.153 Z1.273
N9085 X78.623 Y17.155 Z1.241
N9090 X78.671 Y17.156 Z1.221
N9095 X78.723 Y17.158 Z1.214
N9100 X78.922 Y17.165
N9105 G3 X79.116 Y17.371 I-0.007 J0.2
N9110 X62.125 Y16.809 I-8.495 J-0.281
N9115 X79.116 Y17.371 I8.495 J0.281
N9120 X78.909 Y17.564 I-0.2 J-0.007
N9125 G1 X78.709 Y17.558
N9130 X78.658 Y17.556 Z1.221
N9135 X78.609 Y17.554 Z1.241
N9140 X78.568 Y17.553 Z1.273
N9145 X78.536 Y17.552 Z1.314
N9150 X78.516 Y17.551 Z1.363
N9155 X78.509 Z1.414
N9160 G0 Z6.5
N9165 X78.523 Y17.151
N9170 G1 Z2.514 F50.
N9175 Z1.129
N9180 X78.53 Y17.152 Z1.077 F100.
N9185 X78.549 Z1.029
N9190 X78.581 Y17.153 Z0.987
N9195 X78.623 Y17.155 Z0.955
N9200 X78.671 Y17.156 Z0.935
N9205 X78.723 Y17.158 Z0.929
N9210 X78.922 Y17.165
N9215 G3 X79.116 Y17.371 I-0.007 J0.2
N9220 X62.125 Y16.809 I-8.495 J-0.281
N9225 X79.116 Y17.371 I8.495 J0.281
N9230 X78.909 Y17.564 I-0.2 J-0.007
N9235 G1 X78.709 Y17.558
N9240 X78.658 Y17.556 Z0.935
N9245 X78.609 Y17.554 Z0.955
N9250 X78.568 Y17.553 Z0.987
N9255 X78.536 Y17.552 Z1.029
N9260 X78.516 Y17.551 Z1.077
N9265 X78.509 Z1.129
N9270 G0 Z6.5
N9275 X78.523 Y17.151
N9280 G1 Z2.229 F50.
N9285 Z0.843
N9290 X78.53 Y17.152 Z0.791 F100.
N9295 X78.549 Z0.743
N9300 X78.581 Y17.153 Z0.701
N9305 X78.623 Y17.155 Z0.67
N9310 X78.671 Y17.156 Z0.65
N9315 X78.723 Y17.158 Z0.643
N9320 X78.922 Y17.165
N9325 G3 X79.116 Y17.371 I-0.007 J0.2
N9330 X62.125 Y16.809 I-8.495 J-0.281
N9335 X79.116 Y17.371 I8.495 J0.281
N9340 X78.909 Y17.564 I-0.2 J-0.007
N9345 G1 X78.709 Y17.558
N9350 X78.658 Y17.556 Z0.65
N9355 X78.609 Y17.554 Z0.67
N9360 X78.568 Y17.553 Z0.701
N9365 X78.536 Y17.552 Z0.743
N9370 X78.516 Y17.551 Z0.791
N9375 X78.509 Z0.843
N9380 G0 Z6.5
N9385 X78.523 Y17.151
N9390 G1 Z1.943 F50.
N9395 Z0.557
N9400 X78.53 Y17.152 Z0.505 F100.
N9405 X78.549 Z0.457
N9410 X78.581 Y17.153 Z0.416
N9415 X78.623 Y17.155 Z0.384
N9420 X78.671 Y17.156 Z0.364
N9425 X78.723 Y17.158 Z0.357
N9430 X78.922 Y17.165
N9435 G3 X79.116 Y17.371 I-0.007 J0.2
N9440 X62.125 Y16.809 I-8.495 J-0.281
N9445 X79.116 Y17.371 I8.495 J0.281
N9450 X78.909 Y17.564 I-0.2 J-0.007
N9455 G1 X78.709 Y17.558
N9460 X78.658 Y17.556 Z0.364
N9465 X78.609 Y17.554 Z0.384
N9470 X78.568 Y17.553 Z0.416
N9475 X78.536 Y17.552 Z0.457
N9480 X78.516 Y17.551 Z0.505
N9485 X78.509 Z0.557
N9490 G0 Z6.5
N9495 X78.523 Y17.151
N9500 G1 Z1.657 F50.
N9505 Z0.271
N9510 X78.53 Y17.152 Z0.22 F100.
N9515 X78.549 Z0.171
N9520 X78.581 Y17.153 Z0.13
N9525 X78.623 Y17.155 Z0.098
N9530 X78.671 Y17.156 Z0.078
N9535 X78.723 Y17.158 Z0.071
N9540 X78.922 Y17.165
N9545 G3 X79.116 Y17.371 I-0.007 J0.2
N9550 X62.125 Y16.809 I-8.495 J-0.281
N9555 X79.116 Y17.371 I8.495 J0.281
N9560 X78.909 Y17.564 I-0.2 J-0.007
N9565 G1 X78.709 Y17.558
N9570 X78.658 Y17.556 Z0.078
N9575 X78.609 Y17.554 Z0.098
N9580 X78.568 Y17.553 Z0.13
N9585 X78.536 Y17.552 Z0.171
N9590 X78.516 Y17.551 Z0.22
N9595 X78.509 Z0.271
N9600 G0 Z6.5
N9605 X78.523 Y17.151
N9610 G1 Z1.371 F50.
N9615 Z0.
N9620 X78.723 Y17.158 F100.
N9625 X78.922 Y17.165
N9630 G3 X79.116 Y17.371 I-0.007 J0.2
N9635 X79.028 Y18.34 I-8.495 J-0.281
N9640 G1 Z-0.214 F50.
N9645 G3 X67.499 Y24.996 I-8.408 J-1.25 F100.
N9650 G1 Z0.
N9655 G3 X65.334 Y23.746 I3.121 J-7.906
N9660 G1 Z-0.214 F50.
N9665 G3 Y10.434 I5.286 J-6.656 F100.
N9670 G1 Z0.
N9675 G3 X67.499 Y9.184 I5.286 J6.656
N9680 G1 Z-0.214 F50.
N9685 G3 X79.028 Y15.84 I3.121 J7.906 F100.
N9690 G1 Z0.
N9695 G3 X79.116 Y17.371 I-8.408 J1.25
N9700 X78.909 Y17.564 I-0.2 J-0.007
N9705 G1 X78.509 Y17.551
N9710 G0 Z6.5
N9715 X78.523 Y17.151
N9720 G1 Z1.086 F50.
N9725 Z0.
N9730 Z6.5 F100.
N9735 Z0. F50.
N9740 X78.723 Y17.158 F100.
N9745 X78.922 Y17.165
N9750 G3 X79.116 Y17.371 I-0.007 J0.2
N9755 X79.028 Y18.34 I-8.495 J-0.281
N9760 G1 Z-0.5 F50.
N9765 G3 X67.499 Y24.996 I-8.408 J-1.25 F100.
N9770 G1 Z0.
N9775 G3 X65.334 Y23.746 I3.121 J-7.906
N9780 G1 Z-0.5 F50.
N9785 G3 Y10.434 I5.286 J-6.656 F100.
N9790 G1 Z0.
N9795 G3 X67.499 Y9.184 I5.286 J6.656
N9800 G1 Z-0.5 F50.
N9805 G3 X79.028 Y15.84 I3.121 J7.906 F100.
N9810 G1 Z0.
N9815 G3 X79.116 Y17.371 I-8.408 J1.25
N9820 X78.909 Y17.564 I-0.2 J-0.007
N9825 G1 X78.509 Y17.551
N9830 G0 Z6.5
N9835 X95.82 Y24.99
N9840 G1 Z2.8 F50.
N9845 Z1.414
N9850 G19 G3 Y25.19 Z1.214 J0.2 K0. F100.
N9855 G1 Y25.39
N9860 G17 G3 X95.62 Y25.59 I-0.2 J0.
N9865 X87.12 Y17.09 I0. J-8.5
N9870 X104.12 I8.5 J0.
N9875 X95.62 Y25.59 I-8.5 J0.
N9880 X95.42 Y25.39 I0. J-0.2
N9885 G1 Y25.19
N9890 G19 G2 Y24.99 Z1.414 J0. K0.2
N9895 G0 Z6.5
N9900 X95.82
N9905 G1 Z2.514 F50.
N9910 Z1.129
N9915 G3 Y25.19 Z0.929 J0.2 K0. F100.
N9920 G1 Y25.39
N9925 G17 G3 X95.62 Y25.59 I-0.2 J0.
N9930 X87.12 Y17.09 I0. J-8.5
N9935 X104.12 I8.5 J0.
N9940 X95.62 Y25.59 I-8.5 J0.
N9945 X95.42 Y25.39 I0. J-0.2
N9950 G1 Y25.19
N9955 G19 G2 Y24.99 Z1.129 J0. K0.2
N9960 G0 Z6.5
N9965 X95.82
N9970 G1 Z2.229 F50.
N9975 Z0.843
N9980 G3 Y25.19 Z0.643 J0.2 K0. F100.
N9985 G1 Y25.39
N9990 G17 G3 X95.62 Y25.59 I-0.2 J0.
N9995 X87.12 Y17.09 I0. J-8.5
N10000 X104.12 I8.5 J0.
N10005 X95.62 Y25.59 I-8.5 J0.
N10010 X95.42 Y25.39 I0. J-0.2
N10015 G1 Y25.19
N10020 G19 G2 Y24.99 Z0.843 J0. K0.2
N10025 G0 Z6.5
N10030 X95.82
N10035 G1 Z1.943 F50.
N10040 Z0.557
N10045 G3 Y25.19 Z0.357 J0.2 K0. F100.
N10050 G1 Y25.39
N10055 G17 G3 X95.62 Y25.59 I-0.2 J0.
N10060 X87.12 Y17.09 I0. J-8.5
N10065 X104.12 I8.5 J0.
N10070 X95.62 Y25.59 I-8.5 J0.
N10075 X95.42 Y25.39 I0. J-0.2
N10080 G1 Y25.19
N10085 G19 G2 Y24.99 Z0.557 J0. K0.2
N10090 G0 Z6.5
N10095 X95.82
N10100 G1 Z1.657 F50.
N10105 Z0.271
N10110 G3 Y25.19 Z0.071 J0.2 K0. F100.
N10115 G1 Y25.39
N10120 G17 G3 X95.62 Y25.59 I-0.2 J0.
N10125 X87.12 Y17.09 I0. J-8.5
N10130 X104.12 I8.5 J0.
N10135 X95.62 Y25.59 I-8.5 J0.
N10140 X95.42 Y25.39 I0. J-0.2
N10145 G1 Y25.19
N10150 G19 G2 Y24.99 Z0.271 J0. K0.2
N10155 G0 Z6.5
N10160 X95.82
N10165 G1 Z1.371 F50.
N10170 Z-0.014
N10175 G3 Y25.19 Z-0.214 J0.2 K0. F100.
N10180 G1 Y25.39
N10185 G17 G3 X95.62 Y25.59 I-0.2 J0.
N10190 X92.499 Y24.996 I0. J-8.5
N10195 G1 Z0.
N10200 G3 X90.334 Y23.746 I3.121 J-7.906
N10205 G1 Z-0.214 F50.
N10210 G3 X87.12 Y17.09 I5.286 J-6.656 F100.
N10215 X90.334 Y10.434 I8.5 J0.
N10220 G1 Z0.
N10225 G3 X92.499 Y9.184 I5.286 J6.656
N10230 G1 Z-0.214 F50.
N10235 G3 X104.028 Y15.84 I3.121 J7.906 F100.
N10240 G1 Z0.
N10245 G3 X104.12 Y17.09 I-8.407 J1.25
N10250 X104.028 Y18.34 I-8.5 J0.
N10255 G1 Z-0.214 F50.
N10260 G3 X95.62 Y25.59 I-8.407 J-1.25 F100.
N10265 X95.42 Y25.39 I0. J-0.2
N10270 G1 Y25.19
N10275 G19 G2 Y24.99 Z-0.014 J0. K0.2
N10280 G0 Z6.5
N10285 X95.82
N10290 G1 Z1.086 F50.
N10295 Z-0.3
N10300 G3 Y25.19 Z-0.5 J0.2 K0. F100.
N10305 G1 Y25.39
N10310 G17 G3 X95.62 Y25.59 I-0.2 J0.
N10315 X92.499 Y24.996 I0. J-8.5
N10320 G1 Z0.
N10325 G3 X90.334 Y23.746 I3.121 J-7.906
N10330 G1 Z-0.5 F50.
N10335 G3 X87.12 Y17.09 I5.286 J-6.656 F100.
N10340 X90.334 Y10.434 I8.5 J0.
N10345 G1 Z0.
N10350 G3 X92.499 Y9.184 I5.286 J6.656
N10355 G1 Z-0.5 F50.
N10360 G3 X104.028 Y15.84 I3.121 J7.906 F100.
N10365 G1 Z0.
N10370 G3 X104.12 Y17.09 I-8.407 J1.25
N10375 X104.028 Y18.34 I-8.5 J0.
N10380 G1 Z-0.5 F50.
N10385 G3 X95.62 Y25.59 I-8.407 J-1.25 F100.
N10390 X95.42 Y25.39 I0. J-0.2
N10395 G1 Y25.19
N10400 G19 G2 Y24.99 Z-0.3 J0. K0.2
N10405 G0 Z6.5
N10410 X128.522 Y17.151
N10415 G1 Z2.8 F50.
N10420 Z1.414
N10425 X128.529 Y17.152 Z1.363 F100.
N10430 X128.549 Z1.314
N10435 X128.581 Y17.153 Z1.273
N10440 X128.622 Y17.155 Z1.241
N10445 X128.67 Y17.156 Z1.221
N10450 X128.722 Y17.158 Z1.214
N10455 X128.922 Y17.165
N10460 G17 G3 X129.115 Y17.371 I-0.007 J0.2
N10465 X112.125 Y16.809 I-8.495 J-0.281
N10470 X129.115 Y17.371 I8.495 J0.281
N10475 X128.909 Y17.564 I-0.2 J-0.007
N10480 G1 X128.709 Y17.558
N10485 X128.657 Y17.556 Z1.221
N10490 X128.609 Y17.554 Z1.241
N10495 X128.568 Y17.553 Z1.273
N10500 X128.536 Y17.552 Z1.314
N10505 X128.516 Y17.551 Z1.363
N10510 X128.509 Z1.414
N10515 G0 Z6.5
N10520 X128.522 Y17.151
N10525 G1 Z2.514 F50.
N10530 Z1.129
N10535 X128.529 Y17.152 Z1.077 F100.
N10540 X128.549 Z1.029
N10545 X128.581 Y17.153 Z0.987
N10550 X128.622 Y17.155 Z0.955
N10555 X128.67 Y17.156 Z0.935
N10560 X128.722 Y17.158 Z0.929
N10565 X128.922 Y17.165
N10570 G3 X129.115 Y17.371 I-0.007 J0.2
N10575 X112.125 Y16.809 I-8.495 J-0.281
N10580 X129.115 Y17.371 I8.495 J0.281
N10585 X128.909 Y17.564 I-0.2 J-0.007
N10590 G1 X128.709 Y17.558
N10595 X128.657 Y17.556 Z0.935
N10600 X128.609 Y17.554 Z0.955
N10605 X128.568 Y17.553 Z0.987
N10610 X128.536 Y17.552 Z1.029
N10615 X128.516 Y17.551 Z1.077
N10620 X128.509 Z1.129
N10625 G0 Z6.5
N10630 X128.522 Y17.151
N10635 G1 Z2.229 F50.
N10640 Z0.843
N10645 X128.529 Y17.152 Z0.791 F100.
N10650 X128.549 Z0.743
N10655 X128.581 Y17.153 Z0.701
N10660 X128.622 Y17.155 Z0.67
N10665 X128.67 Y17.156 Z0.65
N10670 X128.722 Y17.158 Z0.643
N10675 X128.922 Y17.165
N10680 G3 X129.115 Y17.371 I-0.007 J0.2
N10685 X112.125 Y16.809 I-8.495 J-0.281
N10690 X129.115 Y17.371 I8.495 J0.281
N10695 X128.909 Y17.564 I-0.2 J-0.007
N10700 G1 X128.709 Y17.558
N10705 X128.657 Y17.556 Z0.65
N10710 X128.609 Y17.554 Z0.67
N10715 X128.568 Y17.553 Z0.701
N10720 X128.536 Y17.552 Z0.743
N10725 X128.516 Y17.551 Z0.791
N10730 X128.509 Z0.843
N10735 G0 Z6.5
N10740 X128.522 Y17.151
N10745 G1 Z1.943 F50.
N10750 Z0.557
N10755 X128.529 Y17.152 Z0.505 F100.
N10760 X128.549 Z0.457
N10765 X128.581 Y17.153 Z0.416
N10770 X128.622 Y17.155 Z0.384
N10775 X128.67 Y17.156 Z0.364
N10780 X128.722 Y17.158 Z0.357
N10785 X128.922 Y17.165
N10790 G3 X129.115 Y17.371 I-0.007 J0.2
N10795 X112.125 Y16.809 I-8.495 J-0.281
N10800 X129.115 Y17.371 I8.495 J0.281
N10805 X128.909 Y17.564 I-0.2 J-0.007
N10810 G1 X128.709 Y17.558
N10815 X128.657 Y17.556 Z0.364
N10820 X128.609 Y17.554 Z0.384
N10825 X128.568 Y17.553 Z0.416
N10830 X128.536 Y17.552 Z0.457
N10835 X128.516 Y17.551 Z0.505
N10840 X128.509 Z0.557
N10845 G0 Z6.5
N10850 X128.522 Y17.151
N10855 G1 Z1.657 F50.
N10860 Z0.271
N10865 X128.529 Y17.152 Z0.22 F100.
N10870 X128.549 Z0.171
N10875 X128.581 Y17.153 Z0.13
N10880 X128.622 Y17.155 Z0.098
N10885 X128.67 Y17.156 Z0.078
N10890 X128.722 Y17.158 Z0.071
N10895 X128.922 Y17.165
N10900 G3 X129.115 Y17.371 I-0.007 J0.2
N10905 X112.125 Y16.809 I-8.495 J-0.281
N10910 X129.115 Y17.371 I8.495 J0.281
N10915 X128.909 Y17.564 I-0.2 J-0.007
N10920 G1 X128.709 Y17.558
N10925 X128.657 Y17.556 Z0.078
N10930 X128.609 Y17.554 Z0.098
N10935 X128.568 Y17.553 Z0.13
N10940 X128.536 Y17.552 Z0.171
N10945 X128.516 Y17.551 Z0.22
N10950 X128.509 Z0.271
N10955 G0 Z6.5
N10960 X128.522 Y17.151
N10965 G1 Z1.371 F50.
N10970 Z0.
N10975 X128.722 Y17.158 F100.
N10980 X128.922 Y17.165
N10985 G3 X129.115 Y17.371 I-0.007 J0.2
N10990 X129.028 Y18.34 I-8.495 J-0.281
N10995 G1 Z-0.214 F50.
N11000 G3 X117.499 Y24.996 I-8.408 J-1.25 F100.
N11005 G1 Z0.
N11010 G3 X115.334 Y23.746 I3.121 J-7.906
N11015 G1 Z-0.214 F50.
N11020 G3 Y10.434 I5.286 J-6.656 F100.
N11025 G1 Z0.
N11030 G3 X117.499 Y9.184 I5.286 J6.656
N11035 G1 Z-0.214 F50.
N11040 G3 X129.028 Y15.84 I3.121 J7.906 F100.
N11045 G1 Z0.
N11050 G3 X129.115 Y17.371 I-8.408 J1.25
N11055 X128.909 Y17.564 I-0.2 J-0.007
N11060 G1 X128.509 Y17.551
N11065 G0 Z6.5
N11070 X128.522 Y17.151
N11075 G1 Z1.086 F50.
N11080 Z0.
N11085 Z6.5 F100.
N11090 Z0. F50.
N11095 X128.722 Y17.158 F100.
N11100 X128.922 Y17.165
N11105 G3 X129.115 Y17.371 I-0.007 J0.2
N11110 X129.028 Y18.34 I-8.495 J-0.281
N11115 G1 Z-0.5 F50.
N11120 G3 X117.499 Y24.996 I-8.408 J-1.25 F100.
N11125 G1 Z0.
N11130 G3 X115.334 Y23.746 I3.121 J-7.906
N11135 G1 Z-0.5 F50.
N11140 G3 Y10.434 I5.286 J-6.656 F100.
N11145 G1 Z0.
N11150 G3 X117.499 Y9.184 I5.286 J6.656
N11155 G1 Z-0.5 F50.
N11160 G3 X129.028 Y15.84 I3.121 J7.906 F100.
N11165 G1 Z0.
N11170 G3 X129.115 Y17.371 I-8.408 J1.25
N11175 X128.909 Y17.564 I-0.2 J-0.007
N11180 G1 X128.509 Y17.551
N11185 G0 Z6.5
N11190 X163.775 Y21.26
N11195 G1 Z2.8 F50.
N11200 Z1.414
N11205 G18 G2 X163.975 Z1.214 I0.2 K0. F100.
N11210 G1 X164.175
N11215 G17 G3 X164.375 Y21.46 I0. J0.2
N11220 X143.375 I-10.5 J0.
N11225 X164.375 I10.5 J0.
N11230 X164.175 Y21.66 I-0.2 J0.
N11235 G1 X163.975
N11240 G18 G3 X163.775 Z1.414 I0. K0.2
N11245 G0 Z6.5
N11250 Y21.26
N11255 G1 Z2.514 F50.
N11260 Z1.129
N11265 G2 X163.975 Z0.929 I0.2 K0. F100.
N11270 G1 X164.175
N11275 G17 G3 X164.375 Y21.46 I0. J0.2
N11280 X143.375 I-10.5 J0.
N11285 X164.375 I10.5 J0.
N11290 X164.175 Y21.66 I-0.2 J0.
N11295 G1 X163.975
N11300 G18 G3 X163.775 Z1.129 I0. K0.2
N11305 G0 Z6.5
N11310 Y21.26
N11315 G1 Z2.229 F50.
N11320 Z0.843
N11325 G2 X163.975 Z0.643 I0.2 K0. F100.
N11330 G1 X164.175
N11335 G17 G3 X164.375 Y21.46 I0. J0.2
N11340 X143.375 I-10.5 J0.
N11345 X164.375 I10.5 J0.
N11350 X164.175 Y21.66 I-0.2 J0.
N11355 G1 X163.975
N11360 G18 G3 X163.775 Z0.843 I0. K0.2
N11365 G0 Z6.5
N11370 Y21.26
N11375 G1 Z1.943 F50.
N11380 Z0.557
N11385 G2 X163.975 Z0.357 I0.2 K0. F100.
N11390 G1 X164.175
N11395 G17 G3 X164.375 Y21.46 I0. J0.2
N11400 X143.375 I-10.5 J0.
N11405 X164.375 I10.5 J0.
N11410 X164.175 Y21.66 I-0.2 J0.
N11415 G1 X163.975
N11420 G18 G3 X163.775 Z0.557 I0. K0.2
N11425 G0 Z6.5
N11430 Y21.26
N11435 G1 Z1.657 F50.
N11440 Z0.271
N11445 G2 X163.975 Z0.071 I0.2 K0. F100.
N11450 G1 X164.175
N11455 G17 G3 X164.375 Y21.46 I0. J0.2
N11460 X143.375 I-10.5 J0.
N11465 X164.375 I10.5 J0.
N11470 X164.175 Y21.66 I-0.2 J0.
N11475 G1 X163.975
N11480 G18 G3 X163.775 Z0.271 I0. K0.2
N11485 G0 Z6.5
N11490 Y21.26
N11495 G1 Z1.371 F50.
N11500 Z-0.014
N11505 G2 X163.975 Z-0.214 I0.2 K0. F100.
N11510 G1 X164.175
N11515 G17 G3 X164.375 Y21.46 I0. J0.2
N11520 X162.131 Y27.948 I-10.5 J0.
N11525 G1 Z0.
N11530 G3 X160.363 Y29.716 I-8.256 J-6.488
N11535 G1 Z-0.214 F50.
N11540 G3 X147.387 I-6.488 J-8.256 F100.
N11545 G1 Z0.
N11550 G3 X145.619 Y27.948 I6.488 J-8.256
N11555 G1 Z-0.214 F50.
N11560 G3 Y14.973 I8.256 J-6.488 F100.
N11565 G1 Z0.
N11570 G3 X147.387 Y13.205 I8.256 J6.488
N11575 G1 Z-0.214 F50.
N11580 G3 X160.363 I6.488 J8.256 F100.
N11585 G1 Z0.
N11590 G3 X162.131 Y14.973 I-6.488 J8.256
N11595 G1 Z-0.214 F50.
N11600 G3 X164.375 Y21.46 I-8.256 J6.488 F100.
N11605 X164.175 Y21.66 I-0.2 J0.
N11610 G1 X163.975
N11615 G18 G3 X163.775 Z-0.014 I0. K0.2
N11620 G0 Z6.5
N11625 Y21.26
N11630 G1 Z1.086 F50.
N11635 Z-0.3
N11640 G2 X163.975 Z-0.5 I0.2 K0. F100.
N11645 G1 X164.175
N11650 G17 G3 X164.375 Y21.46 I0. J0.2
N11655 X162.131 Y27.948 I-10.5 J0.
N11660 G1 Z0.
N11665 G3 X160.363 Y29.716 I-8.256 J-6.488
N11670 G1 Z-0.5 F50.
N11675 G3 X147.387 I-6.488 J-8.256 F100.
N11680 G1 Z0.
N11685 G3 X145.619 Y27.948 I6.488 J-8.256
N11690 G1 Z-0.5 F50.
N11695 G3 Y14.973 I8.256 J-6.488 F100.
N11700 G1 Z0.
N11705 G3 X147.387 Y13.205 I8.256 J6.488
N11710 G1 Z-0.5 F50.
N11715 G3 X160.363 I6.488 J8.256 F100.
N11720 G1 Z0.
N11725 G3 X162.131 Y14.973 I-6.488 J8.256
N11730 G1 Z-0.5 F50.
N11735 G3 X164.375 Y21.46 I-8.256 J6.488 F100.
N11740 X164.175 Y21.66 I-0.2 J0.
N11745 G1 X163.975
N11750 G18 G3 X163.775 Z-0.3 I0. K0.2
N11755 G0 Z6.5
N11760 X198.775 Y21.26
N11765 G1 Z2.8 F50.
N11770 Z1.414
N11775 G2 X198.975 Z1.214 I0.2 K0. F100.
N11780 G1 X199.175
N11785 G17 G3 X199.375 Y21.46 I0. J0.2
N11790 X178.375 I-10.5 J0.
N11795 X199.375 I10.5 J0.
N11800 X199.175 Y21.66 I-0.2 J0.
N11805 G1 X198.975
N11810 G18 G3 X198.775 Z1.414 I0. K0.2
N11815 G0 Z6.5
N11820 Y21.26
N11825 G1 Z2.514 F50.
N11830 Z1.129
N11835 G2 X198.975 Z0.929 I0.2 K0. F100.
N11840 G1 X199.175
N11845 G17 G3 X199.375 Y21.46 I0. J0.2
N11850 X178.375 I-10.5 J0.
N11855 X199.375 I10.5 J0.
N11860 X199.175 Y21.66 I-0.2 J0.
N11865 G1 X198.975
N11870 G18 G3 X198.775 Z1.129 I0. K0.2
N11875 G0 Z6.5
N11880 Y21.26
N11885 G1 Z2.229 F50.
N11890 Z0.843
N11895 G2 X198.975 Z0.643 I0.2 K0. F100.
N11900 G1 X199.175
N11905 G17 G3 X199.375 Y21.46 I0. J0.2
N11910 X178.375 I-10.5 J0.
N11915 X199.375 I10.5 J0.
N11920 X199.175 Y21.66 I-0.2 J0.
N11925 G1 X198.975
N11930 G18 G3 X198.775 Z0.843 I0. K0.2
N11935 G0 Z6.5
N11940 Y21.26
N11945 G1 Z1.943 F50.
N11950 Z0.557
N11955 G2 X198.975 Z0.357 I0.2 K0. F100.
N11960 G1 X199.175
N11965 G17 G3 X199.375 Y21.46 I0. J0.2
N11970 X178.375 I-10.5 J0.
N11975 X199.375 I10.5 J0.
N11980 X199.175 Y21.66 I-0.2 J0.
N11985 G1 X198.975
N11990 G18 G3 X198.775 Z0.557 I0. K0.2
N11995 G0 Z6.5
N12000 Y21.26
N12005 G1 Z1.657 F50.
N12010 Z0.271
N12015 G2 X198.975 Z0.071 I0.2 K0. F100.
N12020 G1 X199.175
N12025 G17 G3 X199.375 Y21.46 I0. J0.2
N12030 X178.375 I-10.5 J0.
N12035 X199.375 I10.5 J0.
N12040 X199.175 Y21.66 I-0.2 J0.
N12045 G1 X198.975
N12050 G18 G3 X198.775 Z0.271 I0. K0.2
N12055 G0 Z6.5
N12060 Y21.26
N12065 G1 Z1.371 F50.
N12070 Z-0.014
N12075 G2 X198.975 Z-0.214 I0.2 K0. F100.
N12080 G1 X199.175
N12085 G17 G3 X199.375 Y21.46 I0. J0.2
N12090 X197.131 Y27.948 I-10.5 J0.
N12095 G1 Z0.
N12100 G3 X195.363 Y29.716 I-8.256 J-6.488
N12105 G1 Z-0.214 F50.
N12110 G3 X182.387 I-6.488 J-8.256 F100.
N12115 G1 Z0.
N12120 G3 X180.619 Y27.948 I6.488 J-8.256
N12125 G1 Z-0.214 F50.
N12130 G3 Y14.973 I8.256 J-6.488 F100.
N12135 G1 Z0.
N12140 G3 X182.387 Y13.205 I8.256 J6.488
N12145 G1 Z-0.214 F50.
N12150 G3 X195.363 I6.488 J8.256 F100.
N12155 G1 Z0.
N12160 G3 X197.131 Y14.973 I-6.488 J8.256
N12165 G1 Z-0.214 F50.
N12170 G3 X199.375 Y21.46 I-8.256 J6.488 F100.
N12175 X199.175 Y21.66 I-0.2 J0.
N12180 G1 X198.975
N12185 G18 G3 X198.775 Z-0.014 I0. K0.2
N12190 G0 Z6.5
N12195 Y21.26
N12200 G1 Z1.086 F50.
N12205 Z-0.3
N12210 G2 X198.975 Z-0.5 I0.2 K0. F100.
N12215 G1 X199.175
N12220 G17 G3 X199.375 Y21.46 I0. J0.2
N12225 X197.131 Y27.948 I-10.5 J0.
N12230 G1 Z0.
N12235 G3 X195.363 Y29.716 I-8.256 J-6.488
N12240 G1 Z-0.5 F50.
N12245 G3 X182.387 I-6.488 J-8.256 F100.
N12250 G1 Z0.
N12255 G3 X180.619 Y27.948 I6.488 J-8.256
N12260 G1 Z-0.5 F50.
N12265 G3 Y14.973 I8.256 J-6.488 F100.
N12270 G1 Z0.
N12275 G3 X182.387 Y13.205 I8.256 J6.488
N12280 G1 Z-0.5 F50.
N12285 G3 X195.363 I6.488 J8.256 F100.
N12290 G1 Z0.
N12295 G3 X197.131 Y14.973 I-6.488 J8.256
N12300 G1 Z-0.5 F50.
N12305 G3 X199.375 Y21.46 I-8.256 J6.488 F100.
N12310 X199.175 Y21.66 I-0.2 J0.
N12315 G1 X198.975
N12320 G18 G3 X198.775 Z-0.3 I0. K0.2
N12325 G0 Z6.5
N12330 X128.52 Y41.89
N12335 G1 Z2.8 F50.
N12340 Z1.414
N12345 G2 X128.72 Z1.214 I0.2 K0. F100.
N12350 G1 X128.92
N12355 G17 G3 X129.12 Y42.09 I0. J0.2
N12360 X112.12 I-8.5 J0.
N12365 X129.12 I8.5 J0.
N12370 X128.92 Y42.29 I-0.2 J0.
N12375 G1 X128.72
N12380 G18 G3 X128.52 Z1.414 I0. K0.2
N12385 G0 Z6.5
N12390 Y41.89
N12395 G1 Z2.514 F50.
N12400 Z1.129
N12405 G2 X128.72 Z0.929 I0.2 K0. F100.
N12410 G1 X128.92
N12415 G17 G3 X129.12 Y42.09 I0. J0.2
N12420 X112.12 I-8.5 J0.
N12425 X129.12 I8.5 J0.
N12430 X128.92 Y42.29 I-0.2 J0.
N12435 G1 X128.72
N12440 G18 G3 X128.52 Z1.129 I0. K0.2
N12445 G0 Z6.5
N12450 Y41.89
N12455 G1 Z2.229 F50.
N12460 Z0.843
N12465 G2 X128.72 Z0.643 I0.2 K0. F100.
N12470 G1 X128.92
N12475 G17 G3 X129.12 Y42.09 I0. J0.2
N12480 X112.12 I-8.5 J0.
N12485 X129.12 I8.5 J0.
N12490 X128.92 Y42.29 I-0.2 J0.
N12495 G1 X128.72
N12500 G18 G3 X128.52 Z0.843 I0. K0.2
N12505 G0 Z6.5
N12510 Y41.89
N12515 G1 Z1.943 F50.
N12520 Z0.557
N12525 G2 X128.72 Z0.357 I0.2 K0. F100.
N12530 G1 X128.92
N12535 G17 G3 X129.12 Y42.09 I0. J0.2
N12540 X112.12 I-8.5 J0.
N12545 X129.12 I8.5 J0.
N12550 X128.92 Y42.29 I-0.2 J0.
N12555 G1 X128.72
N12560 G18 G3 X128.52 Z0.557 I0. K0.2
N12565 G0 Z6.5
N12570 Y41.89
N12575 G1 Z1.657 F50.
N12580 Z0.271
N12585 G2 X128.72 Z0.071 I0.2 K0. F100.
N12590 G1 X128.92
N12595 G17 G3 X129.12 Y42.09 I0. J0.2
N12600 X112.12 I-8.5 J0.
N12605 X129.12 I8.5 J0.
N12610 X128.92 Y42.29 I-0.2 J0.
N12615 G1 X128.72
N12620 G18 G3 X128.52 Z0.271 I0. K0.2
N12625 G0 Z6.5
N12630 Y41.89
N12635 G1 Z1.371 F50.
N12640 Z0.
N12645 X128.72 F100.
N12650 X128.92
N12655 G17 G3 X129.12 Y42.09 I0. J0.2
N12660 X129.028 Y43.34 I-8.5 J0.
N12665 G1 Z-0.214 F50.
N12670 G3 X117.499 Y49.996 I-8.408 J-1.25 F100.
N12675 G1 Z0.
N12680 G3 X115.334 Y48.746 I3.121 J-7.906
N12685 G1 Z-0.214 F50.
N12690 G3 Y35.434 I5.286 J-6.656 F100.
N12695 G1 Z0.
N12700 G3 X117.499 Y34.184 I5.286 J6.656
N12705 G1 Z-0.214 F50.
N12710 G3 X129.028 Y40.84 I3.121 J7.906 F100.
N12715 G1 Z0.
N12720 G3 X129.12 Y42.09 I-8.408 J1.25
N12725 X128.92 Y42.29 I-0.2 J0.
N12730 G1 X128.52
N12735 G0 Z6.5
N12740 Y41.89
N12745 G1 Z1.086 F50.
N12750 Z0.
N12755 Z6.5 F100.
N12760 Z0. F50.
N12765 X128.72 F100.
N12770 X128.92
N12775 G3 X129.12 Y42.09 I0. J0.2
N12780 X129.028 Y43.34 I-8.5 J0.
N12785 G1 Z-0.5 F50.
N12790 G3 X117.499 Y49.996 I-8.408 J-1.25 F100.
N12795 G1 Z0.
N12800 G3 X115.334 Y48.746 I3.121 J-7.906
N12805 G1 Z-0.5 F50.
N12810 G3 Y35.434 I5.286 J-6.656 F100.
N12815 G1 Z0.
N12820 G3 X117.499 Y34.184 I5.286 J6.656
N12825 G1 Z-0.5 F50.
N12830 G3 X129.028 Y40.84 I3.121 J7.906 F100.
N12835 G1 Z0.
N12840 G3 X129.12 Y42.09 I-8.408 J1.25
N12845 X128.92 Y42.29 I-0.2 J0.
N12850 G1 X128.52
N12855 G0 Z6.5
N12860 X28.523 Y42.151
N12865 G1 Z2.8 F50.
N12870 Z1.414
N12875 X28.53 Y42.152 Z1.363 F100.
N12880 X28.549 Z1.314
N12885 X28.581 Y42.153 Z1.273
N12890 X28.623 Y42.155 Z1.241
N12895 X28.671 Y42.156 Z1.221
N12900 X28.723 Y42.158 Z1.214
N12905 X28.922 Y42.165
N12910 G3 X29.116 Y42.371 I-0.007 J0.2
N12915 X12.125 Y41.809 I-8.495 J-0.281
N12920 X29.116 Y42.371 I8.495 J0.281
N12925 X28.909 Y42.564 I-0.2 J-0.007
N12930 G1 X28.709 Y42.558
N12935 X28.658 Y42.556 Z1.221
N12940 X28.609 Y42.554 Z1.241
N12945 X28.568 Y42.553 Z1.273
N12950 X28.536 Y42.552 Z1.314
N12955 X28.516 Y42.551 Z1.363
N12960 X28.509 Z1.414
N12965 G0 Z6.5
N12970 X28.523 Y42.151
N12975 G1 Z2.514 F50.
N12980 Z1.129
N12985 X28.53 Y42.152 Z1.077 F100.
N12990 X28.549 Z1.029
N12995 X28.581 Y42.153 Z0.987
N13000 X28.623 Y42.155 Z0.955
N13005 X28.671 Y42.156 Z0.935
N13010 X28.723 Y42.158 Z0.929
N13015 X28.922 Y42.165
N13020 G3 X29.116 Y42.371 I-0.007 J0.2
N13025 X12.125 Y41.809 I-8.495 J-0.281
N13030 X29.116 Y42.371 I8.495 J0.281
N13035 X28.909 Y42.564 I-0.2 J-0.007
N13040 G1 X28.709 Y42.558
N13045 X28.658 Y42.556 Z0.935
N13050 X28.609 Y42.554 Z0.955
N13055 X28.568 Y42.553 Z0.987
N13060 X28.536 Y42.552 Z1.029
N13065 X28.516 Y42.551 Z1.077
N13070 X28.509 Z1.129
N13075 G0 Z6.5
N13080 X28.523 Y42.151
N13085 G1 Z2.229 F50.
N13090 Z0.843
N13095 X28.53 Y42.152 Z0.791 F100.
N13100 X28.549 Z0.743
N13105 X28.581 Y42.153 Z0.701
N13110 X28.623 Y42.155 Z0.67
N13115 X28.671 Y42.156 Z0.65
N13120 X28.723 Y42.158 Z0.643
N13125 X28.922 Y42.165
N13130 G3 X29.116 Y42.371 I-0.007 J0.2
N13135 X12.125 Y41.809 I-8.495 J-0.281
N13140 X29.116 Y42.371 I8.495 J0.281
N13145 X28.909 Y42.564 I-0.2 J-0.007
N13150 G1 X28.709 Y42.558
N13155 X28.658 Y42.556 Z0.65
N13160 X28.609 Y42.554 Z0.67
N13165 X28.568 Y42.553 Z0.701
N13170 X28.536 Y42.552 Z0.743
N13175 X28.516 Y42.551 Z0.791
N13180 X28.509 Z0.843
N13185 G0 Z6.5
N13190 X28.523 Y42.151
N13195 G1 Z1.943 F50.
N13200 Z0.557
N13205 X28.53 Y42.152 Z0.505 F100.
N13210 X28.549 Z0.457
N13215 X28.581 Y42.153 Z0.416
N13220 X28.623 Y42.155 Z0.384
N13225 X28.671 Y42.156 Z0.364
N13230 X28.723 Y42.158 Z0.357
N13235 X28.922 Y42.165
N13240 G3 X29.116 Y42.371 I-0.007 J0.2
N13245 X12.125 Y41.809 I-8.495 J-0.281
N13250 X29.116 Y42.371 I8.495 J0.281
N13255 X28.909 Y42.564 I-0.2 J-0.007
N13260 G1 X28.709 Y42.558
N13265 X28.658 Y42.556 Z0.364
N13270 X28.609 Y42.554 Z0.384
N13275 X28.568 Y42.553 Z0.416
N13280 X28.536 Y42.552 Z0.457
N13285 X28.516 Y42.551 Z0.505
N13290 X28.509 Z0.557
N13295 G0 Z6.5
N13300 X28.523 Y42.151
N13305 G1 Z1.657 F50.
N13310 Z0.271
N13315 X28.53 Y42.152 Z0.22 F100.
N13320 X28.549 Z0.171
N13325 X28.581 Y42.153 Z0.13
N13330 X28.623 Y42.155 Z0.098
N13335 X28.671 Y42.156 Z0.078
N13340 X28.723 Y42.158 Z0.071
N13345 X28.922 Y42.165
N13350 G3 X29.116 Y42.371 I-0.007 J0.2
N13355 X12.125 Y41.809 I-8.495 J-0.281
N13360 X29.116 Y42.371 I8.495 J0.281
N13365 X28.909 Y42.564 I-0.2 J-0.007
N13370 G1 X28.709 Y42.558
N13375 X28.658 Y42.556 Z0.078
N13380 X28.609 Y42.554 Z0.098
N13385 X28.568 Y42.553 Z0.13
N13390 X28.536 Y42.552 Z0.171
N13395 X28.516 Y42.551 Z0.22
N13400 X28.509 Z0.271
N13405 G0 Z6.5
N13410 X28.523 Y42.151
N13415 G1 Z1.371 F50.
N13420 Z0.
N13425 X28.723 Y42.158 F100.
N13430 X28.922 Y42.165
N13435 G3 X29.116 Y42.371 I-0.007 J0.2
N13440 X29.028 Y43.34 I-8.495 J-0.281
N13445 G1 Z-0.214 F50.
N13450 G3 X17.499 Y49.996 I-8.408 J-1.25 F100.
N13455 G1 Z0.
N13460 G3 X15.334 Y48.746 I3.121 J-7.906
N13465 G1 Z-0.214 F50.
N13470 G3 Y35.434 I5.286 J-6.656 F100.
N13475 G1 Z0.
N13480 G3 X17.499 Y34.184 I5.286 J6.656
N13485 G1 Z-0.214 F50.
N13490 G3 X29.028 Y40.84 I3.121 J7.906 F100.
N13495 G1 Z0.
N13500 G3 X29.116 Y42.371 I-8.408 J1.25
N13505 X28.909 Y42.564 I-0.2 J-0.007
N13510 G1 X28.509 Y42.551
N13515 G0 Z6.5
N13520 X28.523 Y42.151
N13525 G1 Z1.086 F50.
N13530 Z0.
N13535 Z6.5 F100.
N13540 Z0. F50.
N13545 X28.723 Y42.158 F100.
N13550 X28.922 Y42.165
N13555 G3 X29.116 Y42.371 I-0.007 J0.2
N13560 X29.028 Y43.34 I-8.495 J-0.281
N13565 G1 Z-0.5 F50.
N13570 G3 X17.499 Y49.996 I-8.408 J-1.25 F100.
N13575 G1 Z0.
N13580 G3 X15.334 Y48.746 I3.121 J-7.906
N13585 G1 Z-0.5 F50.
N13590 G3 Y35.434 I5.286 J-6.656 F100.
N13595 G1 Z0.
N13600 G3 X17.499 Y34.184 I5.286 J6.656
N13605 G1 Z-0.5 F50.
N13610 G3 X29.028 Y40.84 I3.121 J7.906 F100.
N13615 G1 Z0.
N13620 G3 X29.116 Y42.371 I-8.408 J1.25
N13625 X28.909 Y42.564 I-0.2 J-0.007
N13630 G1 X28.509 Y42.551
N13635 G0 Z6.5
N13640 X28.52 Y16.89
N13645 G1 Z2.8 F50.
N13650 Z1.414
N13655 G18 G2 X28.72 Z1.214 I0.2 K0. F100.
N13660 G1 X28.92
N13665 G17 G3 X29.12 Y17.09 I0. J0.2
N13670 X12.12 I-8.5 J0.
N13675 X29.12 I8.5 J0.
N13680 X28.92 Y17.29 I-0.2 J0.
N13685 G1 X28.72
N13690 G18 G3 X28.52 Z1.414 I0. K0.2
N13695 G0 Z6.5
N13700 Y16.89
N13705 G1 Z2.514 F50.
N13710 Z1.129
N13715 G2 X28.72 Z0.929 I0.2 K0. F100.
N13720 G1 X28.92
N13725 G17 G3 X29.12 Y17.09 I0. J0.2
N13730 X12.12 I-8.5 J0.
N13735 X29.12 I8.5 J0.
N13740 X28.92 Y17.29 I-0.2 J0.
N13745 G1 X28.72
N13750 G18 G3 X28.52 Z1.129 I0. K0.2
N13755 G0 Z6.5
N13760 Y16.89
N13765 G1 Z2.229 F50.
N13770 Z0.843
N13775 G2 X28.72 Z0.643 I0.2 K0. F100.
N13780 G1 X28.92
N13785 G17 G3 X29.12 Y17.09 I0. J0.2
N13790 X12.12 I-8.5 J0.
N13795 X29.12 I8.5 J0.
N13800 X28.92 Y17.29 I-0.2 J0.
N13805 G1 X28.72
N13810 G18 G3 X28.52 Z0.843 I0. K0.2
N13815 G0 Z6.5
N13820 Y16.89
N13825 G1 Z1.943 F50.
N13830 Z0.557
N13835 G2 X28.72 Z0.357 I0.2 K0. F100.
N13840 G1 X28.92
N13845 G17 G3 X29.12 Y17.09 I0. J0.2
N13850 X12.12 I-8.5 J0.
N13855 X29.12 I8.5 J0.
N13860 X28.92 Y17.29 I-0.2 J0.
N13865 G1 X28.72
N13870 G18 G3 X28.52 Z0.557 I0. K0.2
N13875 G0 Z6.5
N13880 Y16.89
N13885 G1 Z1.657 F50.
N13890 Z0.271
N13895 G2 X28.72 Z0.071 I0.2 K0. F100.
N13900 G1 X28.92
N13905 G17 G3 X29.12 Y17.09 I0. J0.2
N13910 X12.12 I-8.5 J0.
N13915 X29.12 I8.5 J0.
N13920 X28.92 Y17.29 I-0.2 J0.
N13925 G1 X28.72
N13930 G18 G3 X28.52 Z0.271 I0. K0.2
N13935 G0 Z6.5
N13940 Y16.89
N13945 G1 Z1.371 F50.
N13950 Z0.
N13955 X28.72 F100.
N13960 X28.92
N13965 G17 G3 X29.12 Y17.09 I0. J0.2
N13970 X29.028 Y18.34 I-8.5 J0.
N13975 G1 Z-0.214 F50.
N13980 G3 X17.499 Y24.996 I-8.408 J-1.25 F100.
N13985 G1 Z0.
N13990 G3 X15.334 Y23.746 I3.121 J-7.906
N13995 G1 Z-0.214 F50.
N14000 G3 Y10.434 I5.286 J-6.656 F100.
N14005 G1 Z0.
N14010 G3 X17.499 Y9.184 I5.286 J6.656
N14015 G1 Z-0.214 F50.
N14020 G3 X29.028 Y15.84 I3.121 J7.906 F100.
N14025 G1 Z0.
N14030 G3 X29.12 Y17.09 I-8.408 J1.25
N14035 X28.92 Y17.29 I-0.2 J0.
N14040 G1 X28.52
N14045 G0 Z6.5
N14050 Y16.89
N14055 G1 Z1.086 F50.
N14060 Z0.
N14065 Z6.5 F100.
N14070 Z0. F50.
N14075 X28.72 F100.
N14080 X28.92
N14085 G3 X29.12 Y17.09 I0. J0.2
N14090 X29.028 Y18.34 I-8.5 J0.
N14095 G1 Z-0.5 F50.
N14100 G3 X17.499 Y24.996 I-8.408 J-1.25 F100.
N14105 G1 Z0.
N14110 G3 X15.334 Y23.746 I3.121 J-7.906
N14115 G1 Z-0.5 F50.
N14120 G3 Y10.434 I5.286 J-6.656 F100.
N14125 G1 Z0.
N14130 G3 X17.499 Y9.184 I5.286 J6.656
N14135 G1 Z-0.5 F50.
N14140 G3 X29.028 Y15.84 I3.121 J7.906 F100.
N14145 G1 Z0.
N14150 G3 X29.12 Y17.09 I-8.408 J1.25
N14155 X28.92 Y17.29 I-0.2 J0.
N14160 G1 X28.52
N14165 G0 Z11.5
(2D OUTERCONTOUR2)
N14170 S5000 M3
N14175 G0 Z16.5
N14180 X232.465 Y-1.6
N14185 Z6.5
N14190 G1 Z2.75 F100.
N14195 Z1.475
N14200 G19 G3 Y-1.4 Z1.275 J0.2 K0. F125.
N14205 G1 Y-1.2
N14210 G17 G3 X232.265 Y-1. I-0.2 J0.
N14215 G1 X0. F100.
N14220 G2 X-1. Y0. I0. J1.
N14225 G1 Y112.
N14230 G2 X0. Y113. I1. J0.
N14235 G1 X235.
N14240 G2 X236. Y112. I0. J-1.
N14245 G1 Y0.
N14250 G2 X235. Y-1. I-1. J0.
N14255 G1 X232.265
N14260 G3 X232.065 Y-1.2 I0. J-0.2 F125.
N14265 G1 Y-1.4
N14270 G19 G2 Y-1.6 Z1.475 J0. K0.2
N14275 G0 Z6.5
N14280 X232.465
N14285 G1 Z2.525 F100.
N14290 Z1.25
N14295 G3 Y-1.4 Z1.05 J0.2 K0. F125.
N14300 G1 Y-1.2
N14305 G17 G3 X232.265 Y-1. I-0.2 J0.
N14310 G1 X0. F100.
N14315 G2 X-1. Y0. I0. J1.
N14320 G1 Y112.
N14325 G2 X0. Y113. I1. J0.
N14330 G1 X235.
N14335 G2 X236. Y112. I0. J-1.
N14340 G1 Y0.
N14345 G2 X235. Y-1. I-1. J0.
N14350 G1 X232.265
N14355 G3 X232.065 Y-1.2 I0. J-0.2 F125.
N14360 G1 Y-1.4
N14365 G19 G2 Y-1.6 Z1.25 J0. K0.2
N14370 G0 Z6.5
N14375 X232.465
N14380 G1 Z2.3 F100.
N14385 Z1.025
N14390 G3 Y-1.4 Z0.825 J0.2 K0. F125.
N14395 G1 Y-1.2
N14400 G17 G3 X232.265 Y-1. I-0.2 J0.
N14405 G1 X0. F100.
N14410 G2 X-1. Y0. I0. J1.
N14415 G1 Y112.
N14420 G2 X0. Y113. I1. J0.
N14425 G1 X235.
N14430 G2 X236. Y112. I0. J-1.
N14435 G1 Y0.
N14440 G2 X235. Y-1. I-1. J0.
N14445 G1 X232.265
N14450 G3 X232.065 Y-1.2 I0. J-0.2 F125.
N14455 G1 Y-1.4
N14460 G19 G2 Y-1.6 Z1.025 J0. K0.2
N14465 G0 Z6.5
N14470 X232.465
N14475 G1 Z2.075 F100.
N14480 Z0.8
N14485 G3 Y-1.4 Z0.6 J0.2 K0. F125.
N14490 G1 Y-1.2
N14495 G17 G3 X232.265 Y-1. I-0.2 J0.
N14500 G1 X0. F100.
N14505 G2 X-1. Y0. I0. J1.
N14510 G1 Y112.
N14515 G2 X0. Y113. I1. J0.
N14520 G1 X235.
N14525 G2 X236. Y112. I0. J-1.
N14530 G1 Y0.
N14535 G2 X235. Y-1. I-1. J0.
N14540 G1 X232.265
N14545 G3 X232.065 Y-1.2 I0. J-0.2 F125.
N14550 G1 Y-1.4
N14555 G19 G2 Y-1.6 Z0.8 J0. K0.2
N14560 G0 Z6.5
N14565 X232.465
N14570 G1 Z1.85 F100.
N14575 Z0.575
N14580 G3 Y-1.4 Z0.375 J0.2 K0. F125.
N14585 G1 Y-1.2
N14590 G17 G3 X232.265 Y-1. I-0.2 J0.
N14595 G1 X0. F100.
N14600 G2 X-1. Y0. I0. J1.
N14605 G1 Y112.
N14610 G2 X0. Y113. I1. J0.
N14615 G1 X235.
N14620 G2 X236. Y112. I0. J-1.
N14625 G1 Y0.
N14630 G2 X235. Y-1. I-1. J0.
N14635 G1 X232.265
N14640 G3 X232.065 Y-1.2 I0. J-0.2 F125.
N14645 G1 Y-1.4
N14650 G19 G2 Y-1.6 Z0.575 J0. K0.2
N14655 G0 Z6.5
N14660 X232.465
N14665 G1 Z1.625 F100.
N14670 Z0.35
N14675 G3 Y-1.4 Z0.15 J0.2 K0. F125.
N14680 G1 Y-1.2
N14685 G17 G3 X232.265 Y-1. I-0.2 J0.
N14690 G1 X0. F100.
N14695 G2 X-1. Y0. I0. J1.
N14700 G1 Y112.
N14705 G2 X0. Y113. I1. J0.
N14710 G1 X235.
N14715 G2 X236. Y112. I0. J-1.
N14720 G1 Y0.
N14725 G2 X235. Y-1. I-1. J0.
N14730 G1 X232.265
N14735 G3 X232.065 Y-1.2 I0. J-0.2 F125.
N14740 G1 Y-1.4
N14745 G19 G2 Y-1.6 Z0.35 J0. K0.2
N14750 G0 Z6.5
N14755 X232.465
N14760 G1 Z1.4 F100.
N14765 Z0.125
N14770 G3 Y-1.4 Z-0.075 J0.2 K0. F125.
N14775 G1 Y-1.2
N14780 G17 G3 X232.265 Y-1. I-0.2 J0.
N14785 G1 X0. F100.
N14790 G2 X-1. Y0. I0. J1.
N14795 G1 Y112.
N14800 G2 X0. Y113. I1. J0.
N14805 G1 X235.
N14810 G2 X236. Y112. I0. J-1.
N14815 G1 Y0.
N14820 G2 X235. Y-1. I-1. J0.
N14825 G1 X232.265
N14830 G3 X232.065 Y-1.2 I0. J-0.2 F125.
N14835 G1 Y-1.4
N14840 G19 G2 Y-1.6 Z0.125 J0. K0.2
N14845 G0 Z6.5
N14850 X232.465
N14855 G1 Z1.175 F100.
N14860 Z-0.1
N14865 G3 Y-1.4 Z-0.3 J0.2 K0. F125.
N14870 G1 Y-1.2
N14875 G17 G3 X232.265 Y-1. I-0.2 J0.
N14880 G1 X0. F100.
N14885 G2 X-1. Y0. I0. J1.
N14890 G1 Y112.
N14895 G2 X0. Y113. I1. J0.
N14900 G1 X235.
N14905 G2 X236. Y112. I0. J-1.
N14910 G1 Y0.
N14915 G2 X235. Y-1. I-1. J0.
N14920 G1 X232.265
N14925 G3 X232.065 Y-1.2 I0. J-0.2 F125.
N14930 G1 Y-1.4
N14935 G19 G2 Y-1.6 Z-0.1 J0. K0.2
N14940 G0 Z16.5
N14945 G17
N14950 M9
N14955 G53 G0 Z0.
N14960 M30
%
