%
(1001)
(T2  D=3. CR=0. TAPER=118DEG - ZMIN=-1. - DRILL)
N10 G90 G94 G17 G91.1
N15 G21
N20 G53 G0 Z0.
(DRILL1)
N25 T2 M6
N30 S12000 M3
N35 G54
N40 M8
N45 G0 X222.247 Y17.498
N50 G43 Z10. H2
N55 G0 Z5.
N60 G98 G81 X222.247 Y17.498 Z-1. R5. F150.
N65 X198.781 Y11.56
N70 X163.781
N75 X129.459 Y8.253
N80 X104.459
N85 X79.459
N90 X54.459
N95 X29.459
N100 X11.779 Y25.93
N105 X29.459 Y33.253
N110 X36.779 Y25.93
N115 X54.459 Y33.253
N120 X61.779 Y25.93
N125 X79.459 Y33.253
N130 X86.779 Y25.93
N135 X104.459 Y33.253
N140 X111.779 Y25.93
N145 X129.459 Y33.253
N150 X143.983 Y31.363
N155 X163.781 Y46.56
N160 X178.983 Y31.363
N165 X198.781 Y46.56
N170 X222.251 Y94.499
N175 X198.781 Y81.56
N180 X178.983 Y66.363
N185 X163.781 Y81.56
N190 X178.983 Y101.363
N195 X143.983
N200 X111.779 Y100.93
N205 X86.779
N210 Y75.93
N215 X104.459 Y83.253
N220 X111.779 Y75.93
N225 X129.459 Y83.253
N230 X143.983 Y66.363
N235 X129.459 Y58.253
N240 X111.779 Y50.93
N245 X104.459 Y58.253
N250 X86.779 Y50.93
N255 X61.779
N260 X50. Y66.
N265 X36.779 Y50.93
N270 X11.779
N275 X50. Y96.
N280 G80
N285 G0 Z10.
N290 M9
N295 G53 Z0.
N300 M30
%
