%
(1001)
(MACHINE)
(  VENDOR PLANETCNC)
(  DESCRIPTION CNC 4030)
(T1  D=14. CR=0. - ZMIN=1.5 - FLAT END MILL)
N10 G90 G94 G17 G91.1
N15 G21
N20 G53 G0 Z0.
(FLAT1)
N25 T1 M6
N30 S12000 M3
N35 G54
N40 M8
N45 G0 X204.817 Y141.121
N50 G43 Z18. H1
N55 G0 Z3.9
N60 G1 Z2.9 F66.67
N65 G18 G3 X203.417 Z1.5 I-1.4 K0. F200.
N70 G1 X202.017
N75 X136.679
N80 G17 G3 X133.879 Y138.321 I0. J-2.8
N85 G1 Y136.679
N90 G3 X136.679 Y133.879 I2.8 J0.
N95 G1 X228.321
N100 G3 X231.121 Y136.679 I0. J2.8
N105 G1 Y138.321
N110 G3 X228.321 Y141.121 I-2.8 J0.
N115 G1 X202.017
N120 G2 X192.258 Y146.001 I0. J12.198
N125 G3 X182.5 Y150.88 I-9.758 J-7.319
N130 G1 X126.92
N135 G3 X124.12 Y148.08 I0. J-2.8
N140 G1 Y126.92
N145 G3 X126.92 Y124.12 I2.8 J0.
N150 G1 X238.08
N155 G3 X240.88 Y126.92 I0. J2.8
N160 G1 Y148.08
N165 G3 X238.08 Y150.88 I-2.8 J0.
N170 G1 X182.5
N175 G2 X172.742 Y155.759 I0. J12.198
N180 G3 X162.983 Y160.638 I-9.758 J-7.319
N185 G1 X117.162
N190 G3 X114.362 Y157.838 I0. J-2.8
N195 G1 Y117.162
N200 G3 X117.162 Y114.362 I2.8 J0.
N205 G1 X247.838
N210 G3 X250.638 Y117.162 I0. J2.8
N215 G1 Y157.838
N220 G3 X247.838 Y160.638 I-2.8 J0.
N225 G1 X162.983
N230 G2 X153.225 Y165.517 I0. J12.198
N235 G3 X143.467 Y170.396 I-9.758 J-7.319
N240 G1 X107.404
N245 G3 X104.604 Y167.596 I0. J-2.8
N250 G1 Y107.404
N255 G3 X107.404 Y104.604 I2.8 J0.
N260 G1 X257.596
N265 G3 X260.396 Y107.404 I0. J2.8
N270 G1 Y167.596
N275 G3 X257.596 Y170.396 I-2.8 J0.
N280 G1 X143.467
N285 G2 X133.708 Y175.276 I0. J12.198
N290 G3 X123.95 Y180.155 I-9.758 J-7.319
N295 G1 X97.645
N300 G3 X94.845 Y177.355 I0. J-2.8
N305 G1 Y97.645
N310 G3 X97.645 Y94.845 I2.8 J0.
N315 G1 X267.355
N320 G3 X270.155 Y97.645 I0. J2.8
N325 G1 Y177.355
N330 G3 X267.355 Y180.155 I-2.8 J0.
N335 G1 X123.95
N340 G2 X114.192 Y185.034 I0. J12.198
N345 G3 X104.433 Y189.913 I-9.758 J-7.319
N350 G1 X87.887
N355 G3 X85.087 Y187.113 I0. J-2.8
N360 G1 Y87.887
N365 G3 X87.887 Y85.087 I2.8 J0.
N370 G1 X277.113
N375 G3 X279.913 Y87.887 I0. J2.8
N380 G1 Y187.113
N385 G3 X277.113 Y189.913 I-2.8 J0.
N390 G1 X104.433
N395 G2 X94.675 Y194.792 I0. J12.198
N400 G3 X84.916 Y199.672 I-9.758 J-7.319
N405 G1 X78.128
N410 G3 X75.328 Y196.872 I0. J-2.8
N415 G1 Y78.128
N420 G3 X78.128 Y75.328 I2.8 J0.
N425 G1 X286.872
N430 G3 X289.672 Y78.128 I0. J2.8
N435 G1 Y196.872
N440 G3 X286.872 Y199.672 I-2.8 J0.
N445 G1 X84.916
N450 G2 X76.547 Y205.8 I0. J8.778
N455 G3 X66.623 Y208.818 I-5.999 J-1.899
N460 X65.57 Y206.63 I1.747 J-2.188
N465 G1 Y68.37
N470 G3 X68.37 Y65.57 I2.8 J0.
N475 G1 X296.63
N480 G3 X299.43 Y68.37 I0. J2.8
N485 G1 Y206.63
N490 G3 X296.63 Y209.43 I-2.8 J0.
N495 G1 X68.37
N500 G3 X66.623 Y208.818 I0. J-2.8
N505 G2 X60.955 Y208.899 I-2.785 J3.489
N510 G3 X55.812 Y206.513 I-2.018 J-2.386
N515 G1 Y58.612
N520 G3 X58.612 Y55.812 I2.8 J0.
N525 G1 X306.388
N530 G3 X309.188 Y58.612 I0. J2.8
N535 G1 Y216.388
N540 G3 X306.388 Y219.188 I-2.8 J0.
N545 G1 X58.612
N550 G3 X55.812 Y216.388 I0. J-2.8
N555 G1 Y206.513
N560 G2 X50.933 Y196.755 I-12.198 J0.
N565 G3 X46.053 Y186.996 I7.319 J-9.758
N570 G1 Y48.853
N575 G3 X48.853 Y46.053 I2.8 J0.
N580 G1 X316.147
N585 G3 X318.947 Y48.853 I0. J2.8
N590 G1 Y226.147
N595 G3 X316.147 Y228.947 I-2.8 J0.
N600 G1 X48.853
N605 G3 X46.053 Y226.147 I0. J-2.8
N610 G1 Y186.996
N615 G2 X41.174 Y177.238 I-12.198 J0.
N620 G3 X36.295 Y167.48 I7.319 J-9.758
N625 G1 Y39.095
N630 G3 X39.095 Y36.295 I2.8 J0.
N635 G1 X325.905
N640 G3 X328.705 Y39.095 I0. J2.8
N645 G1 Y235.905
N650 G3 X325.905 Y238.705 I-2.8 J0.
N655 G1 X39.095
N660 G3 X36.295 Y235.905 I0. J-2.8
N665 G1 Y167.48
N670 G2 X31.416 Y157.721 I-12.198 J0.
N675 G3 X26.537 Y147.963 I7.319 J-9.758
N680 G1 Y29.337
N685 G3 X29.337 Y26.537 I2.8 J0.
N690 G1 X335.663
N695 G3 X338.463 Y29.337 I0. J2.8
N700 G1 Y245.663
N705 G3 X335.663 Y248.463 I-2.8 J0.
N710 G1 X29.337
N715 G3 X26.537 Y245.663 I0. J-2.8
N720 G1 Y147.963
N725 G2 X21.658 Y138.205 I-12.198 J0.
N730 G3 X16.778 Y128.446 I7.319 J-9.758
N735 G1 Y19.578
N740 G3 X19.578 Y16.778 I2.8 J0.
N745 G1 X345.422
N750 G3 X348.222 Y19.578 I0. J2.8
N755 G1 Y255.422
N760 G3 X345.422 Y258.222 I-2.8 J0.
N765 G1 X19.578
N770 G3 X16.778 Y255.422 I0. J-2.8
N775 G1 Y128.446
N780 G2 X11.903 Y118.691 I-12.193 J-0.003
N785 G1 X11.899 Y118.688
N790 G3 X7.02 Y108.93 I7.319 J-9.758
N795 G1 Y7.02
N800 X357.98
N805 Y267.98
N810 X7.02
N815 Y108.93
N820 Y107.53
N825 G19 G2 Y106.13 Z2.9 J0. K1.4
N830 G0 Z18.
N835 G17
N840 M9
N845 G53 G0 Z0.
N850 M30
%
