%
(1001)
(T1  D=2. CR=0. - ZMIN=-0.5 - FLAT END MILL)
N10 G90 G94 G17 G91.1
N15 G21
N30 S12000 M3
N35 G54
N40 M8
N45 G0 X128.52 Y41.89
N50 G43 Z11.5 H1
N55 G0 Z6.5
N60 G1 Z2.8 F50.
N65 Z1.414
N70 G18 G2 X128.72 Z1.214 I0.2 K0. F100.
N75 G1 X128.92
N80 G17 G3 X129.12 Y42.09 I0. J0.2
N85 X112.12 I-8.5 J0.
N90 X129.12 I8.5 J0.
N95 X128.92 Y42.29 I-0.2 J0.
N100 G1 X128.72
N105 G18 G3 X128.52 Z1.414 I0. K0.2
N110 G0 Z6.5
N115 Y41.89
N120 G1 Z2.514 F50.
N125 Z1.129
N130 G2 X128.72 Z0.929 I0.2 K0. F100.
N135 G1 X128.92
N140 G17 G3 X129.12 Y42.09 I0. J0.2
N145 X112.12 I-8.5 J0.
N150 X129.12 I8.5 J0.
N155 X128.92 Y42.29 I-0.2 J0.
N160 G1 X128.72
N165 G18 G3 X128.52 Z1.129 I0. K0.2
N170 G0 Z6.5
N175 Y41.89
N180 G1 Z2.229 F50.
N185 Z0.843
N190 G2 X128.72 Z0.643 I0.2 K0. F100.
N195 G1 X128.92
N200 G17 G3 X129.12 Y42.09 I0. J0.2
N205 X112.12 I-8.5 J0.
N210 X129.12 I8.5 J0.
N215 X128.92 Y42.29 I-0.2 J0.
N220 G1 X128.72
N225 G18 G3 X128.52 Z0.843 I0. K0.2
N230 G0 Z6.5
N235 Y41.89
N240 G1 Z1.943 F50.
N245 Z0.557
N250 G2 X128.72 Z0.357 I0.2 K0. F100.
N255 G1 X128.92
N260 G17 G3 X129.12 Y42.09 I0. J0.2
N265 X112.12 I-8.5 J0.
N270 X129.12 I8.5 J0.
N275 X128.92 Y42.29 I-0.2 J0.
N280 G1 X128.72
N285 G18 G3 X128.52 Z0.557 I0. K0.2
N290 G0 Z6.5
N295 Y41.89
N300 G1 Z1.657 F50.
N305 Z0.271
N310 G2 X128.72 Z0.071 I0.2 K0. F100.
N315 G1 X128.92
N320 G17 G3 X129.12 Y42.09 I0. J0.2
N325 X112.12 I-8.5 J0.
N330 X129.12 I8.5 J0.
N335 X128.92 Y42.29 I-0.2 J0.
N340 G1 X128.72
N345 G18 G3 X128.52 Z0.271 I0. K0.2
N350 G0 Z6.5
N355 Y41.89
N360 G1 Z1.371 F50.
N365 Z0.
N370 X128.72 F100.
N375 X128.92
N380 G17 G3 X129.12 Y42.09 I0. J0.2
N385 X129.028 Y43.34 I-8.5 J0.
N390 G1 Z-0.214 F50.
N395 G3 X117.499 Y49.996 I-8.408 J-1.25 F100.
N400 G1 Z0.
N405 G3 X115.334 Y48.746 I3.121 J-7.906
N410 G1 Z-0.214 F50.
N415 G3 Y35.434 I5.286 J-6.656 F100.
N420 G1 Z0.
N425 G3 X117.499 Y34.184 I5.286 J6.656
N430 G1 Z-0.214 F50.
N435 G3 X129.028 Y40.84 I3.121 J7.906 F100.
N440 G1 Z0.
N445 G3 X129.12 Y42.09 I-8.408 J1.25
N450 X128.92 Y42.29 I-0.2 J0.
N455 G1 X128.52
N460 G0 Z6.5
N465 Y41.89
N470 G1 Z1.086 F50.
N475 Z0.
N480 Z6.5 F100.
N485 Z0. F50.
N490 X128.72 F100.
N495 X128.92
N500 G3 X129.12 Y42.09 I0. J0.2
N505 X129.028 Y43.34 I-8.5 J0.
N510 G1 Z-0.5 F50.
N515 G3 X117.499 Y49.996 I-8.408 J-1.25 F100.
N520 G1 Z0.
N525 G3 X115.334 Y48.746 I3.121 J-7.906
N530 G1 Z-0.5 F50.
N535 G3 Y35.434 I5.286 J-6.656 F100.
N540 G1 Z0.
N545 G3 X117.499 Y34.184 I5.286 J6.656
N550 G1 Z-0.5 F50.
N555 G3 X129.028 Y40.84 I3.121 J7.906 F100.
N560 G1 Z0.
N565 G3 X129.12 Y42.09 I-8.408 J1.25
N570 X128.92 Y42.29 I-0.2 J0.
N575 G1 X128.52
N580 G0 Z6.5
N585 Y16.89
N590 G1 Z2.8 F50.
N595 Z1.414
N600 G18 G2 X128.72 Z1.214 I0.2 K0. F100.
N605 G1 X128.92
N610 G17 G3 X129.12 Y17.09 I0. J0.2
N615 X112.12 I-8.5 J0.
N620 X129.12 I8.5 J0.
N625 X128.92 Y17.29 I-0.2 J0.
N630 G1 X128.72
N635 G18 G3 X128.52 Z1.414 I0. K0.2
N640 G0 Z6.5
N645 Y16.89
N650 G1 Z2.514 F50.
N655 Z1.129
N660 G2 X128.72 Z0.929 I0.2 K0. F100.
N665 G1 X128.92
N670 G17 G3 X129.12 Y17.09 I0. J0.2
N675 X112.12 I-8.5 J0.
N680 X129.12 I8.5 J0.
N685 X128.92 Y17.29 I-0.2 J0.
N690 G1 X128.72
N695 G18 G3 X128.52 Z1.129 I0. K0.2
N700 G0 Z6.5
N705 Y16.89
N710 G1 Z2.229 F50.
N715 Z0.843
N720 G2 X128.72 Z0.643 I0.2 K0. F100.
N725 G1 X128.92
N730 G17 G3 X129.12 Y17.09 I0. J0.2
N735 X112.12 I-8.5 J0.
N740 X129.12 I8.5 J0.
N745 X128.92 Y17.29 I-0.2 J0.
N750 G1 X128.72
N755 G18 G3 X128.52 Z0.843 I0. K0.2
N760 G0 Z6.5
N765 Y16.89
N770 G1 Z1.943 F50.
N775 Z0.557
N780 G2 X128.72 Z0.357 I0.2 K0. F100.
N785 G1 X128.92
N790 G17 G3 X129.12 Y17.09 I0. J0.2
N795 X112.12 I-8.5 J0.
N800 X129.12 I8.5 J0.
N805 X128.92 Y17.29 I-0.2 J0.
N810 G1 X128.72
N815 G18 G3 X128.52 Z0.557 I0. K0.2
N820 G0 Z6.5
N825 Y16.89
N830 G1 Z1.657 F50.
N835 Z0.271
N840 G2 X128.72 Z0.071 I0.2 K0. F100.
N845 G1 X128.92
N850 G17 G3 X129.12 Y17.09 I0. J0.2
N855 X112.12 I-8.5 J0.
N860 X129.12 I8.5 J0.
N865 X128.92 Y17.29 I-0.2 J0.
N870 G1 X128.72
N875 G18 G3 X128.52 Z0.271 I0. K0.2
N880 G0 Z6.5
N885 Y16.89
N890 G1 Z1.371 F50.
N895 Z0.
N900 X128.72 F100.
N905 X128.92
N910 G17 G3 X129.12 Y17.09 I0. J0.2
N915 X129.028 Y18.34 I-8.5 J0.
N920 G1 Z-0.214 F50.
N925 G3 X117.499 Y24.996 I-8.408 J-1.25 F100.
N930 G1 Z0.
N935 G3 X115.334 Y23.746 I3.121 J-7.906
N940 G1 Z-0.214 F50.
N945 G3 Y10.434 I5.286 J-6.656 F100.
N950 G1 Z0.
N955 G3 X117.499 Y9.184 I5.286 J6.656
N960 G1 Z-0.214 F50.
N965 G3 X129.028 Y15.84 I3.121 J7.906 F100.
N970 G1 Z0.
N975 G3 X129.12 Y17.09 I-8.408 J1.25
N980 X128.92 Y17.29 I-0.2 J0.
N985 G1 X128.52
N990 G0 Z6.5
N995 Y16.89
N1000 G1 Z1.086 F50.
N1005 Z0.
N1010 Z6.5 F100.
N1015 Z0. F50.
N1020 X128.72 F100.
N1025 X128.92
N1030 G3 X129.12 Y17.09 I0. J0.2
N1035 X129.028 Y18.34 I-8.5 J0.
N1040 G1 Z-0.5 F50.
N1045 G3 X117.499 Y24.996 I-8.408 J-1.25 F100.
N1050 G1 Z0.
N1055 G3 X115.334 Y23.746 I3.121 J-7.906
N1060 G1 Z-0.5 F50.
N1065 G3 Y10.434 I5.286 J-6.656 F100.
N1070 G1 Z0.
N1075 G3 X117.499 Y9.184 I5.286 J6.656
N1080 G1 Z-0.5 F50.
N1085 G3 X129.028 Y15.84 I3.121 J7.906 F100.
N1090 G1 Z0.
N1095 G3 X129.12 Y17.09 I-8.408 J1.25
N1100 X128.92 Y17.29 I-0.2 J0.
N1105 G1 X128.52
N1110 G0 Z6.5
N1115 X163.777 Y21.526
N1120 G1 Z2.8 F50.
N1125 Z1.414
N1130 X163.784 Z1.363 F100.
N1135 X163.804 Y21.527 Z1.314
N1140 X163.835 Y21.528 Z1.273
N1145 X163.877 Y21.529 Z1.241
N1150 X163.925 Y21.53 Z1.221
N1155 X163.977 Y21.532 Z1.214
N1160 X164.177 Y21.537
N1165 G3 X164.371 Y21.742 I-0.005 J0.2
N1170 X143.379 Y21.178 I-10.496 J-0.282
N1175 X164.371 Y21.742 I10.496 J0.282
N1180 X164.166 Y21.937 I-0.2 J-0.005
N1185 G1 X163.966 Y21.931
N1190 X163.914 Y21.93 Z1.221
N1195 X163.866 Y21.929 Z1.241
N1200 X163.825 Y21.928 Z1.273
N1205 X163.793 Y21.927 Z1.314
N1210 X163.773 Y21.926 Z1.363
N1215 X163.766 Z1.414
N1220 G0 Z6.5
N1225 X163.777 Y21.526
N1230 G1 Z2.514 F50.
N1235 Z1.129
N1240 X163.784 Z1.077 F100.
N1245 X163.804 Y21.527 Z1.029
N1250 X163.835 Y21.528 Z0.987
N1255 X163.877 Y21.529 Z0.955
N1260 X163.925 Y21.53 Z0.935
N1265 X163.977 Y21.532 Z0.929
N1270 X164.177 Y21.537
N1275 G3 X164.371 Y21.742 I-0.005 J0.2
N1280 X143.379 Y21.178 I-10.496 J-0.282
N1285 X164.371 Y21.742 I10.496 J0.282
N1290 X164.166 Y21.937 I-0.2 J-0.005
N1295 G1 X163.966 Y21.931
N1300 X163.914 Y21.93 Z0.935
N1305 X163.866 Y21.929 Z0.955
N1310 X163.825 Y21.928 Z0.987
N1315 X163.793 Y21.927 Z1.029
N1320 X163.773 Y21.926 Z1.077
N1325 X163.766 Z1.129
N1330 G0 Z6.5
N1335 X163.777 Y21.526
N1340 G1 Z2.229 F50.
N1345 Z0.843
N1350 X163.784 Z0.791 F100.
N1355 X163.804 Y21.527 Z0.743
N1360 X163.835 Y21.528 Z0.701
N1365 X163.877 Y21.529 Z0.67
N1370 X163.925 Y21.53 Z0.65
N1375 X163.977 Y21.532 Z0.643
N1380 X164.177 Y21.537
N1385 G3 X164.371 Y21.742 I-0.005 J0.2
N1390 X143.379 Y21.178 I-10.496 J-0.282
N1395 X164.371 Y21.742 I10.496 J0.282
N1400 X164.166 Y21.937 I-0.2 J-0.005
N1405 G1 X163.966 Y21.931
N1410 X163.914 Y21.93 Z0.65
N1415 X163.866 Y21.929 Z0.67
N1420 X163.825 Y21.928 Z0.701
N1425 X163.793 Y21.927 Z0.743
N1430 X163.773 Y21.926 Z0.791
N1435 X163.766 Z0.843
N1440 G0 Z6.5
N1445 X163.777 Y21.526
N1450 G1 Z1.943 F50.
N1455 Z0.557
N1460 X163.784 Z0.505 F100.
N1465 X163.804 Y21.527 Z0.457
N1470 X163.835 Y21.528 Z0.416
N1475 X163.877 Y21.529 Z0.384
N1480 X163.925 Y21.53 Z0.364
N1485 X163.977 Y21.532 Z0.357
N1490 X164.177 Y21.537
N1495 G3 X164.371 Y21.742 I-0.005 J0.2
N1500 X143.379 Y21.178 I-10.496 J-0.282
N1505 X164.371 Y21.742 I10.496 J0.282
N1510 X164.166 Y21.937 I-0.2 J-0.005
N1515 G1 X163.966 Y21.931
N1520 X163.914 Y21.93 Z0.364
N1525 X163.866 Y21.929 Z0.384
N1530 X163.825 Y21.928 Z0.416
N1535 X163.793 Y21.927 Z0.457
N1540 X163.773 Y21.926 Z0.505
N1545 X163.766 Z0.557
N1550 G0 Z6.5
N1555 X163.777 Y21.526
N1560 G1 Z1.657 F50.
N1565 Z0.271
N1570 X163.784 Z0.22 F100.
N1575 X163.804 Y21.527 Z0.171
N1580 X163.835 Y21.528 Z0.13
N1585 X163.877 Y21.529 Z0.098
N1590 X163.925 Y21.53 Z0.078
N1595 X163.977 Y21.532 Z0.071
N1600 X164.177 Y21.537
N1605 G3 X164.371 Y21.742 I-0.005 J0.2
N1610 X143.379 Y21.178 I-10.496 J-0.282
N1615 X164.371 Y21.742 I10.496 J0.282
N1620 X164.166 Y21.937 I-0.2 J-0.005
N1625 G1 X163.966 Y21.931
N1630 X163.914 Y21.93 Z0.078
N1635 X163.866 Y21.929 Z0.098
N1640 X163.825 Y21.928 Z0.13
N1645 X163.793 Y21.927 Z0.171
N1650 X163.773 Y21.926 Z0.22
N1655 X163.766 Z0.271
N1660 G0 Z6.5
N1665 X163.777 Y21.526
N1670 G1 Z1.371 F50.
N1675 Z-0.014
N1680 X163.784 Z-0.066 F100.
N1685 X163.804 Y21.527 Z-0.114
N1690 X163.835 Y21.528 Z-0.156
N1695 X163.877 Y21.529 Z-0.187
N1700 X163.925 Y21.53 Z-0.207
N1705 X163.977 Y21.532 Z-0.214
N1710 X164.177 Y21.537
N1715 G3 X164.371 Y21.742 I-0.005 J0.2
N1720 X162.131 Y27.948 I-10.496 J-0.282
N1725 G1 Z0.
N1730 G3 X160.363 Y29.716 I-8.256 J-6.488
N1735 G1 Z-0.214 F50.
N1740 G3 X147.387 I-6.488 J-8.256 F100.
N1745 G1 Z0.
N1750 G3 X145.619 Y27.948 I6.488 J-8.256
N1755 G1 Z-0.214 F50.
N1760 G3 Y14.973 I8.256 J-6.488 F100.
N1765 G1 Z0.
N1770 G3 X147.387 Y13.205 I8.256 J6.488
N1775 G1 Z-0.214 F50.
N1780 G3 X160.363 I6.488 J8.256 F100.
N1785 G1 Z0.
N1790 G3 X162.131 Y14.973 I-6.488 J8.256
N1795 G1 Z-0.214 F50.
N1800 G3 X164.371 Y21.742 I-8.256 J6.488 F100.
N1805 X164.166 Y21.937 I-0.2 J-0.005
N1810 G1 X163.966 Y21.931
N1815 X163.914 Y21.93 Z-0.207
N1820 X163.866 Y21.929 Z-0.187
N1825 X163.825 Y21.928 Z-0.156
N1830 X163.793 Y21.927 Z-0.114
N1835 X163.773 Y21.926 Z-0.066
N1840 X163.766 Z-0.014
N1845 G0 Z6.5
N1850 X163.777 Y21.526
N1855 G1 Z1.086 F50.
N1860 Z-0.3
N1865 X163.784 Z-0.352 F100.
N1870 X163.804 Y21.527 Z-0.4
N1875 X163.835 Y21.528 Z-0.441
N1880 X163.877 Y21.529 Z-0.473
N1885 X163.925 Y21.53 Z-0.493
N1890 X163.977 Y21.532 Z-0.5
N1895 X164.177 Y21.537
N1900 G3 X164.371 Y21.742 I-0.005 J0.2
N1905 X162.131 Y27.948 I-10.496 J-0.282
N1910 G1 Z0.
N1915 G3 X160.363 Y29.716 I-8.256 J-6.488
N1920 G1 Z-0.5 F50.
N1925 G3 X147.387 I-6.488 J-8.256 F100.
N1930 G1 Z0.
N1935 G3 X145.619 Y27.948 I6.488 J-8.256
N1940 G1 Z-0.5 F50.
N1945 G3 Y14.973 I8.256 J-6.488 F100.
N1950 G1 Z0.
N1955 G3 X147.387 Y13.205 I8.256 J6.488
N1960 G1 Z-0.5 F50.
N1965 G3 X160.363 I6.488 J8.256 F100.
N1970 G1 Z0.
N1975 G3 X162.131 Y14.973 I-6.488 J8.256
N1980 G1 Z-0.5 F50.
N1985 G3 X164.371 Y21.742 I-8.256 J6.488 F100.
N1990 X164.166 Y21.937 I-0.2 J-0.005
N1995 G1 X163.966 Y21.931
N2000 X163.914 Y21.93 Z-0.493
N2005 X163.866 Y21.929 Z-0.473
N2010 X163.825 Y21.928 Z-0.441
N2015 X163.793 Y21.927 Z-0.4
N2020 X163.773 Y21.926 Z-0.352
N2025 X163.766 Z-0.3
N2030 G0 Z6.5
N2035 X198.775 Y21.26
N2040 G1 Z2.8 F50.
N2045 Z1.414
N2050 G18 G2 X198.975 Z1.214 I0.2 K0. F100.
N2055 G1 X199.175
N2060 G17 G3 X199.375 Y21.46 I0. J0.2
N2065 X178.375 I-10.5 J0.
N2070 X199.375 I10.5 J0.
N2075 X199.175 Y21.66 I-0.2 J0.
N2080 G1 X198.975
N2085 G18 G3 X198.775 Z1.414 I0. K0.2
N2090 G0 Z6.5
N2095 Y21.26
N2100 G1 Z2.514 F50.
N2105 Z1.129
N2110 G2 X198.975 Z0.929 I0.2 K0. F100.
N2115 G1 X199.175
N2120 G17 G3 X199.375 Y21.46 I0. J0.2
N2125 X178.375 I-10.5 J0.
N2130 X199.375 I10.5 J0.
N2135 X199.175 Y21.66 I-0.2 J0.
N2140 G1 X198.975
N2145 G18 G3 X198.775 Z1.129 I0. K0.2
N2150 G0 Z6.5
N2155 Y21.26
N2160 G1 Z2.229 F50.
N2165 Z0.843
N2170 G2 X198.975 Z0.643 I0.2 K0. F100.
N2175 G1 X199.175
N2180 G17 G3 X199.375 Y21.46 I0. J0.2
N2185 X178.375 I-10.5 J0.
N2190 X199.375 I10.5 J0.
N2195 X199.175 Y21.66 I-0.2 J0.
N2200 G1 X198.975
N2205 G18 G3 X198.775 Z0.843 I0. K0.2
N2210 G0 Z6.5
N2215 Y21.26
N2220 G1 Z1.943 F50.
N2225 Z0.557
N2230 G2 X198.975 Z0.357 I0.2 K0. F100.
N2235 G1 X199.175
N2240 G17 G3 X199.375 Y21.46 I0. J0.2
N2245 X178.375 I-10.5 J0.
N2250 X199.375 I10.5 J0.
N2255 X199.175 Y21.66 I-0.2 J0.
N2260 G1 X198.975
N2265 G18 G3 X198.775 Z0.557 I0. K0.2
N2270 G0 Z6.5
N2275 Y21.26
N2280 G1 Z1.657 F50.
N2285 Z0.271
N2290 G2 X198.975 Z0.071 I0.2 K0. F100.
N2295 G1 X199.175
N2300 G17 G3 X199.375 Y21.46 I0. J0.2
N2305 X178.375 I-10.5 J0.
N2310 X199.375 I10.5 J0.
N2315 X199.175 Y21.66 I-0.2 J0.
N2320 G1 X198.975
N2325 G18 G3 X198.775 Z0.271 I0. K0.2
N2330 G0 Z6.5
N2335 Y21.26
N2340 G1 Z1.371 F50.
N2345 Z-0.014
N2350 G2 X198.975 Z-0.214 I0.2 K0. F100.
N2355 G1 X199.175
N2360 G17 G3 X199.375 Y21.46 I0. J0.2
N2365 X197.131 Y27.948 I-10.5 J0.
N2370 G1 Z0.
N2375 G3 X195.363 Y29.716 I-8.256 J-6.488
N2380 G1 Z-0.214 F50.
N2385 G3 X182.387 I-6.488 J-8.256 F100.
N2390 G1 Z0.
N2395 G3 X180.619 Y27.948 I6.488 J-8.256
N2400 G1 Z-0.214 F50.
N2405 G3 Y14.973 I8.256 J-6.488 F100.
N2410 G1 Z0.
N2415 G3 X182.387 Y13.205 I8.256 J6.488
N2420 G1 Z-0.214 F50.
N2425 G3 X195.363 I6.488 J8.256 F100.
N2430 G1 Z0.
N2435 G3 X197.131 Y14.973 I-6.488 J8.256
N2440 G1 Z-0.214 F50.
N2445 G3 X199.375 Y21.46 I-8.256 J6.488 F100.
N2450 X199.175 Y21.66 I-0.2 J0.
N2455 G1 X198.975
N2460 G18 G3 X198.775 Z-0.014 I0. K0.2
N2465 G0 Z6.5
N2470 Y21.26
N2475 G1 Z1.086 F50.
N2480 Z-0.3
N2485 G2 X198.975 Z-0.5 I0.2 K0. F100.
N2490 G1 X199.175
N2495 G17 G3 X199.375 Y21.46 I0. J0.2
N2500 X197.131 Y27.948 I-10.5 J0.
N2505 G1 Z0.
N2510 G3 X195.363 Y29.716 I-8.256 J-6.488
N2515 G1 Z-0.5 F50.
N2520 G3 X182.387 I-6.488 J-8.256 F100.
N2525 G1 Z0.
N2530 G3 X180.619 Y27.948 I6.488 J-8.256
N2535 G1 Z-0.5 F50.
N2540 G3 Y14.973 I8.256 J-6.488 F100.
N2545 G1 Z0.
N2550 G3 X182.387 Y13.205 I8.256 J6.488
N2555 G1 Z-0.5 F50.
N2560 G3 X195.363 I6.488 J8.256 F100.
N2565 G1 Z0.
N2570 G3 X197.131 Y14.973 I-6.488 J8.256
N2575 G1 Z-0.5 F50.
N2580 G3 X199.375 Y21.46 I-8.256 J6.488 F100.
N2585 X199.175 Y21.66 I-0.2 J0.
N2590 G1 X198.975
N2595 G18 G3 X198.775 Z-0.3 I0. K0.2
N2600 G0 Z6.5
N2605 X212.4 Y26.8
N2610 G1 Z2.8 F50.
N2615 Z1.414
N2620 G2 X212.6 Z1.214 I0.2 K0. F100.
N2625 G1 X212.8
N2630 G17 G3 X213. Y27. I0. J0.2
N2635 G1 Y85.
N2640 G3 X209. I-2. J0.
N2645 G1 Y27.
N2650 G3 X213. I2. J0.
N2655 X212.8 Y27.2 I-0.2 J0.
N2660 G1 X212.6
N2665 G18 G3 X212.4 Z1.414 I0. K0.2
N2670 G0 Z6.5
N2675 Y26.8
N2680 G1 Z2.514 F50.
N2685 Z1.129
N2690 G2 X212.6 Z0.929 I0.2 K0. F100.
N2695 G1 X212.8
N2700 G17 G3 X213. Y27. I0. J0.2
N2705 G1 Y85.
N2710 G3 X209. I-2. J0.
N2715 G1 Y27.
N2720 G3 X213. I2. J0.
N2725 X212.8 Y27.2 I-0.2 J0.
N2730 G1 X212.6
N2735 G18 G3 X212.4 Z1.129 I0. K0.2
N2740 G0 Z6.5
N2745 Y26.8
N2750 G1 Z2.229 F50.
N2755 Z0.843
N2760 G2 X212.6 Z0.643 I0.2 K0. F100.
N2765 G1 X212.8
N2770 G17 G3 X213. Y27. I0. J0.2
N2775 G1 Y85.
N2780 G3 X209. I-2. J0.
N2785 G1 Y27.
N2790 G3 X213. I2. J0.
N2795 X212.8 Y27.2 I-0.2 J0.
N2800 G1 X212.6
N2805 G18 G3 X212.4 Z0.843 I0. K0.2
N2810 G0 Z6.5
N2815 Y26.8
N2820 G1 Z1.943 F50.
N2825 Z0.557
N2830 G2 X212.6 Z0.357 I0.2 K0. F100.
N2835 G1 X212.8
N2840 G17 G3 X213. Y27. I0. J0.2
N2845 G1 Y85.
N2850 G3 X209. I-2. J0.
N2855 G1 Y27.
N2860 G3 X213. I2. J0.
N2865 X212.8 Y27.2 I-0.2 J0.
N2870 G1 X212.6
N2875 G18 G3 X212.4 Z0.557 I0. K0.2
N2880 G0 Z6.5
N2885 Y26.8
N2890 G1 Z1.657 F50.
N2895 Z0.271
N2900 G2 X212.6 Z0.071 I0.2 K0. F100.
N2905 G1 X212.8
N2910 G17 G3 X213. Y27. I0. J0.2
N2915 G1 Y85.
N2920 G3 X209. I-2. J0.
N2925 G1 Y27.
N2930 G3 X213. I2. J0.
N2935 X212.8 Y27.2 I-0.2 J0.
N2940 G1 X212.6
N2945 G18 G3 X212.4 Z0.271 I0. K0.2
N2950 G0 Z6.5
N2955 Y26.8
N2960 G1 Z1.371 F50.
N2965 Z-0.014
N2970 G2 X212.6 Z-0.214 I0.2 K0. F100.
N2975 G1 X212.8
N2980 G17 G3 X213. Y27. I0. J0.2
N2985 G1 Y35.417
N2990 Z0.
N2995 Y37.917
N3000 Z-0.214 F50.
N3005 Y54.75 F100.
N3010 Z0.
N3015 Y57.25
N3020 Z-0.214 F50.
N3025 Y74.083 F100.
N3030 Z0.
N3035 Y76.583
N3040 Z-0.214 F50.
N3045 Y85. F100.
N3050 G3 X209. I-2. J0.
N3055 G1 Y76.583
N3060 Z0.
N3065 Y74.083
N3070 Z-0.214 F50.
N3075 Y57.25 F100.
N3080 Z0.
N3085 Y54.75
N3090 Z-0.214 F50.
N3095 Y37.917 F100.
N3100 Z0.
N3105 Y35.417
N3110 Z-0.214 F50.
N3115 Y27. F100.
N3120 G3 X213. I2. J0.
N3125 X212.8 Y27.2 I-0.2 J0.
N3130 G1 X212.6
N3135 G18 G3 X212.4 Z-0.014 I0. K0.2
N3140 G0 Z6.5
N3145 Y26.8
N3150 G1 Z1.086 F50.
N3155 Z-0.3
N3160 G2 X212.6 Z-0.5 I0.2 K0. F100.
N3165 G1 X212.8
N3170 G17 G3 X213. Y27. I0. J0.2
N3175 G1 Y35.417
N3180 Z0.
N3185 Y37.917
N3190 Z-0.5 F50.
N3195 Y54.75 F100.
N3200 Z0.
N3205 Y57.25
N3210 Z-0.5 F50.
N3215 Y74.083 F100.
N3220 Z0.
N3225 Y76.583
N3230 Z-0.5 F50.
N3235 Y85. F100.
N3240 G3 X209. I-2. J0.
N3245 G1 Y76.583
N3250 Z0.
N3255 Y74.083
N3260 Z-0.5 F50.
N3265 Y57.25 F100.
N3270 Z0.
N3275 Y54.75
N3280 Z-0.5 F50.
N3285 Y37.917 F100.
N3290 Z0.
N3295 Y35.417
N3300 Z-0.5 F50.
N3305 Y27. F100.
N3310 G3 X213. I2. J0.
N3315 X212.8 Y27.2 I-0.2 J0.
N3320 G1 X212.6
N3325 G18 G3 X212.4 Z-0.3 I0. K0.2
N3330 G0 Z6.5
N3335 X198.775 Y56.26
N3340 G1 Z2.8 F50.
N3345 Z1.414
N3350 G2 X198.975 Z1.214 I0.2 K0. F100.
N3355 G1 X199.175
N3360 G17 G3 X199.375 Y56.46 I0. J0.2
N3365 X178.375 I-10.5 J0.
N3370 X199.375 I10.5 J0.
N3375 X199.175 Y56.66 I-0.2 J0.
N3380 G1 X198.975
N3385 G18 G3 X198.775 Z1.414 I0. K0.2
N3390 G0 Z6.5
N3395 Y56.26
N3400 G1 Z2.514 F50.
N3405 Z1.129
N3410 G2 X198.975 Z0.929 I0.2 K0. F100.
N3415 G1 X199.175
N3420 G17 G3 X199.375 Y56.46 I0. J0.2
N3425 X178.375 I-10.5 J0.
N3430 X199.375 I10.5 J0.
N3435 X199.175 Y56.66 I-0.2 J0.
N3440 G1 X198.975
N3445 G18 G3 X198.775 Z1.129 I0. K0.2
N3450 G0 Z6.5
N3455 Y56.26
N3460 G1 Z2.229 F50.
N3465 Z0.843
N3470 G2 X198.975 Z0.643 I0.2 K0. F100.
N3475 G1 X199.175
N3480 G17 G3 X199.375 Y56.46 I0. J0.2
N3485 X178.375 I-10.5 J0.
N3490 X199.375 I10.5 J0.
N3495 X199.175 Y56.66 I-0.2 J0.
N3500 G1 X198.975
N3505 G18 G3 X198.775 Z0.843 I0. K0.2
N3510 G0 Z6.5
N3515 Y56.26
N3520 G1 Z1.943 F50.
N3525 Z0.557
N3530 G2 X198.975 Z0.357 I0.2 K0. F100.
N3535 G1 X199.175
N3540 G17 G3 X199.375 Y56.46 I0. J0.2
N3545 X178.375 I-10.5 J0.
N3550 X199.375 I10.5 J0.
N3555 X199.175 Y56.66 I-0.2 J0.
N3560 G1 X198.975
N3565 G18 G3 X198.775 Z0.557 I0. K0.2
N3570 G0 Z6.5
N3575 Y56.26
N3580 G1 Z1.657 F50.
N3585 Z0.271
N3590 G2 X198.975 Z0.071 I0.2 K0. F100.
N3595 G1 X199.175
N3600 G17 G3 X199.375 Y56.46 I0. J0.2
N3605 X178.375 I-10.5 J0.
N3610 X199.375 I10.5 J0.
N3615 X199.175 Y56.66 I-0.2 J0.
N3620 G1 X198.975
N3625 G18 G3 X198.775 Z0.271 I0. K0.2
N3630 G0 Z6.5
N3635 Y56.26
N3640 G1 Z1.371 F50.
N3645 Z-0.014
N3650 G2 X198.975 Z-0.214 I0.2 K0. F100.
N3655 G1 X199.175
N3660 G17 G3 X199.375 Y56.46 I0. J0.2
N3665 X197.131 Y62.948 I-10.5 J0.
N3670 G1 Z0.
N3675 G3 X195.363 Y64.716 I-8.256 J-6.488
N3680 G1 Z-0.214 F50.
N3685 G3 X182.387 I-6.488 J-8.256 F100.
N3690 G1 Z0.
N3695 G3 X180.619 Y62.948 I6.488 J-8.256
N3700 G1 Z-0.214 F50.
N3705 G3 Y49.973 I8.256 J-6.488 F100.
N3710 G1 Z0.
N3715 G3 X182.387 Y48.205 I8.256 J6.488
N3720 G1 Z-0.214 F50.
N3725 G3 X195.363 I6.488 J8.256 F100.
N3730 G1 Z0.
N3735 G3 X197.131 Y49.973 I-6.488 J8.256
N3740 G1 Z-0.214 F50.
N3745 G3 X199.375 Y56.46 I-8.256 J6.488 F100.
N3750 X199.175 Y56.66 I-0.2 J0.
N3755 G1 X198.975
N3760 G18 G3 X198.775 Z-0.014 I0. K0.2
N3765 G0 Z6.5
N3770 Y56.26
N3775 G1 Z1.086 F50.
N3780 Z-0.3
N3785 G2 X198.975 Z-0.5 I0.2 K0. F100.
N3790 G1 X199.175
N3795 G17 G3 X199.375 Y56.46 I0. J0.2
N3800 X197.131 Y62.948 I-10.5 J0.
N3805 G1 Z0.
N3810 G3 X195.363 Y64.716 I-8.256 J-6.488
N3815 G1 Z-0.5 F50.
N3820 G3 X182.387 I-6.488 J-8.256 F100.
N3825 G1 Z0.
N3830 G3 X180.619 Y62.948 I6.488 J-8.256
N3835 G1 Z-0.5 F50.
N3840 G3 Y49.973 I8.256 J-6.488 F100.
N3845 G1 Z0.
N3850 G3 X182.387 Y48.205 I8.256 J6.488
N3855 G1 Z-0.5 F50.
N3860 G3 X195.363 I6.488 J8.256 F100.
N3865 G1 Z0.
N3870 G3 X197.131 Y49.973 I-6.488 J8.256
N3875 G1 Z-0.5 F50.
N3880 G3 X199.375 Y56.46 I-8.256 J6.488 F100.
N3885 X199.175 Y56.66 I-0.2 J0.
N3890 G1 X198.975
N3895 G18 G3 X198.775 Z-0.3 I0. K0.2
N3900 G0 Z6.5
N3905 Y91.26
N3910 G1 Z2.8 F50.
N3915 Z1.414
N3920 G2 X198.975 Z1.214 I0.2 K0. F100.
N3925 G1 X199.175
N3930 G17 G3 X199.375 Y91.46 I0. J0.2
N3935 X178.375 I-10.5 J0.
N3940 X199.375 I10.5 J0.
N3945 X199.175 Y91.66 I-0.2 J0.
N3950 G1 X198.975
N3955 G18 G3 X198.775 Z1.414 I0. K0.2
N3960 G0 Z6.5
N3965 Y91.26
N3970 G1 Z2.514 F50.
N3975 Z1.129
N3980 G2 X198.975 Z0.929 I0.2 K0. F100.
N3985 G1 X199.175
N3990 G17 G3 X199.375 Y91.46 I0. J0.2
N3995 X178.375 I-10.5 J0.
N4000 X199.375 I10.5 J0.
N4005 X199.175 Y91.66 I-0.2 J0.
N4010 G1 X198.975
N4015 G18 G3 X198.775 Z1.129 I0. K0.2
N4020 G0 Z6.5
N4025 Y91.26
N4030 G1 Z2.229 F50.
N4035 Z0.843
N4040 G2 X198.975 Z0.643 I0.2 K0. F100.
N4045 G1 X199.175
N4050 G17 G3 X199.375 Y91.46 I0. J0.2
N4055 X178.375 I-10.5 J0.
N4060 X199.375 I10.5 J0.
N4065 X199.175 Y91.66 I-0.2 J0.
N4070 G1 X198.975
N4075 G18 G3 X198.775 Z0.843 I0. K0.2
N4080 G0 Z6.5
N4085 Y91.26
N4090 G1 Z1.943 F50.
N4095 Z0.557
N4100 G2 X198.975 Z0.357 I0.2 K0. F100.
N4105 G1 X199.175
N4110 G17 G3 X199.375 Y91.46 I0. J0.2
N4115 X178.375 I-10.5 J0.
N4120 X199.375 I10.5 J0.
N4125 X199.175 Y91.66 I-0.2 J0.
N4130 G1 X198.975
N4135 G18 G3 X198.775 Z0.557 I0. K0.2
N4140 G0 Z6.5
N4145 Y91.26
N4150 G1 Z1.657 F50.
N4155 Z0.271
N4160 G2 X198.975 Z0.071 I0.2 K0. F100.
N4165 G1 X199.175
N4170 G17 G3 X199.375 Y91.46 I0. J0.2
N4175 X178.375 I-10.5 J0.
N4180 X199.375 I10.5 J0.
N4185 X199.175 Y91.66 I-0.2 J0.
N4190 G1 X198.975
N4195 G18 G3 X198.775 Z0.271 I0. K0.2
N4200 G0 Z6.5
N4205 Y91.26
N4210 G1 Z1.371 F50.
N4215 Z-0.014
N4220 G2 X198.975 Z-0.214 I0.2 K0. F100.
N4225 G1 X199.175
N4230 G17 G3 X199.375 Y91.46 I0. J0.2
N4235 X197.131 Y97.948 I-10.5 J0.
N4240 G1 Z0.
N4245 G3 X195.363 Y99.716 I-8.256 J-6.488
N4250 G1 Z-0.214 F50.
N4255 G3 X182.387 I-6.488 J-8.256 F100.
N4260 G1 Z0.
N4265 G3 X180.619 Y97.948 I6.488 J-8.256
N4270 G1 Z-0.214 F50.
N4275 G3 Y84.973 I8.256 J-6.488 F100.
N4280 G1 Z0.
N4285 G3 X182.387 Y83.205 I8.256 J6.488
N4290 G1 Z-0.214 F50.
N4295 G3 X195.363 I6.488 J8.256 F100.
N4300 G1 Z0.
N4305 G3 X197.131 Y84.973 I-6.488 J8.256
N4310 G1 Z-0.214 F50.
N4315 G3 X199.375 Y91.46 I-8.256 J6.488 F100.
N4320 X199.175 Y91.66 I-0.2 J0.
N4325 G1 X198.975
N4330 G18 G3 X198.775 Z-0.014 I0. K0.2
N4335 G0 Z6.5
N4340 Y91.26
N4345 G1 Z1.086 F50.
N4350 Z-0.3
N4355 G2 X198.975 Z-0.5 I0.2 K0. F100.
N4360 G1 X199.175
N4365 G17 G3 X199.375 Y91.46 I0. J0.2
N4370 X197.131 Y97.948 I-10.5 J0.
N4375 G1 Z0.
N4380 G3 X195.363 Y99.716 I-8.256 J-6.488
N4385 G1 Z-0.5 F50.
N4390 G3 X182.387 I-6.488 J-8.256 F100.
N4395 G1 Z0.
N4400 G3 X180.619 Y97.948 I6.488 J-8.256
N4405 G1 Z-0.5 F50.
N4410 G3 Y84.973 I8.256 J-6.488 F100.
N4415 G1 Z0.
N4420 G3 X182.387 Y83.205 I8.256 J6.488
N4425 G1 Z-0.5 F50.
N4430 G3 X195.363 I6.488 J8.256 F100.
N4435 G1 Z0.
N4440 G3 X197.131 Y84.973 I-6.488 J8.256
N4445 G1 Z-0.5 F50.
N4450 G3 X199.375 Y91.46 I-8.256 J6.488 F100.
N4455 X199.175 Y91.66 I-0.2 J0.
N4460 G1 X198.975
N4465 G18 G3 X198.775 Z-0.3 I0. K0.2
N4470 G0 Z6.5
N4475 X163.775 Y91.26
N4480 G1 Z2.8 F50.
N4485 Z1.414
N4490 G2 X163.975 Z1.214 I0.2 K0. F100.
N4495 G1 X164.175
N4500 G17 G3 X164.375 Y91.46 I0. J0.2
N4505 X143.375 I-10.5 J0.
N4510 X164.375 I10.5 J0.
N4515 X164.175 Y91.66 I-0.2 J0.
N4520 G1 X163.975
N4525 G18 G3 X163.775 Z1.414 I0. K0.2
N4530 G0 Z6.5
N4535 Y91.26
N4540 G1 Z2.514 F50.
N4545 Z1.129
N4550 G2 X163.975 Z0.929 I0.2 K0. F100.
N4555 G1 X164.175
N4560 G17 G3 X164.375 Y91.46 I0. J0.2
N4565 X143.375 I-10.5 J0.
N4570 X164.375 I10.5 J0.
N4575 X164.175 Y91.66 I-0.2 J0.
N4580 G1 X163.975
N4585 G18 G3 X163.775 Z1.129 I0. K0.2
N4590 G0 Z6.5
N4595 Y91.26
N4600 G1 Z2.229 F50.
N4605 Z0.843
N4610 G2 X163.975 Z0.643 I0.2 K0. F100.
N4615 G1 X164.175
N4620 G17 G3 X164.375 Y91.46 I0. J0.2
N4625 X143.375 I-10.5 J0.
N4630 X164.375 I10.5 J0.
N4635 X164.175 Y91.66 I-0.2 J0.
N4640 G1 X163.975
N4645 G18 G3 X163.775 Z0.843 I0. K0.2
N4650 G0 Z6.5
N4655 Y91.26
N4660 G1 Z1.943 F50.
N4665 Z0.557
N4670 G2 X163.975 Z0.357 I0.2 K0. F100.
N4675 G1 X164.175
N4680 G17 G3 X164.375 Y91.46 I0. J0.2
N4685 X143.375 I-10.5 J0.
N4690 X164.375 I10.5 J0.
N4695 X164.175 Y91.66 I-0.2 J0.
N4700 G1 X163.975
N4705 G18 G3 X163.775 Z0.557 I0. K0.2
N4710 G0 Z6.5
N4715 Y91.26
N4720 G1 Z1.657 F50.
N4725 Z0.271
N4730 G2 X163.975 Z0.071 I0.2 K0. F100.
N4735 G1 X164.175
N4740 G17 G3 X164.375 Y91.46 I0. J0.2
N4745 X143.375 I-10.5 J0.
N4750 X164.375 I10.5 J0.
N4755 X164.175 Y91.66 I-0.2 J0.
N4760 G1 X163.975
N4765 G18 G3 X163.775 Z0.271 I0. K0.2
N4770 G0 Z6.5
N4775 Y91.26
N4780 G1 Z1.371 F50.
N4785 Z-0.014
N4790 G2 X163.975 Z-0.214 I0.2 K0. F100.
N4795 G1 X164.175
N4800 G17 G3 X164.375 Y91.46 I0. J0.2
N4805 X162.131 Y97.948 I-10.5 J0.
N4810 G1 Z0.
N4815 G3 X160.363 Y99.716 I-8.256 J-6.488
N4820 G1 Z-0.214 F50.
N4825 G3 X147.387 I-6.488 J-8.256 F100.
N4830 G1 Z0.
N4835 G3 X145.619 Y97.948 I6.488 J-8.256
N4840 G1 Z-0.214 F50.
N4845 G3 Y84.973 I8.256 J-6.488 F100.
N4850 G1 Z0.
N4855 G3 X147.387 Y83.205 I8.256 J6.488
N4860 G1 Z-0.214 F50.
N4865 G3 X160.363 I6.488 J8.256 F100.
N4870 G1 Z0.
N4875 G3 X162.131 Y84.973 I-6.488 J8.256
N4880 G1 Z-0.214 F50.
N4885 G3 X164.375 Y91.46 I-8.256 J6.488 F100.
N4890 X164.175 Y91.66 I-0.2 J0.
N4895 G1 X163.975
N4900 G18 G3 X163.775 Z-0.014 I0. K0.2
N4905 G0 Z6.5
N4910 Y91.26
N4915 G1 Z1.086 F50.
N4920 Z-0.3
N4925 G2 X163.975 Z-0.5 I0.2 K0. F100.
N4930 G1 X164.175
N4935 G17 G3 X164.375 Y91.46 I0. J0.2
N4940 X162.131 Y97.948 I-10.5 J0.
N4945 G1 Z0.
N4950 G3 X160.363 Y99.716 I-8.256 J-6.488
N4955 G1 Z-0.5 F50.
N4960 G3 X147.387 I-6.488 J-8.256 F100.
N4965 G1 Z0.
N4970 G3 X145.619 Y97.948 I6.488 J-8.256
N4975 G1 Z-0.5 F50.
N4980 G3 Y84.973 I8.256 J-6.488 F100.
N4985 G1 Z0.
N4990 G3 X147.387 Y83.205 I8.256 J6.488
N4995 G1 Z-0.5 F50.
N5000 G3 X160.363 I6.488 J8.256 F100.
N5005 G1 Z0.
N5010 G3 X162.131 Y84.973 I-6.488 J8.256
N5015 G1 Z-0.5 F50.
N5020 G3 X164.375 Y91.46 I-8.256 J6.488 F100.
N5025 X164.175 Y91.66 I-0.2 J0.
N5030 G1 X163.975
N5035 G18 G3 X163.775 Z-0.3 I0. K0.2
N5040 G0 Z6.5
N5045 Y56.26
N5050 G1 Z2.8 F50.
N5055 Z1.414
N5060 G2 X163.975 Z1.214 I0.2 K0. F100.
N5065 G1 X164.175
N5070 G17 G3 X164.375 Y56.46 I0. J0.2
N5075 X143.375 I-10.5 J0.
N5080 X164.375 I10.5 J0.
N5085 X164.175 Y56.66 I-0.2 J0.
N5090 G1 X163.975
N5095 G18 G3 X163.775 Z1.414 I0. K0.2
N5100 G0 Z6.5
N5105 Y56.26
N5110 G1 Z2.514 F50.
N5115 Z1.129
N5120 G2 X163.975 Z0.929 I0.2 K0. F100.
N5125 G1 X164.175
N5130 G17 G3 X164.375 Y56.46 I0. J0.2
N5135 X143.375 I-10.5 J0.
N5140 X164.375 I10.5 J0.
N5145 X164.175 Y56.66 I-0.2 J0.
N5150 G1 X163.975
N5155 G18 G3 X163.775 Z1.129 I0. K0.2
N5160 G0 Z6.5
N5165 Y56.26
N5170 G1 Z2.229 F50.
N5175 Z0.843
N5180 G2 X163.975 Z0.643 I0.2 K0. F100.
N5185 G1 X164.175
N5190 G17 G3 X164.375 Y56.46 I0. J0.2
N5195 X143.375 I-10.5 J0.
N5200 X164.375 I10.5 J0.
N5205 X164.175 Y56.66 I-0.2 J0.
N5210 G1 X163.975
N5215 G18 G3 X163.775 Z0.843 I0. K0.2
N5220 G0 Z6.5
N5225 Y56.26
N5230 G1 Z1.943 F50.
N5235 Z0.557
N5240 G2 X163.975 Z0.357 I0.2 K0. F100.
N5245 G1 X164.175
N5250 G17 G3 X164.375 Y56.46 I0. J0.2
N5255 X143.375 I-10.5 J0.
N5260 X164.375 I10.5 J0.
N5265 X164.175 Y56.66 I-0.2 J0.
N5270 G1 X163.975
N5275 G18 G3 X163.775 Z0.557 I0. K0.2
N5280 G0 Z6.5
N5285 Y56.26
N5290 G1 Z1.657 F50.
N5295 Z0.271
N5300 G2 X163.975 Z0.071 I0.2 K0. F100.
N5305 G1 X164.175
N5310 G17 G3 X164.375 Y56.46 I0. J0.2
N5315 X143.375 I-10.5 J0.
N5320 X164.375 I10.5 J0.
N5325 X164.175 Y56.66 I-0.2 J0.
N5330 G1 X163.975
N5335 G18 G3 X163.775 Z0.271 I0. K0.2
N5340 G0 Z6.5
N5345 Y56.26
N5350 G1 Z1.371 F50.
N5355 Z-0.014
N5360 G2 X163.975 Z-0.214 I0.2 K0. F100.
N5365 G1 X164.175
N5370 G17 G3 X164.375 Y56.46 I0. J0.2
N5375 X162.131 Y62.948 I-10.5 J0.
N5380 G1 Z0.
N5385 G3 X160.363 Y64.716 I-8.256 J-6.488
N5390 G1 Z-0.214 F50.
N5395 G3 X147.387 I-6.488 J-8.256 F100.
N5400 G1 Z0.
N5405 G3 X145.619 Y62.948 I6.488 J-8.256
N5410 G1 Z-0.214 F50.
N5415 G3 Y49.973 I8.256 J-6.488 F100.
N5420 G1 Z0.
N5425 G3 X147.387 Y48.205 I8.256 J6.488
N5430 G1 Z-0.214 F50.
N5435 G3 X160.363 I6.488 J8.256 F100.
N5440 G1 Z0.
N5445 G3 X162.131 Y49.973 I-6.488 J8.256
N5450 G1 Z-0.214 F50.
N5455 G3 X164.375 Y56.46 I-8.256 J6.488 F100.
N5460 X164.175 Y56.66 I-0.2 J0.
N5465 G1 X163.975
N5470 G18 G3 X163.775 Z-0.014 I0. K0.2
N5475 G0 Z6.5
N5480 Y56.26
N5485 G1 Z1.086 F50.
N5490 Z-0.3
N5495 G2 X163.975 Z-0.5 I0.2 K0. F100.
N5500 G1 X164.175
N5505 G17 G3 X164.375 Y56.46 I0. J0.2
N5510 X162.131 Y62.948 I-10.5 J0.
N5515 G1 Z0.
N5520 G3 X160.363 Y64.716 I-8.256 J-6.488
N5525 G1 Z-0.5 F50.
N5530 G3 X147.387 I-6.488 J-8.256 F100.
N5535 G1 Z0.
N5540 G3 X145.619 Y62.948 I6.488 J-8.256
N5545 G1 Z-0.5 F50.
N5550 G3 Y49.973 I8.256 J-6.488 F100.
N5555 G1 Z0.
N5560 G3 X147.387 Y48.205 I8.256 J6.488
N5565 G1 Z-0.5 F50.
N5570 G3 X160.363 I6.488 J8.256 F100.
N5575 G1 Z0.
N5580 G3 X162.131 Y49.973 I-6.488 J8.256
N5585 G1 Z-0.5 F50.
N5590 G3 X164.375 Y56.46 I-8.256 J6.488 F100.
N5595 X164.175 Y56.66 I-0.2 J0.
N5600 G1 X163.975
N5605 G18 G3 X163.775 Z-0.3 I0. K0.2
N5610 G0 Z6.5
N5615 X128.52 Y91.89
N5620 G1 Z2.8 F50.
N5625 Z1.414
N5630 G2 X128.72 Z1.214 I0.2 K0. F100.
N5635 G1 X128.92
N5640 G17 G3 X129.12 Y92.09 I0. J0.2
N5645 X112.12 I-8.5 J0.
N5650 X129.12 I8.5 J0.
N5655 X128.92 Y92.29 I-0.2 J0.
N5660 G1 X128.72
N5665 G18 G3 X128.52 Z1.414 I0. K0.2
N5670 G0 Z6.5
N5675 Y91.89
N5680 G1 Z2.514 F50.
N5685 Z1.129
N5690 G2 X128.72 Z0.929 I0.2 K0. F100.
N5695 G1 X128.92
N5700 G17 G3 X129.12 Y92.09 I0. J0.2
N5705 X112.12 I-8.5 J0.
N5710 X129.12 I8.5 J0.
N5715 X128.92 Y92.29 I-0.2 J0.
N5720 G1 X128.72
N5725 G18 G3 X128.52 Z1.129 I0. K0.2
N5730 G0 Z6.5
N5735 Y91.89
N5740 G1 Z2.229 F50.
N5745 Z0.843
N5750 G2 X128.72 Z0.643 I0.2 K0. F100.
N5755 G1 X128.92
N5760 G17 G3 X129.12 Y92.09 I0. J0.2
N5765 X112.12 I-8.5 J0.
N5770 X129.12 I8.5 J0.
N5775 X128.92 Y92.29 I-0.2 J0.
N5780 G1 X128.72
N5785 G18 G3 X128.52 Z0.843 I0. K0.2
N5790 G0 Z6.5
N5795 Y91.89
N5800 G1 Z1.943 F50.
N5805 Z0.557
N5810 G2 X128.72 Z0.357 I0.2 K0. F100.
N5815 G1 X128.92
N5820 G17 G3 X129.12 Y92.09 I0. J0.2
N5825 X112.12 I-8.5 J0.
N5830 X129.12 I8.5 J0.
N5835 X128.92 Y92.29 I-0.2 J0.
N5840 G1 X128.72
N5845 G18 G3 X128.52 Z0.557 I0. K0.2
N5850 G0 Z6.5
N5855 Y91.89
N5860 G1 Z1.657 F50.
N5865 Z0.271
N5870 G2 X128.72 Z0.071 I0.2 K0. F100.
N5875 G1 X128.92
N5880 G17 G3 X129.12 Y92.09 I0. J0.2
N5885 X112.12 I-8.5 J0.
N5890 X129.12 I8.5 J0.
N5895 X128.92 Y92.29 I-0.2 J0.
N5900 G1 X128.72
N5905 G18 G3 X128.52 Z0.271 I0. K0.2
N5910 G0 Z6.5
N5915 Y91.89
N5920 G1 Z1.371 F50.
N5925 Z0.
N5930 X128.72 F100.
N5935 X128.92
N5940 G17 G3 X129.12 Y92.09 I0. J0.2
N5945 X129.028 Y93.34 I-8.5 J0.
N5950 G1 Z-0.214 F50.
N5955 G3 X117.499 Y99.996 I-8.408 J-1.25 F100.
N5960 G1 Z0.
N5965 G3 X115.334 Y98.746 I3.121 J-7.906
N5970 G1 Z-0.214 F50.
N5975 G3 Y85.434 I5.286 J-6.656 F100.
N5980 G1 Z0.
N5985 G3 X117.499 Y84.184 I5.286 J6.656
N5990 G1 Z-0.214 F50.
N5995 G3 X129.028 Y90.84 I3.121 J7.906 F100.
N6000 G1 Z0.
N6005 G3 X129.12 Y92.09 I-8.408 J1.25
N6010 X128.92 Y92.29 I-0.2 J0.
N6015 G1 X128.52
N6020 G0 Z6.5
N6025 Y91.89
N6030 G1 Z1.086 F50.
N6035 Z0.
N6040 Z6.5 F100.
N6045 Z0. F50.
N6050 X128.72 F100.
N6055 X128.92
N6060 G3 X129.12 Y92.09 I0. J0.2
N6065 X129.028 Y93.34 I-8.5 J0.
N6070 G1 Z-0.5 F50.
N6075 G3 X117.499 Y99.996 I-8.408 J-1.25 F100.
N6080 G1 Z0.
N6085 G3 X115.334 Y98.746 I3.121 J-7.906
N6090 G1 Z-0.5 F50.
N6095 G3 Y85.434 I5.286 J-6.656 F100.
N6100 G1 Z0.
N6105 G3 X117.499 Y84.184 I5.286 J6.656
N6110 G1 Z-0.5 F50.
N6115 G3 X129.028 Y90.84 I3.121 J7.906 F100.
N6120 G1 Z0.
N6125 G3 X129.12 Y92.09 I-8.408 J1.25
N6130 X128.92 Y92.29 I-0.2 J0.
N6135 G1 X128.52
N6140 G0 Z6.5
N6145 X95.682 Y84.188
N6150 G1 Z2.8 F50.
N6155 Z1.414
N6160 Y84.181 Z1.363 F100.
N6165 X95.683 Y84.161 Z1.314
N6170 X95.684 Y84.13 Z1.273
N6175 X95.685 Y84.088 Z1.241
N6180 X95.687 Y84.04 Z1.221
N6185 X95.688 Y83.988 Z1.214
N6190 X95.695 Y83.788
N6195 G3 X95.901 Y83.595 I0.2 J0.007
N6200 X104.12 Y92.09 I-0.281 J8.495
N6205 X95.62 Y100.59 I-8.5 J0.
N6210 X87.12 Y92.09 I0. J-8.5
N6215 X95.901 Y83.595 I8.5 J0.
N6220 X96.095 Y83.802 I-0.007 J0.2
N6225 G1 X96.088 Y84.001
N6230 X96.086 Y84.053 Z1.221
N6235 X96.085 Y84.101 Z1.241
N6240 X96.083 Y84.143 Z1.273
N6245 X96.082 Y84.175 Z1.314
N6250 Y84.195 Z1.363
N6255 X96.081 Y84.201 Z1.414
N6260 G0 Z6.5
N6265 X95.682 Y84.188
N6270 G1 Z2.514 F50.
N6275 Z1.129
N6280 Y84.181 Z1.077 F100.
N6285 X95.683 Y84.161 Z1.029
N6290 X95.684 Y84.13 Z0.987
N6295 X95.685 Y84.088 Z0.955
N6300 X95.687 Y84.04 Z0.935
N6305 X95.688 Y83.988 Z0.929
N6310 X95.695 Y83.788
N6315 G3 X95.901 Y83.595 I0.2 J0.007
N6320 X104.12 Y92.09 I-0.281 J8.495
N6325 X95.62 Y100.59 I-8.5 J0.
N6330 X87.12 Y92.09 I0. J-8.5
N6335 X95.901 Y83.595 I8.5 J0.
N6340 X96.095 Y83.802 I-0.007 J0.2
N6345 G1 X96.088 Y84.001
N6350 X96.086 Y84.053 Z0.935
N6355 X96.085 Y84.101 Z0.955
N6360 X96.083 Y84.143 Z0.987
N6365 X96.082 Y84.175 Z1.029
N6370 Y84.195 Z1.077
N6375 X96.081 Y84.201 Z1.129
N6380 G0 Z6.5
N6385 X95.682 Y84.188
N6390 G1 Z2.229 F50.
N6395 Z0.843
N6400 Y84.181 Z0.791 F100.
N6405 X95.683 Y84.161 Z0.743
N6410 X95.684 Y84.13 Z0.701
N6415 X95.685 Y84.088 Z0.67
N6420 X95.687 Y84.04 Z0.65
N6425 X95.688 Y83.988 Z0.643
N6430 X95.695 Y83.788
N6435 G3 X95.901 Y83.595 I0.2 J0.007
N6440 X104.12 Y92.09 I-0.281 J8.495
N6445 X95.62 Y100.59 I-8.5 J0.
N6450 X87.12 Y92.09 I0. J-8.5
N6455 X95.901 Y83.595 I8.5 J0.
N6460 X96.095 Y83.802 I-0.007 J0.2
N6465 G1 X96.088 Y84.001
N6470 X96.086 Y84.053 Z0.65
N6475 X96.085 Y84.101 Z0.67
N6480 X96.083 Y84.143 Z0.701
N6485 X96.082 Y84.175 Z0.743
N6490 Y84.195 Z0.791
N6495 X96.081 Y84.201 Z0.843
N6500 G0 Z6.5
N6505 X95.682 Y84.188
N6510 G1 Z1.943 F50.
N6515 Z0.557
N6520 Y84.181 Z0.505 F100.
N6525 X95.683 Y84.161 Z0.457
N6530 X95.684 Y84.13 Z0.416
N6535 X95.685 Y84.088 Z0.384
N6540 X95.687 Y84.04 Z0.364
N6545 X95.688 Y83.988 Z0.357
N6550 X95.695 Y83.788
N6555 G3 X95.901 Y83.595 I0.2 J0.007
N6560 X104.12 Y92.09 I-0.281 J8.495
N6565 X95.62 Y100.59 I-8.5 J0.
N6570 X87.12 Y92.09 I0. J-8.5
N6575 X95.901 Y83.595 I8.5 J0.
N6580 X96.095 Y83.802 I-0.007 J0.2
N6585 G1 X96.088 Y84.001
N6590 X96.086 Y84.053 Z0.364
N6595 X96.085 Y84.101 Z0.384
N6600 X96.083 Y84.143 Z0.416
N6605 X96.082 Y84.175 Z0.457
N6610 Y84.195 Z0.505
N6615 X96.081 Y84.201 Z0.557
N6620 G0 Z6.5
N6625 X95.682 Y84.188
N6630 G1 Z1.657 F50.
N6635 Z0.271
N6640 Y84.181 Z0.22 F100.
N6645 X95.683 Y84.161 Z0.171
N6650 X95.684 Y84.13 Z0.13
N6655 X95.685 Y84.088 Z0.098
N6660 X95.687 Y84.04 Z0.078
N6665 X95.688 Y83.988 Z0.071
N6670 X95.695 Y83.788
N6675 G3 X95.901 Y83.595 I0.2 J0.007
N6680 X104.12 Y92.09 I-0.281 J8.495
N6685 X95.62 Y100.59 I-8.5 J0.
N6690 X87.12 Y92.09 I0. J-8.5
N6695 X95.901 Y83.595 I8.5 J0.
N6700 X96.095 Y83.802 I-0.007 J0.2
N6705 G1 X96.088 Y84.001
N6710 X96.086 Y84.053 Z0.078
N6715 X96.085 Y84.101 Z0.098
N6720 X96.083 Y84.143 Z0.13
N6725 X96.082 Y84.175 Z0.171
N6730 Y84.195 Z0.22
N6735 X96.081 Y84.201 Z0.271
N6740 G0 Z6.5
N6745 X95.682 Y84.188
N6750 G1 Z1.371 F50.
N6755 Z-0.014
N6760 Y84.181 Z-0.066 F100.
N6765 X95.683 Y84.161 Z-0.114
N6770 X95.684 Y84.13 Z-0.156
N6775 X95.685 Y84.088 Z-0.187
N6780 X95.687 Y84.04 Z-0.207
N6785 X95.688 Y83.988 Z-0.214
N6790 X95.695 Y83.788
N6795 G3 X95.901 Y83.595 I0.2 J0.007
N6800 X104.028 Y90.84 I-0.281 J8.495
N6805 G1 Z0.
N6810 G3 X104.12 Y92.09 I-8.407 J1.25
N6815 X104.028 Y93.34 I-8.5 J0.
N6820 G1 Z-0.214 F50.
N6825 G3 X95.62 Y100.59 I-8.407 J-1.25 F100.
N6830 X92.499 Y99.996 I0. J-8.5
N6835 G1 Z0.
N6840 G3 X90.334 Y98.746 I3.121 J-7.906
N6845 G1 Z-0.214 F50.
N6850 G3 X87.12 Y92.09 I5.286 J-6.656 F100.
N6855 X90.334 Y85.434 I8.5 J0.
N6860 G1 Z0.
N6865 G3 X92.499 Y84.184 I5.286 J6.656
N6870 G1 Z-0.214 F50.
N6875 G3 X95.62 Y83.59 I3.121 J7.906 F100.
N6880 X95.901 Y83.595 I0. J8.5
N6885 X96.095 Y83.802 I-0.007 J0.2
N6890 G1 X96.088 Y84.001
N6895 X96.086 Y84.053 Z-0.207
N6900 X96.085 Y84.101 Z-0.187
N6905 X96.083 Y84.143 Z-0.156
N6910 X96.082 Y84.175 Z-0.114
N6915 Y84.195 Z-0.066
N6920 X96.081 Y84.201 Z-0.014
N6925 G0 Z6.5
N6930 X95.682 Y84.188
N6935 G1 Z1.086 F50.
N6940 Z-0.3
N6945 Y84.181 Z-0.352 F100.
N6950 X95.683 Y84.161 Z-0.4
N6955 X95.684 Y84.13 Z-0.441
N6960 X95.685 Y84.088 Z-0.473
N6965 X95.687 Y84.04 Z-0.493
N6970 X95.688 Y83.988 Z-0.5
N6975 X95.695 Y83.788
N6980 G3 X95.901 Y83.595 I0.2 J0.007
N6985 X104.028 Y90.84 I-0.281 J8.495
N6990 G1 Z0.
N6995 G3 X104.12 Y92.09 I-8.407 J1.25
N7000 X104.028 Y93.34 I-8.5 J0.
N7005 G1 Z-0.5 F50.
N7010 G3 X95.62 Y100.59 I-8.407 J-1.25 F100.
N7015 X92.499 Y99.996 I0. J-8.5
N7020 G1 Z0.
N7025 G3 X90.334 Y98.746 I3.121 J-7.906
N7030 G1 Z-0.5 F50.
N7035 G3 X87.12 Y92.09 I5.286 J-6.656 F100.
N7040 X90.334 Y85.434 I8.5 J0.
N7045 G1 Z0.
N7050 G3 X92.499 Y84.184 I5.286 J6.656
N7055 G1 Z-0.5 F50.
N7060 G3 X95.62 Y83.59 I3.121 J7.906 F100.
N7065 X95.901 Y83.595 I0. J8.5
N7070 X96.095 Y83.802 I-0.007 J0.2
N7075 G1 X96.088 Y84.001
N7080 X96.086 Y84.053 Z-0.493
N7085 X96.085 Y84.101 Z-0.473
N7090 X96.083 Y84.143 Z-0.441
N7095 X96.082 Y84.175 Z-0.4
N7100 Y84.195 Z-0.352
N7105 X96.081 Y84.201 Z-0.3
N7110 G0 Z6.5
N7115 X95.682 Y59.188
N7120 G1 Z2.8 F50.
N7125 Z1.414
N7130 Y59.181 Z1.363 F100.
N7135 X95.683 Y59.161 Z1.314
N7140 X95.684 Y59.13 Z1.273
N7145 X95.685 Y59.088 Z1.241
N7150 X95.687 Y59.04 Z1.221
N7155 X95.688 Y58.988 Z1.214
N7160 X95.695 Y58.788
N7165 G3 X95.901 Y58.595 I0.2 J0.007
N7170 X104.12 Y67.09 I-0.281 J8.495
N7175 X87.12 I-8.5 J0.
N7180 X95.901 Y58.595 I8.5 J0.
N7185 X96.095 Y58.802 I-0.007 J0.2
N7190 G1 X96.088 Y59.001
N7195 X96.086 Y59.053 Z1.221
N7200 X96.085 Y59.101 Z1.241
N7205 X96.083 Y59.143 Z1.273
N7210 X96.082 Y59.175 Z1.314
N7215 Y59.195 Z1.363
N7220 X96.081 Y59.201 Z1.414
N7225 G0 Z6.5
N7230 X95.682 Y59.188
N7235 G1 Z2.514 F50.
N7240 Z1.129
N7245 Y59.181 Z1.077 F100.
N7250 X95.683 Y59.161 Z1.029
N7255 X95.684 Y59.13 Z0.987
N7260 X95.685 Y59.088 Z0.955
N7265 X95.687 Y59.04 Z0.935
N7270 X95.688 Y58.988 Z0.929
N7275 X95.695 Y58.788
N7280 G3 X95.901 Y58.595 I0.2 J0.007
N7285 X104.12 Y67.09 I-0.281 J8.495
N7290 X87.12 I-8.5 J0.
N7295 X95.901 Y58.595 I8.5 J0.
N7300 X96.095 Y58.802 I-0.007 J0.2
N7305 G1 X96.088 Y59.001
N7310 X96.086 Y59.053 Z0.935
N7315 X96.085 Y59.101 Z0.955
N7320 X96.083 Y59.143 Z0.987
N7325 X96.082 Y59.175 Z1.029
N7330 Y59.195 Z1.077
N7335 X96.081 Y59.201 Z1.129
N7340 G0 Z6.5
N7345 X95.682 Y59.188
N7350 G1 Z2.229 F50.
N7355 Z0.843
N7360 Y59.181 Z0.791 F100.
N7365 X95.683 Y59.161 Z0.743
N7370 X95.684 Y59.13 Z0.701
N7375 X95.685 Y59.088 Z0.67
N7380 X95.687 Y59.04 Z0.65
N7385 X95.688 Y58.988 Z0.643
N7390 X95.695 Y58.788
N7395 G3 X95.901 Y58.595 I0.2 J0.007
N7400 X104.12 Y67.09 I-0.281 J8.495
N7405 X87.12 I-8.5 J0.
N7410 X95.901 Y58.595 I8.5 J0.
N7415 X96.095 Y58.802 I-0.007 J0.2
N7420 G1 X96.088 Y59.001
N7425 X96.086 Y59.053 Z0.65
N7430 X96.085 Y59.101 Z0.67
N7435 X96.083 Y59.143 Z0.701
N7440 X96.082 Y59.175 Z0.743
N7445 Y59.195 Z0.791
N7450 X96.081 Y59.201 Z0.843
N7455 G0 Z6.5
N7460 X95.682 Y59.188
N7465 G1 Z1.943 F50.
N7470 Z0.557
N7475 Y59.181 Z0.505 F100.
N7480 X95.683 Y59.161 Z0.457
N7485 X95.684 Y59.13 Z0.416
N7490 X95.685 Y59.088 Z0.384
N7495 X95.687 Y59.04 Z0.364
N7500 X95.688 Y58.988 Z0.357
N7505 X95.695 Y58.788
N7510 G3 X95.901 Y58.595 I0.2 J0.007
N7515 X104.12 Y67.09 I-0.281 J8.495
N7520 X87.12 I-8.5 J0.
N7525 X95.901 Y58.595 I8.5 J0.
N7530 X96.095 Y58.802 I-0.007 J0.2
N7535 G1 X96.088 Y59.001
N7540 X96.086 Y59.053 Z0.364
N7545 X96.085 Y59.101 Z0.384
N7550 X96.083 Y59.143 Z0.416
N7555 X96.082 Y59.175 Z0.457
N7560 Y59.195 Z0.505
N7565 X96.081 Y59.201 Z0.557
N7570 G0 Z6.5
N7575 X95.682 Y59.188
N7580 G1 Z1.657 F50.
N7585 Z0.271
N7590 Y59.181 Z0.22 F100.
N7595 X95.683 Y59.161 Z0.171
N7600 X95.684 Y59.13 Z0.13
N7605 X95.685 Y59.088 Z0.098
N7610 X95.687 Y59.04 Z0.078
N7615 X95.688 Y58.988 Z0.071
N7620 X95.695 Y58.788
N7625 G3 X95.901 Y58.595 I0.2 J0.007
N7630 X104.12 Y67.09 I-0.281 J8.495
N7635 X87.12 I-8.5 J0.
N7640 X95.901 Y58.595 I8.5 J0.
N7645 X96.095 Y58.802 I-0.007 J0.2
N7650 G1 X96.088 Y59.001
N7655 X96.086 Y59.053 Z0.078
N7660 X96.085 Y59.101 Z0.098
N7665 X96.083 Y59.143 Z0.13
N7670 X96.082 Y59.175 Z0.171
N7675 Y59.195 Z0.22
N7680 X96.081 Y59.201 Z0.271
N7685 G0 Z6.5
N7690 X95.682 Y59.188
N7695 G1 Z1.371 F50.
N7700 Z-0.014
N7705 Y59.181 Z-0.066 F100.
N7710 X95.683 Y59.161 Z-0.114
N7715 X95.684 Y59.13 Z-0.156
N7720 X95.685 Y59.088 Z-0.187
N7725 X95.687 Y59.04 Z-0.207
N7730 X95.688 Y58.988 Z-0.214
N7735 X95.695 Y58.788
N7740 G3 X95.901 Y58.595 I0.2 J0.007
N7745 X104.028 Y65.84 I-0.281 J8.495
N7750 G1 Z0.
N7755 G3 X104.12 Y67.09 I-8.407 J1.25
N7760 X104.028 Y68.34 I-8.5 J0.
N7765 G1 Z-0.214 F50.
N7770 G3 X92.499 Y74.996 I-8.407 J-1.25 F100.
N7775 G1 Z0.
N7780 G3 X90.334 Y73.746 I3.121 J-7.906
N7785 G1 Z-0.214 F50.
N7790 G3 X87.12 Y67.09 I5.286 J-6.656 F100.
N7795 X90.334 Y60.434 I8.5 J0.
N7800 G1 Z0.
N7805 G3 X92.499 Y59.184 I5.286 J6.656
N7810 G1 Z-0.214 F50.
N7815 G3 X95.62 Y58.59 I3.121 J7.906 F100.
N7820 X95.901 Y58.595 I0. J8.5
N7825 X96.095 Y58.802 I-0.007 J0.2
N7830 G1 X96.088 Y59.001
N7835 X96.086 Y59.053 Z-0.207
N7840 X96.085 Y59.101 Z-0.187
N7845 X96.083 Y59.143 Z-0.156
N7850 X96.082 Y59.175 Z-0.114
N7855 Y59.195 Z-0.066
N7860 X96.081 Y59.201 Z-0.014
N7865 G0 Z6.5
N7870 X95.682 Y59.188
N7875 G1 Z1.086 F50.
N7880 Z-0.3
N7885 Y59.181 Z-0.352 F100.
N7890 X95.683 Y59.161 Z-0.4
N7895 X95.684 Y59.13 Z-0.441
N7900 X95.685 Y59.088 Z-0.473
N7905 X95.687 Y59.04 Z-0.493
N7910 X95.688 Y58.988 Z-0.5
N7915 X95.695 Y58.788
N7920 G3 X95.901 Y58.595 I0.2 J0.007
N7925 X104.028 Y65.84 I-0.281 J8.495
N7930 G1 Z0.
N7935 G3 X104.12 Y67.09 I-8.407 J1.25
N7940 X104.028 Y68.34 I-8.5 J0.
N7945 G1 Z-0.5 F50.
N7950 G3 X92.499 Y74.996 I-8.407 J-1.25 F100.
N7955 G1 Z0.
N7960 G3 X90.334 Y73.746 I3.121 J-7.906
N7965 G1 Z-0.5 F50.
N7970 G3 X87.12 Y67.09 I5.286 J-6.656 F100.
N7975 X90.334 Y60.434 I8.5 J0.
N7980 G1 Z0.
N7985 G3 X92.499 Y59.184 I5.286 J6.656
N7990 G1 Z-0.5 F50.
N7995 G3 X95.62 Y58.59 I3.121 J7.906 F100.
N8000 X95.901 Y58.595 I0. J8.5
N8005 X96.095 Y58.802 I-0.007 J0.2
N8010 G1 X96.088 Y59.001
N8015 X96.086 Y59.053 Z-0.493
N8020 X96.085 Y59.101 Z-0.473
N8025 X96.083 Y59.143 Z-0.441
N8030 X96.082 Y59.175 Z-0.4
N8035 Y59.195 Z-0.352
N8040 X96.081 Y59.201 Z-0.3
N8045 G0 Z6.5
N8050 X95.559 Y49.992
N8055 G1 Z2.8 F50.
N8060 Z1.414
N8065 Y49.999 Z1.363 F100.
N8070 X95.558 Y50.019 Z1.314
N8075 X95.557 Y50.05 Z1.273
N8080 X95.555 Y50.092 Z1.241
N8085 X95.554 Y50.14 Z1.221
N8090 X95.552 Y50.192 Z1.214
N8095 X95.546 Y50.392
N8100 G3 X95.339 Y50.585 I-0.2 J-0.007
N8105 X87.12 Y42.09 I0.281 J-8.495
N8110 X104.12 I8.5 J0.
N8115 X95.339 Y50.585 I-8.5 J0.
N8120 X95.146 Y50.378 I0.007 J-0.2
N8125 G1 X95.152 Y50.179
N8130 X95.154 Y50.127 Z1.221
N8135 X95.156 Y50.079 Z1.241
N8140 X95.157 Y50.037 Z1.273
N8145 X95.158 Y50.005 Z1.314
N8150 X95.159 Y49.985 Z1.363
N8155 Y49.979 Z1.414
N8160 G0 Z6.5
N8165 X95.559 Y49.992
N8170 G1 Z2.514 F50.
N8175 Z1.129
N8180 Y49.999 Z1.077 F100.
N8185 X95.558 Y50.019 Z1.029
N8190 X95.557 Y50.05 Z0.987
N8195 X95.555 Y50.092 Z0.955
N8200 X95.554 Y50.14 Z0.935
N8205 X95.552 Y50.192 Z0.929
N8210 X95.546 Y50.392
N8215 G3 X95.339 Y50.585 I-0.2 J-0.007
N8220 X87.12 Y42.09 I0.281 J-8.495
N8225 X104.12 I8.5 J0.
N8230 X95.339 Y50.585 I-8.5 J0.
N8235 X95.146 Y50.378 I0.007 J-0.2
N8240 G1 X95.152 Y50.179
N8245 X95.154 Y50.127 Z0.935
N8250 X95.156 Y50.079 Z0.955
N8255 X95.157 Y50.037 Z0.987
N8260 X95.158 Y50.005 Z1.029
N8265 X95.159 Y49.985 Z1.077
N8270 Y49.979 Z1.129
N8275 G0 Z6.5
N8280 X95.559 Y49.992
N8285 G1 Z2.229 F50.
N8290 Z0.843
N8295 Y49.999 Z0.791 F100.
N8300 X95.558 Y50.019 Z0.743
N8305 X95.557 Y50.05 Z0.701
N8310 X95.555 Y50.092 Z0.67
N8315 X95.554 Y50.14 Z0.65
N8320 X95.552 Y50.192 Z0.643
N8325 X95.546 Y50.392
N8330 G3 X95.339 Y50.585 I-0.2 J-0.007
N8335 X87.12 Y42.09 I0.281 J-8.495
N8340 X104.12 I8.5 J0.
N8345 X95.339 Y50.585 I-8.5 J0.
N8350 X95.146 Y50.378 I0.007 J-0.2
N8355 G1 X95.152 Y50.179
N8360 X95.154 Y50.127 Z0.65
N8365 X95.156 Y50.079 Z0.67
N8370 X95.157 Y50.037 Z0.701
N8375 X95.158 Y50.005 Z0.743
N8380 X95.159 Y49.985 Z0.791
N8385 Y49.979 Z0.843
N8390 G0 Z6.5
N8395 X95.559 Y49.992
N8400 G1 Z1.943 F50.
N8405 Z0.557
N8410 Y49.999 Z0.505 F100.
N8415 X95.558 Y50.019 Z0.457
N8420 X95.557 Y50.05 Z0.416
N8425 X95.555 Y50.092 Z0.384
N8430 X95.554 Y50.14 Z0.364
N8435 X95.552 Y50.192 Z0.357
N8440 X95.546 Y50.392
N8445 G3 X95.339 Y50.585 I-0.2 J-0.007
N8450 X87.12 Y42.09 I0.281 J-8.495
N8455 X104.12 I8.5 J0.
N8460 X95.339 Y50.585 I-8.5 J0.
N8465 X95.146 Y50.378 I0.007 J-0.2
N8470 G1 X95.152 Y50.179
N8475 X95.154 Y50.127 Z0.364
N8480 X95.156 Y50.079 Z0.384
N8485 X95.157 Y50.037 Z0.416
N8490 X95.158 Y50.005 Z0.457
N8495 X95.159 Y49.985 Z0.505
N8500 Y49.979 Z0.557
N8505 G0 Z6.5
N8510 X95.559 Y49.992
N8515 G1 Z1.657 F50.
N8520 Z0.271
N8525 Y49.999 Z0.22 F100.
N8530 X95.558 Y50.019 Z0.171
N8535 X95.557 Y50.05 Z0.13
N8540 X95.555 Y50.092 Z0.098
N8545 X95.554 Y50.14 Z0.078
N8550 X95.552 Y50.192 Z0.071
N8555 X95.546 Y50.392
N8560 G3 X95.339 Y50.585 I-0.2 J-0.007
N8565 X87.12 Y42.09 I0.281 J-8.495
N8570 X104.12 I8.5 J0.
N8575 X95.339 Y50.585 I-8.5 J0.
N8580 X95.146 Y50.378 I0.007 J-0.2
N8585 G1 X95.152 Y50.179
N8590 X95.154 Y50.127 Z0.078
N8595 X95.156 Y50.079 Z0.098
N8600 X95.157 Y50.037 Z0.13
N8605 X95.158 Y50.005 Z0.171
N8610 X95.159 Y49.985 Z0.22
N8615 Y49.979 Z0.271
N8620 G0 Z6.5
N8625 X95.559 Y49.992
N8630 G1 Z1.371 F50.
N8635 Z-0.014
N8640 Y49.999 Z-0.066 F100.
N8645 X95.558 Y50.019 Z-0.114
N8650 X95.557 Y50.05 Z-0.156
N8655 X95.555 Y50.092 Z-0.187
N8660 X95.554 Y50.14 Z-0.207
N8665 X95.552 Y50.192 Z-0.214
N8670 X95.546 Y50.392
N8675 G3 X95.339 Y50.585 I-0.2 J-0.007
N8680 X92.499 Y49.996 I0.281 J-8.495
N8685 G1 Z0.
N8690 G3 X90.334 Y48.746 I3.121 J-7.906
N8695 G1 Z-0.214 F50.
N8700 G3 X87.12 Y42.09 I5.286 J-6.656 F100.
N8705 X90.334 Y35.434 I8.5 J0.
N8710 G1 Z0.
N8715 G3 X92.499 Y34.184 I5.286 J6.656
N8720 G1 Z-0.214 F50.
N8725 G3 X104.028 Y40.84 I3.121 J7.906 F100.
N8730 G1 Z0.
N8735 G3 X104.12 Y42.09 I-8.407 J1.25
N8740 X104.028 Y43.34 I-8.5 J0.
N8745 G1 Z-0.214 F50.
N8750 G3 X95.339 Y50.585 I-8.407 J-1.25 F100.
N8755 X95.146 Y50.378 I0.007 J-0.2
N8760 G1 X95.152 Y50.179
N8765 X95.154 Y50.127 Z-0.207
N8770 X95.156 Y50.079 Z-0.187
N8775 X95.157 Y50.037 Z-0.156
N8780 X95.158 Y50.005 Z-0.114
N8785 X95.159 Y49.985 Z-0.066
N8790 Y49.979 Z-0.014
N8795 G0 Z6.5
N8800 X95.559 Y49.992
N8805 G1 Z1.086 F50.
N8810 Z-0.3
N8815 Y49.999 Z-0.352 F100.
N8820 X95.558 Y50.019 Z-0.4
N8825 X95.557 Y50.05 Z-0.441
N8830 X95.555 Y50.092 Z-0.473
N8835 X95.554 Y50.14 Z-0.493
N8840 X95.552 Y50.192 Z-0.5
N8845 X95.546 Y50.392
N8850 G3 X95.339 Y50.585 I-0.2 J-0.007
N8855 X92.499 Y49.996 I0.281 J-8.495
N8860 G1 Z0.
N8865 G3 X90.334 Y48.746 I3.121 J-7.906
N8870 G1 Z-0.5 F50.
N8875 G3 X87.12 Y42.09 I5.286 J-6.656 F100.
N8880 X90.334 Y35.434 I8.5 J0.
N8885 G1 Z0.
N8890 G3 X92.499 Y34.184 I5.286 J6.656
N8895 G1 Z-0.5 F50.
N8900 G3 X104.028 Y40.84 I3.121 J7.906 F100.
N8905 G1 Z0.
N8910 G3 X104.12 Y42.09 I-8.407 J1.25
N8915 X104.028 Y43.34 I-8.5 J0.
N8920 G1 Z-0.5 F50.
N8925 G3 X95.339 Y50.585 I-8.407 J-1.25 F100.
N8930 X95.146 Y50.378 I0.007 J-0.2
N8935 G1 X95.152 Y50.179
N8940 X95.154 Y50.127 Z-0.493
N8945 X95.156 Y50.079 Z-0.473
N8950 X95.157 Y50.037 Z-0.441
N8955 X95.158 Y50.005 Z-0.4
N8960 X95.159 Y49.985 Z-0.352
N8965 Y49.979 Z-0.3
N8970 G0 Z6.5
N8975 X78.523 Y42.151
N8980 G1 Z2.8 F50.
N8985 Z1.414
N8990 X78.53 Y42.152 Z1.363 F100.
N8995 X78.549 Z1.314
N9000 X78.581 Y42.153 Z1.273
N9005 X78.623 Y42.155 Z1.241
N9010 X78.671 Y42.156 Z1.221
N9015 X78.723 Y42.158 Z1.214
N9020 X78.922 Y42.165
N9025 G3 X79.116 Y42.371 I-0.007 J0.2
N9030 X62.125 Y41.809 I-8.495 J-0.281
N9035 X79.116 Y42.371 I8.495 J0.281
N9040 X78.909 Y42.564 I-0.2 J-0.007
N9045 G1 X78.709 Y42.558
N9050 X78.658 Y42.556 Z1.221
N9055 X78.609 Y42.554 Z1.241
N9060 X78.568 Y42.553 Z1.273
N9065 X78.536 Y42.552 Z1.314
N9070 X78.516 Y42.551 Z1.363
N9075 X78.509 Z1.414
N9080 G0 Z6.5
N9085 X78.523 Y42.151
N9090 G1 Z2.514 F50.
N9095 Z1.129
N9100 X78.53 Y42.152 Z1.077 F100.
N9105 X78.549 Z1.029
N9110 X78.581 Y42.153 Z0.987
N9115 X78.623 Y42.155 Z0.955
N9120 X78.671 Y42.156 Z0.935
N9125 X78.723 Y42.158 Z0.929
N9130 X78.922 Y42.165
N9135 G3 X79.116 Y42.371 I-0.007 J0.2
N9140 X62.125 Y41.809 I-8.495 J-0.281
N9145 X79.116 Y42.371 I8.495 J0.281
N9150 X78.909 Y42.564 I-0.2 J-0.007
N9155 G1 X78.709 Y42.558
N9160 X78.658 Y42.556 Z0.935
N9165 X78.609 Y42.554 Z0.955
N9170 X78.568 Y42.553 Z0.987
N9175 X78.536 Y42.552 Z1.029
N9180 X78.516 Y42.551 Z1.077
N9185 X78.509 Z1.129
N9190 G0 Z6.5
N9195 X78.523 Y42.151
N9200 G1 Z2.229 F50.
N9205 Z0.843
N9210 X78.53 Y42.152 Z0.791 F100.
N9215 X78.549 Z0.743
N9220 X78.581 Y42.153 Z0.701
N9225 X78.623 Y42.155 Z0.67
N9230 X78.671 Y42.156 Z0.65
N9235 X78.723 Y42.158 Z0.643
N9240 X78.922 Y42.165
N9245 G3 X79.116 Y42.371 I-0.007 J0.2
N9250 X62.125 Y41.809 I-8.495 J-0.281
N9255 X79.116 Y42.371 I8.495 J0.281
N9260 X78.909 Y42.564 I-0.2 J-0.007
N9265 G1 X78.709 Y42.558
N9270 X78.658 Y42.556 Z0.65
N9275 X78.609 Y42.554 Z0.67
N9280 X78.568 Y42.553 Z0.701
N9285 X78.536 Y42.552 Z0.743
N9290 X78.516 Y42.551 Z0.791
N9295 X78.509 Z0.843
N9300 G0 Z6.5
N9305 X78.523 Y42.151
N9310 G1 Z1.943 F50.
N9315 Z0.557
N9320 X78.53 Y42.152 Z0.505 F100.
N9325 X78.549 Z0.457
N9330 X78.581 Y42.153 Z0.416
N9335 X78.623 Y42.155 Z0.384
N9340 X78.671 Y42.156 Z0.364
N9345 X78.723 Y42.158 Z0.357
N9350 X78.922 Y42.165
N9355 G3 X79.116 Y42.371 I-0.007 J0.2
N9360 X62.125 Y41.809 I-8.495 J-0.281
N9365 X79.116 Y42.371 I8.495 J0.281
N9370 X78.909 Y42.564 I-0.2 J-0.007
N9375 G1 X78.709 Y42.558
N9380 X78.658 Y42.556 Z0.364
N9385 X78.609 Y42.554 Z0.384
N9390 X78.568 Y42.553 Z0.416
N9395 X78.536 Y42.552 Z0.457
N9400 X78.516 Y42.551 Z0.505
N9405 X78.509 Z0.557
N9410 G0 Z6.5
N9415 X78.523 Y42.151
N9420 G1 Z1.657 F50.
N9425 Z0.271
N9430 X78.53 Y42.152 Z0.22 F100.
N9435 X78.549 Z0.171
N9440 X78.581 Y42.153 Z0.13
N9445 X78.623 Y42.155 Z0.098
N9450 X78.671 Y42.156 Z0.078
N9455 X78.723 Y42.158 Z0.071
N9460 X78.922 Y42.165
N9465 G3 X79.116 Y42.371 I-0.007 J0.2
N9470 X62.125 Y41.809 I-8.495 J-0.281
N9475 X79.116 Y42.371 I8.495 J0.281
N9480 X78.909 Y42.564 I-0.2 J-0.007
N9485 G1 X78.709 Y42.558
N9490 X78.658 Y42.556 Z0.078
N9495 X78.609 Y42.554 Z0.098
N9500 X78.568 Y42.553 Z0.13
N9505 X78.536 Y42.552 Z0.171
N9510 X78.516 Y42.551 Z0.22
N9515 X78.509 Z0.271
N9520 G0 Z6.5
N9525 X78.523 Y42.151
N9530 G1 Z1.371 F50.
N9535 Z0.
N9540 X78.723 Y42.158 F100.
N9545 X78.922 Y42.165
N9550 G3 X79.116 Y42.371 I-0.007 J0.2
N9555 X79.028 Y43.34 I-8.495 J-0.281
N9560 G1 Z-0.214 F50.
N9565 G3 X67.499 Y49.996 I-8.408 J-1.25 F100.
N9570 G1 Z0.
N9575 G3 X65.334 Y48.746 I3.121 J-7.906
N9580 G1 Z-0.214 F50.
N9585 G3 Y35.434 I5.286 J-6.656 F100.
N9590 G1 Z0.
N9595 G3 X67.499 Y34.184 I5.286 J6.656
N9600 G1 Z-0.214 F50.
N9605 G3 X79.028 Y40.84 I3.121 J7.906 F100.
N9610 G1 Z0.
N9615 G3 X79.116 Y42.371 I-8.408 J1.25
N9620 X78.909 Y42.564 I-0.2 J-0.007
N9625 G1 X78.509 Y42.551
N9630 G0 Z6.5
N9635 X78.523 Y42.151
N9640 G1 Z1.086 F50.
N9645 Z0.
N9650 Z6.5 F100.
N9655 Z0. F50.
N9660 X78.723 Y42.158 F100.
N9665 X78.922 Y42.165
N9670 G3 X79.116 Y42.371 I-0.007 J0.2
N9675 X79.028 Y43.34 I-8.495 J-0.281
N9680 G1 Z-0.5 F50.
N9685 G3 X67.499 Y49.996 I-8.408 J-1.25 F100.
N9690 G1 Z0.
N9695 G3 X65.334 Y48.746 I3.121 J-7.906
N9700 G1 Z-0.5 F50.
N9705 G3 Y35.434 I5.286 J-6.656 F100.
N9710 G1 Z0.
N9715 G3 X67.499 Y34.184 I5.286 J6.656
N9720 G1 Z-0.5 F50.
N9725 G3 X79.028 Y40.84 I3.121 J7.906 F100.
N9730 G1 Z0.
N9735 G3 X79.116 Y42.371 I-8.408 J1.25
N9740 X78.909 Y42.564 I-0.2 J-0.007
N9745 G1 X78.509 Y42.551
N9750 G0 Z6.5
N9755 X77.4 Y61.8
N9760 G1 Z2.8 F50.
N9765 Z1.414
N9770 G18 G2 X77.6 Z1.214 I0.2 K0. F100.
N9775 G1 X77.8
N9780 G17 G3 X78. Y62. I0. J0.2
N9785 G1 Y100.
N9790 G3 X74. I-2. J0.
N9795 G1 Y62.
N9800 G3 X78. I2. J0.
N9805 X77.8 Y62.2 I-0.2 J0.
N9810 G1 X77.6
N9815 G18 G3 X77.4 Z1.414 I0. K0.2
N9820 G0 Z6.5
N9825 Y61.8
N9830 G1 Z2.514 F50.
N9835 Z1.129
N9840 G2 X77.6 Z0.929 I0.2 K0. F100.
N9845 G1 X77.8
N9850 G17 G3 X78. Y62. I0. J0.2
N9855 G1 Y100.
N9860 G3 X74. I-2. J0.
N9865 G1 Y62.
N9870 G3 X78. I2. J0.
N9875 X77.8 Y62.2 I-0.2 J0.
N9880 G1 X77.6
N9885 G18 G3 X77.4 Z1.129 I0. K0.2
N9890 G0 Z6.5
N9895 Y61.8
N9900 G1 Z2.229 F50.
N9905 Z0.843
N9910 G2 X77.6 Z0.643 I0.2 K0. F100.
N9915 G1 X77.8
N9920 G17 G3 X78. Y62. I0. J0.2
N9925 G1 Y100.
N9930 G3 X74. I-2. J0.
N9935 G1 Y62.
N9940 G3 X78. I2. J0.
N9945 X77.8 Y62.2 I-0.2 J0.
N9950 G1 X77.6
N9955 G18 G3 X77.4 Z0.843 I0. K0.2
N9960 G0 Z6.5
N9965 Y61.8
N9970 G1 Z1.943 F50.
N9975 Z0.557
N9980 G2 X77.6 Z0.357 I0.2 K0. F100.
N9985 G1 X77.8
N9990 G17 G3 X78. Y62. I0. J0.2
N9995 G1 Y100.
N10000 G3 X74. I-2. J0.
N10005 G1 Y62.
N10010 G3 X78. I2. J0.
N10015 X77.8 Y62.2 I-0.2 J0.
N10020 G1 X77.6
N10025 G18 G3 X77.4 Z0.557 I0. K0.2
N10030 G0 Z6.5
N10035 Y61.8
N10040 G1 Z1.657 F50.
N10045 Z0.271
N10050 G2 X77.6 Z0.071 I0.2 K0. F100.
N10055 G1 X77.8
N10060 G17 G3 X78. Y62. I0. J0.2
N10065 G1 Y100.
N10070 G3 X74. I-2. J0.
N10075 G1 Y62.
N10080 G3 X78. I2. J0.
N10085 X77.8 Y62.2 I-0.2 J0.
N10090 G1 X77.6
N10095 G18 G3 X77.4 Z0.271 I0. K0.2
N10100 G0 Z6.5
N10105 Y61.8
N10110 G1 Z1.371 F50.
N10115 Z-0.014
N10120 G2 X77.6 Z-0.214 I0.2 K0. F100.
N10125 G1 X77.8
N10130 G17 G3 X78. Y62. I0. J0.2
N10135 G1 Y70.25
N10140 Z0.
N10145 Y72.75
N10150 Z-0.214 F50.
N10155 Y89.25 F100.
N10160 Z0.
N10165 Y91.75
N10170 Z-0.214 F50.
N10175 Y100. F100.
N10180 G3 X74. I-2. J0.
N10185 G1 Y91.75
N10190 Z0.
N10195 Y89.25
N10200 Z-0.214 F50.
N10205 Y72.75 F100.
N10210 Z0.
N10215 Y70.25
N10220 Z-0.214 F50.
N10225 Y62. F100.
N10230 G3 X78. I2. J0.
N10235 X77.8 Y62.2 I-0.2 J0.
N10240 G1 X77.6
N10245 G18 G3 X77.4 Z-0.014 I0. K0.2
N10250 G0 Z6.5
N10255 Y61.8
N10260 G1 Z1.086 F50.
N10265 Z-0.3
N10270 G2 X77.6 Z-0.5 I0.2 K0. F100.
N10275 G1 X77.8
N10280 G17 G3 X78. Y62. I0. J0.2
N10285 G1 Y70.25
N10290 Z0.
N10295 Y72.75
N10300 Z-0.5 F50.
N10305 Y89.25 F100.
N10310 Z0.
N10315 Y91.75
N10320 Z-0.5 F50.
N10325 Y100. F100.
N10330 G3 X74. I-2. J0.
N10335 G1 Y91.75
N10340 Z0.
N10345 Y89.25
N10350 Z-0.5 F50.
N10355 Y72.75 F100.
N10360 Z0.
N10365 Y70.25
N10370 Z-0.5 F50.
N10375 Y62. F100.
N10380 G3 X78. I2. J0.
N10385 X77.8 Y62.2 I-0.2 J0.
N10390 G1 X77.6
N10395 G18 G3 X77.4 Z-0.3 I0. K0.2
N10400 G0 Z6.5
N10405 X53.52 Y41.89
N10410 G1 Z2.8 F50.
N10415 Z1.414
N10420 G2 X53.72 Z1.214 I0.2 K0. F100.
N10425 G1 X53.92
N10430 G17 G3 X54.12 Y42.09 I0. J0.2
N10435 X37.12 I-8.5 J0.
N10440 X54.12 I8.5 J0.
N10445 X53.92 Y42.29 I-0.2 J0.
N10450 G1 X53.72
N10455 G18 G3 X53.52 Z1.414 I0. K0.2
N10460 G0 Z6.5
N10465 Y41.89
N10470 G1 Z2.514 F50.
N10475 Z1.129
N10480 G2 X53.72 Z0.929 I0.2 K0. F100.
N10485 G1 X53.92
N10490 G17 G3 X54.12 Y42.09 I0. J0.2
N10495 X37.12 I-8.5 J0.
N10500 X54.12 I8.5 J0.
N10505 X53.92 Y42.29 I-0.2 J0.
N10510 G1 X53.72
N10515 G18 G3 X53.52 Z1.129 I0. K0.2
N10520 G0 Z6.5
N10525 Y41.89
N10530 G1 Z2.229 F50.
N10535 Z0.843
N10540 G2 X53.72 Z0.643 I0.2 K0. F100.
N10545 G1 X53.92
N10550 G17 G3 X54.12 Y42.09 I0. J0.2
N10555 X37.12 I-8.5 J0.
N10560 X54.12 I8.5 J0.
N10565 X53.92 Y42.29 I-0.2 J0.
N10570 G1 X53.72
N10575 G18 G3 X53.52 Z0.843 I0. K0.2
N10580 G0 Z6.5
N10585 Y41.89
N10590 G1 Z1.943 F50.
N10595 Z0.557
N10600 G2 X53.72 Z0.357 I0.2 K0. F100.
N10605 G1 X53.92
N10610 G17 G3 X54.12 Y42.09 I0. J0.2
N10615 X37.12 I-8.5 J0.
N10620 X54.12 I8.5 J0.
N10625 X53.92 Y42.29 I-0.2 J0.
N10630 G1 X53.72
N10635 G18 G3 X53.52 Z0.557 I0. K0.2
N10640 G0 Z6.5
N10645 Y41.89
N10650 G1 Z1.657 F50.
N10655 Z0.271
N10660 G2 X53.72 Z0.071 I0.2 K0. F100.
N10665 G1 X53.92
N10670 G17 G3 X54.12 Y42.09 I0. J0.2
N10675 X37.12 I-8.5 J0.
N10680 X54.12 I8.5 J0.
N10685 X53.92 Y42.29 I-0.2 J0.
N10690 G1 X53.72
N10695 G18 G3 X53.52 Z0.271 I0. K0.2
N10700 G0 Z6.5
N10705 Y41.89
N10710 G1 Z1.371 F50.
N10715 Z0.
N10720 X53.72 F100.
N10725 X53.92
N10730 G17 G3 X54.12 Y42.09 I0. J0.2
N10735 X54.028 Y43.34 I-8.5 J0.
N10740 G1 Z-0.214 F50.
N10745 G3 X42.499 Y49.996 I-8.408 J-1.25 F100.
N10750 G1 Z0.
N10755 G3 X40.334 Y48.746 I3.121 J-7.906
N10760 G1 Z-0.214 F50.
N10765 G3 Y35.434 I5.286 J-6.656 F100.
N10770 G1 Z0.
N10775 G3 X42.499 Y34.184 I5.286 J6.656
N10780 G1 Z-0.214 F50.
N10785 G3 X54.028 Y40.84 I3.121 J7.906 F100.
N10790 G1 Z0.
N10795 G3 X54.12 Y42.09 I-8.408 J1.25
N10800 X53.92 Y42.29 I-0.2 J0.
N10805 G1 X53.52
N10810 G0 Z6.5
N10815 Y41.89
N10820 G1 Z1.086 F50.
N10825 Z0.
N10830 Z6.5 F100.
N10835 Z0. F50.
N10840 X53.72 F100.
N10845 X53.92
N10850 G3 X54.12 Y42.09 I0. J0.2
N10855 X54.028 Y43.34 I-8.5 J0.
N10860 G1 Z-0.5 F50.
N10865 G3 X42.499 Y49.996 I-8.408 J-1.25 F100.
N10870 G1 Z0.
N10875 G3 X40.334 Y48.746 I3.121 J-7.906
N10880 G1 Z-0.5 F50.
N10885 G3 Y35.434 I5.286 J-6.656 F100.
N10890 G1 Z0.
N10895 G3 X42.499 Y34.184 I5.286 J6.656
N10900 G1 Z-0.5 F50.
N10905 G3 X54.028 Y40.84 I3.121 J7.906 F100.
N10910 G1 Z0.
N10915 G3 X54.12 Y42.09 I-8.408 J1.25
N10920 X53.92 Y42.29 I-0.2 J0.
N10925 G1 X53.52
N10930 G0 Z6.5
N10935 Y16.89
N10940 G1 Z2.8 F50.
N10945 Z1.414
N10950 G18 G2 X53.72 Z1.214 I0.2 K0. F100.
N10955 G1 X53.92
N10960 G17 G3 X54.12 Y17.09 I0. J0.2
N10965 X37.12 I-8.5 J0.
N10970 X54.12 I8.5 J0.
N10975 X53.92 Y17.29 I-0.2 J0.
N10980 G1 X53.72
N10985 G18 G3 X53.52 Z1.414 I0. K0.2
N10990 G0 Z6.5
N10995 Y16.89
N11000 G1 Z2.514 F50.
N11005 Z1.129
N11010 G2 X53.72 Z0.929 I0.2 K0. F100.
N11015 G1 X53.92
N11020 G17 G3 X54.12 Y17.09 I0. J0.2
N11025 X37.12 I-8.5 J0.
N11030 X54.12 I8.5 J0.
N11035 X53.92 Y17.29 I-0.2 J0.
N11040 G1 X53.72
N11045 G18 G3 X53.52 Z1.129 I0. K0.2
N11050 G0 Z6.5
N11055 Y16.89
N11060 G1 Z2.229 F50.
N11065 Z0.843
N11070 G2 X53.72 Z0.643 I0.2 K0. F100.
N11075 G1 X53.92
N11080 G17 G3 X54.12 Y17.09 I0. J0.2
N11085 X37.12 I-8.5 J0.
N11090 X54.12 I8.5 J0.
N11095 X53.92 Y17.29 I-0.2 J0.
N11100 G1 X53.72
N11105 G18 G3 X53.52 Z0.843 I0. K0.2
N11110 G0 Z6.5
N11115 Y16.89
N11120 G1 Z1.943 F50.
N11125 Z0.557
N11130 G2 X53.72 Z0.357 I0.2 K0. F100.
N11135 G1 X53.92
N11140 G17 G3 X54.12 Y17.09 I0. J0.2
N11145 X37.12 I-8.5 J0.
N11150 X54.12 I8.5 J0.
N11155 X53.92 Y17.29 I-0.2 J0.
N11160 G1 X53.72
N11165 G18 G3 X53.52 Z0.557 I0. K0.2
N11170 G0 Z6.5
N11175 Y16.89
N11180 G1 Z1.657 F50.
N11185 Z0.271
N11190 G2 X53.72 Z0.071 I0.2 K0. F100.
N11195 G1 X53.92
N11200 G17 G3 X54.12 Y17.09 I0. J0.2
N11205 X37.12 I-8.5 J0.
N11210 X54.12 I8.5 J0.
N11215 X53.92 Y17.29 I-0.2 J0.
N11220 G1 X53.72
N11225 G18 G3 X53.52 Z0.271 I0. K0.2
N11230 G0 Z6.5
N11235 Y16.89
N11240 G1 Z1.371 F50.
N11245 Z0.
N11250 X53.72 F100.
N11255 X53.92
N11260 G17 G3 X54.12 Y17.09 I0. J0.2
N11265 X54.028 Y18.34 I-8.5 J0.
N11270 G1 Z-0.214 F50.
N11275 G3 X42.499 Y24.996 I-8.408 J-1.25 F100.
N11280 G1 Z0.
N11285 G3 X40.334 Y23.746 I3.121 J-7.906
N11290 G1 Z-0.214 F50.
N11295 G3 Y10.434 I5.286 J-6.656 F100.
N11300 G1 Z0.
N11305 G3 X42.499 Y9.184 I5.286 J6.656
N11310 G1 Z-0.214 F50.
N11315 G3 X54.028 Y15.84 I3.121 J7.906 F100.
N11320 G1 Z0.
N11325 G3 X54.12 Y17.09 I-8.408 J1.25
N11330 X53.92 Y17.29 I-0.2 J0.
N11335 G1 X53.52
N11340 G0 Z6.5
N11345 Y16.89
N11350 G1 Z1.086 F50.
N11355 Z0.
N11360 Z6.5 F100.
N11365 Z0. F50.
N11370 X53.72 F100.
N11375 X53.92
N11380 G3 X54.12 Y17.09 I0. J0.2
N11385 X54.028 Y18.34 I-8.5 J0.
N11390 G1 Z-0.5 F50.
N11395 G3 X42.499 Y24.996 I-8.408 J-1.25 F100.
N11400 G1 Z0.
N11405 G3 X40.334 Y23.746 I3.121 J-7.906
N11410 G1 Z-0.5 F50.
N11415 G3 Y10.434 I5.286 J-6.656 F100.
N11420 G1 Z0.
N11425 G3 X42.499 Y9.184 I5.286 J6.656
N11430 G1 Z-0.5 F50.
N11435 G3 X54.028 Y15.84 I3.121 J7.906 F100.
N11440 G1 Z0.
N11445 G3 X54.12 Y17.09 I-8.408 J1.25
N11450 X53.92 Y17.29 I-0.2 J0.
N11455 G1 X53.52
N11460 G0 Z6.5
N11465 X78.523 Y17.151
N11470 G1 Z2.8 F50.
N11475 Z1.414
N11480 X78.53 Y17.152 Z1.363 F100.
N11485 X78.549 Z1.314
N11490 X78.581 Y17.153 Z1.273
N11495 X78.623 Y17.155 Z1.241
N11500 X78.671 Y17.156 Z1.221
N11505 X78.723 Y17.158 Z1.214
N11510 X78.922 Y17.165
N11515 G3 X79.116 Y17.371 I-0.007 J0.2
N11520 X62.125 Y16.809 I-8.495 J-0.281
N11525 X79.116 Y17.371 I8.495 J0.281
N11530 X78.909 Y17.564 I-0.2 J-0.007
N11535 G1 X78.709 Y17.558
N11540 X78.658 Y17.556 Z1.221
N11545 X78.609 Y17.554 Z1.241
N11550 X78.568 Y17.553 Z1.273
N11555 X78.536 Y17.552 Z1.314
N11560 X78.516 Y17.551 Z1.363
N11565 X78.509 Z1.414
N11570 G0 Z6.5
N11575 X78.523 Y17.151
N11580 G1 Z2.514 F50.
N11585 Z1.129
N11590 X78.53 Y17.152 Z1.077 F100.
N11595 X78.549 Z1.029
N11600 X78.581 Y17.153 Z0.987
N11605 X78.623 Y17.155 Z0.955
N11610 X78.671 Y17.156 Z0.935
N11615 X78.723 Y17.158 Z0.929
N11620 X78.922 Y17.165
N11625 G3 X79.116 Y17.371 I-0.007 J0.2
N11630 X62.125 Y16.809 I-8.495 J-0.281
N11635 X79.116 Y17.371 I8.495 J0.281
N11640 X78.909 Y17.564 I-0.2 J-0.007
N11645 G1 X78.709 Y17.558
N11650 X78.658 Y17.556 Z0.935
N11655 X78.609 Y17.554 Z0.955
N11660 X78.568 Y17.553 Z0.987
N11665 X78.536 Y17.552 Z1.029
N11670 X78.516 Y17.551 Z1.077
N11675 X78.509 Z1.129
N11680 G0 Z6.5
N11685 X78.523 Y17.151
N11690 G1 Z2.229 F50.
N11695 Z0.843
N11700 X78.53 Y17.152 Z0.791 F100.
N11705 X78.549 Z0.743
N11710 X78.581 Y17.153 Z0.701
N11715 X78.623 Y17.155 Z0.67
N11720 X78.671 Y17.156 Z0.65
N11725 X78.723 Y17.158 Z0.643
N11730 X78.922 Y17.165
N11735 G3 X79.116 Y17.371 I-0.007 J0.2
N11740 X62.125 Y16.809 I-8.495 J-0.281
N11745 X79.116 Y17.371 I8.495 J0.281
N11750 X78.909 Y17.564 I-0.2 J-0.007
N11755 G1 X78.709 Y17.558
N11760 X78.658 Y17.556 Z0.65
N11765 X78.609 Y17.554 Z0.67
N11770 X78.568 Y17.553 Z0.701
N11775 X78.536 Y17.552 Z0.743
N11780 X78.516 Y17.551 Z0.791
N11785 X78.509 Z0.843
N11790 G0 Z6.5
N11795 X78.523 Y17.151
N11800 G1 Z1.943 F50.
N11805 Z0.557
N11810 X78.53 Y17.152 Z0.505 F100.
N11815 X78.549 Z0.457
N11820 X78.581 Y17.153 Z0.416
N11825 X78.623 Y17.155 Z0.384
N11830 X78.671 Y17.156 Z0.364
N11835 X78.723 Y17.158 Z0.357
N11840 X78.922 Y17.165
N11845 G3 X79.116 Y17.371 I-0.007 J0.2
N11850 X62.125 Y16.809 I-8.495 J-0.281
N11855 X79.116 Y17.371 I8.495 J0.281
N11860 X78.909 Y17.564 I-0.2 J-0.007
N11865 G1 X78.709 Y17.558
N11870 X78.658 Y17.556 Z0.364
N11875 X78.609 Y17.554 Z0.384
N11880 X78.568 Y17.553 Z0.416
N11885 X78.536 Y17.552 Z0.457
N11890 X78.516 Y17.551 Z0.505
N11895 X78.509 Z0.557
N11900 G0 Z6.5
N11905 X78.523 Y17.151
N11910 G1 Z1.657 F50.
N11915 Z0.271
N11920 X78.53 Y17.152 Z0.22 F100.
N11925 X78.549 Z0.171
N11930 X78.581 Y17.153 Z0.13
N11935 X78.623 Y17.155 Z0.098
N11940 X78.671 Y17.156 Z0.078
N11945 X78.723 Y17.158 Z0.071
N11950 X78.922 Y17.165
N11955 G3 X79.116 Y17.371 I-0.007 J0.2
N11960 X62.125 Y16.809 I-8.495 J-0.281
N11965 X79.116 Y17.371 I8.495 J0.281
N11970 X78.909 Y17.564 I-0.2 J-0.007
N11975 G1 X78.709 Y17.558
N11980 X78.658 Y17.556 Z0.078
N11985 X78.609 Y17.554 Z0.098
N11990 X78.568 Y17.553 Z0.13
N11995 X78.536 Y17.552 Z0.171
N12000 X78.516 Y17.551 Z0.22
N12005 X78.509 Z0.271
N12010 G0 Z6.5
N12015 X78.523 Y17.151
N12020 G1 Z1.371 F50.
N12025 Z0.
N12030 X78.723 Y17.158 F100.
N12035 X78.922 Y17.165
N12040 G3 X79.116 Y17.371 I-0.007 J0.2
N12045 X79.028 Y18.34 I-8.495 J-0.281
N12050 G1 Z-0.214 F50.
N12055 G3 X67.499 Y24.996 I-8.408 J-1.25 F100.
N12060 G1 Z0.
N12065 G3 X65.334 Y23.746 I3.121 J-7.906
N12070 G1 Z-0.214 F50.
N12075 G3 Y10.434 I5.286 J-6.656 F100.
N12080 G1 Z0.
N12085 G3 X67.499 Y9.184 I5.286 J6.656
N12090 G1 Z-0.214 F50.
N12095 G3 X79.028 Y15.84 I3.121 J7.906 F100.
N12100 G1 Z0.
N12105 G3 X79.116 Y17.371 I-8.408 J1.25
N12110 X78.909 Y17.564 I-0.2 J-0.007
N12115 G1 X78.509 Y17.551
N12120 G0 Z6.5
N12125 X78.523 Y17.151
N12130 G1 Z1.086 F50.
N12135 Z0.
N12140 Z6.5 F100.
N12145 Z0. F50.
N12150 X78.723 Y17.158 F100.
N12155 X78.922 Y17.165
N12160 G3 X79.116 Y17.371 I-0.007 J0.2
N12165 X79.028 Y18.34 I-8.495 J-0.281
N12170 G1 Z-0.5 F50.
N12175 G3 X67.499 Y24.996 I-8.408 J-1.25 F100.
N12180 G1 Z0.
N12185 G3 X65.334 Y23.746 I3.121 J-7.906
N12190 G1 Z-0.5 F50.
N12195 G3 Y10.434 I5.286 J-6.656 F100.
N12200 G1 Z0.
N12205 G3 X67.499 Y9.184 I5.286 J6.656
N12210 G1 Z-0.5 F50.
N12215 G3 X79.028 Y15.84 I3.121 J7.906 F100.
N12220 G1 Z0.
N12225 G3 X79.116 Y17.371 I-8.408 J1.25
N12230 X78.909 Y17.564 I-0.2 J-0.007
N12235 G1 X78.509 Y17.551
N12240 G0 Z6.5
N12245 X95.82 Y24.99
N12250 G1 Z2.8 F50.
N12255 Z1.414
N12260 G19 G3 Y25.19 Z1.214 J0.2 K0. F100.
N12265 G1 Y25.39
N12270 G17 G3 X95.62 Y25.59 I-0.2 J0.
N12275 X87.12 Y17.09 I0. J-8.5
N12280 X104.12 I8.5 J0.
N12285 X95.62 Y25.59 I-8.5 J0.
N12290 X95.42 Y25.39 I0. J-0.2
N12295 G1 Y25.19
N12300 G19 G2 Y24.99 Z1.414 J0. K0.2
N12305 G0 Z6.5
N12310 X95.82
N12315 G1 Z2.514 F50.
N12320 Z1.129
N12325 G3 Y25.19 Z0.929 J0.2 K0. F100.
N12330 G1 Y25.39
N12335 G17 G3 X95.62 Y25.59 I-0.2 J0.
N12340 X87.12 Y17.09 I0. J-8.5
N12345 X104.12 I8.5 J0.
N12350 X95.62 Y25.59 I-8.5 J0.
N12355 X95.42 Y25.39 I0. J-0.2
N12360 G1 Y25.19
N12365 G19 G2 Y24.99 Z1.129 J0. K0.2
N12370 G0 Z6.5
N12375 X95.82
N12380 G1 Z2.229 F50.
N12385 Z0.843
N12390 G3 Y25.19 Z0.643 J0.2 K0. F100.
N12395 G1 Y25.39
N12400 G17 G3 X95.62 Y25.59 I-0.2 J0.
N12405 X87.12 Y17.09 I0. J-8.5
N12410 X104.12 I8.5 J0.
N12415 X95.62 Y25.59 I-8.5 J0.
N12420 X95.42 Y25.39 I0. J-0.2
N12425 G1 Y25.19
N12430 G19 G2 Y24.99 Z0.843 J0. K0.2
N12435 G0 Z6.5
N12440 X95.82
N12445 G1 Z1.943 F50.
N12450 Z0.557
N12455 G3 Y25.19 Z0.357 J0.2 K0. F100.
N12460 G1 Y25.39
N12465 G17 G3 X95.62 Y25.59 I-0.2 J0.
N12470 X87.12 Y17.09 I0. J-8.5
N12475 X104.12 I8.5 J0.
N12480 X95.62 Y25.59 I-8.5 J0.
N12485 X95.42 Y25.39 I0. J-0.2
N12490 G1 Y25.19
N12495 G19 G2 Y24.99 Z0.557 J0. K0.2
N12500 G0 Z6.5
N12505 X95.82
N12510 G1 Z1.657 F50.
N12515 Z0.271
N12520 G3 Y25.19 Z0.071 J0.2 K0. F100.
N12525 G1 Y25.39
N12530 G17 G3 X95.62 Y25.59 I-0.2 J0.
N12535 X87.12 Y17.09 I0. J-8.5
N12540 X104.12 I8.5 J0.
N12545 X95.62 Y25.59 I-8.5 J0.
N12550 X95.42 Y25.39 I0. J-0.2
N12555 G1 Y25.19
N12560 G19 G2 Y24.99 Z0.271 J0. K0.2
N12565 G0 Z6.5
N12570 X95.82
N12575 G1 Z1.371 F50.
N12580 Z-0.014
N12585 G3 Y25.19 Z-0.214 J0.2 K0. F100.
N12590 G1 Y25.39
N12595 G17 G3 X95.62 Y25.59 I-0.2 J0.
N12600 X92.499 Y24.996 I0. J-8.5
N12605 G1 Z0.
N12610 G3 X90.334 Y23.746 I3.121 J-7.906
N12615 G1 Z-0.214 F50.
N12620 G3 X87.12 Y17.09 I5.286 J-6.656 F100.
N12625 X90.334 Y10.434 I8.5 J0.
N12630 G1 Z0.
N12635 G3 X92.499 Y9.184 I5.286 J6.656
N12640 G1 Z-0.214 F50.
N12645 G3 X104.028 Y15.84 I3.121 J7.906 F100.
N12650 G1 Z0.
N12655 G3 X104.12 Y17.09 I-8.407 J1.25
N12660 X104.028 Y18.34 I-8.5 J0.
N12665 G1 Z-0.214 F50.
N12670 G3 X95.62 Y25.59 I-8.407 J-1.25 F100.
N12675 X95.42 Y25.39 I0. J-0.2
N12680 G1 Y25.19
N12685 G19 G2 Y24.99 Z-0.014 J0. K0.2
N12690 G0 Z6.5
N12695 X95.82
N12700 G1 Z1.086 F50.
N12705 Z-0.3
N12710 G3 Y25.19 Z-0.5 J0.2 K0. F100.
N12715 G1 Y25.39
N12720 G17 G3 X95.62 Y25.59 I-0.2 J0.
N12725 X92.499 Y24.996 I0. J-8.5
N12730 G1 Z0.
N12735 G3 X90.334 Y23.746 I3.121 J-7.906
N12740 G1 Z-0.5 F50.
N12745 G3 X87.12 Y17.09 I5.286 J-6.656 F100.
N12750 X90.334 Y10.434 I8.5 J0.
N12755 G1 Z0.
N12760 G3 X92.499 Y9.184 I5.286 J6.656
N12765 G1 Z-0.5 F50.
N12770 G3 X104.028 Y15.84 I3.121 J7.906 F100.
N12775 G1 Z0.
N12780 G3 X104.12 Y17.09 I-8.407 J1.25
N12785 X104.028 Y18.34 I-8.5 J0.
N12790 G1 Z-0.5 F50.
N12795 G3 X95.62 Y25.59 I-8.407 J-1.25 F100.
N12800 X95.42 Y25.39 I0. J-0.2
N12805 G1 Y25.19
N12810 G19 G2 Y24.99 Z-0.3 J0. K0.2
N12815 G0 Z6.5
N12820 X28.52 Y16.89
N12825 G1 Z2.8 F50.
N12830 Z1.414
N12835 G18 G2 X28.72 Z1.214 I0.2 K0. F100.
N12840 G1 X28.92
N12845 G17 G3 X29.12 Y17.09 I0. J0.2
N12850 X12.12 I-8.5 J0.
N12855 X29.12 I8.5 J0.
N12860 X28.92 Y17.29 I-0.2 J0.
N12865 G1 X28.72
N12870 G18 G3 X28.52 Z1.414 I0. K0.2
N12875 G0 Z6.5
N12880 Y16.89
N12885 G1 Z2.514 F50.
N12890 Z1.129
N12895 G2 X28.72 Z0.929 I0.2 K0. F100.
N12900 G1 X28.92
N12905 G17 G3 X29.12 Y17.09 I0. J0.2
N12910 X12.12 I-8.5 J0.
N12915 X29.12 I8.5 J0.
N12920 X28.92 Y17.29 I-0.2 J0.
N12925 G1 X28.72
N12930 G18 G3 X28.52 Z1.129 I0. K0.2
N12935 G0 Z6.5
N12940 Y16.89
N12945 G1 Z2.229 F50.
N12950 Z0.843
N12955 G2 X28.72 Z0.643 I0.2 K0. F100.
N12960 G1 X28.92
N12965 G17 G3 X29.12 Y17.09 I0. J0.2
N12970 X12.12 I-8.5 J0.
N12975 X29.12 I8.5 J0.
N12980 X28.92 Y17.29 I-0.2 J0.
N12985 G1 X28.72
N12990 G18 G3 X28.52 Z0.843 I0. K0.2
N12995 G0 Z6.5
N13000 Y16.89
N13005 G1 Z1.943 F50.
N13010 Z0.557
N13015 G2 X28.72 Z0.357 I0.2 K0. F100.
N13020 G1 X28.92
N13025 G17 G3 X29.12 Y17.09 I0. J0.2
N13030 X12.12 I-8.5 J0.
N13035 X29.12 I8.5 J0.
N13040 X28.92 Y17.29 I-0.2 J0.
N13045 G1 X28.72
N13050 G18 G3 X28.52 Z0.557 I0. K0.2
N13055 G0 Z6.5
N13060 Y16.89
N13065 G1 Z1.657 F50.
N13070 Z0.271
N13075 G2 X28.72 Z0.071 I0.2 K0. F100.
N13080 G1 X28.92
N13085 G17 G3 X29.12 Y17.09 I0. J0.2
N13090 X12.12 I-8.5 J0.
N13095 X29.12 I8.5 J0.
N13100 X28.92 Y17.29 I-0.2 J0.
N13105 G1 X28.72
N13110 G18 G3 X28.52 Z0.271 I0. K0.2
N13115 G0 Z6.5
N13120 Y16.89
N13125 G1 Z1.371 F50.
N13130 Z0.
N13135 X28.72 F100.
N13140 X28.92
N13145 G17 G3 X29.12 Y17.09 I0. J0.2
N13150 X29.028 Y18.34 I-8.5 J0.
N13155 G1 Z-0.214 F50.
N13160 G3 X17.499 Y24.996 I-8.408 J-1.25 F100.
N13165 G1 Z0.
N13170 G3 X15.334 Y23.746 I3.121 J-7.906
N13175 G1 Z-0.214 F50.
N13180 G3 Y10.434 I5.286 J-6.656 F100.
N13185 G1 Z0.
N13190 G3 X17.499 Y9.184 I5.286 J6.656
N13195 G1 Z-0.214 F50.
N13200 G3 X29.028 Y15.84 I3.121 J7.906 F100.
N13205 G1 Z0.
N13210 G3 X29.12 Y17.09 I-8.408 J1.25
N13215 X28.92 Y17.29 I-0.2 J0.
N13220 G1 X28.52
N13225 G0 Z6.5
N13230 Y16.89
N13235 G1 Z1.086 F50.
N13240 Z0.
N13245 Z6.5 F100.
N13250 Z0. F50.
N13255 X28.72 F100.
N13260 X28.92
N13265 G3 X29.12 Y17.09 I0. J0.2
N13270 X29.028 Y18.34 I-8.5 J0.
N13275 G1 Z-0.5 F50.
N13280 G3 X17.499 Y24.996 I-8.408 J-1.25 F100.
N13285 G1 Z0.
N13290 G3 X15.334 Y23.746 I3.121 J-7.906
N13295 G1 Z-0.5 F50.
N13300 G3 Y10.434 I5.286 J-6.656 F100.
N13305 G1 Z0.
N13310 G3 X17.499 Y9.184 I5.286 J6.656
N13315 G1 Z-0.5 F50.
N13320 G3 X29.028 Y15.84 I3.121 J7.906 F100.
N13325 G1 Z0.
N13330 G3 X29.12 Y17.09 I-8.408 J1.25
N13335 X28.92 Y17.29 I-0.2 J0.
N13340 G1 X28.52
N13345 G0 Z6.5
N13350 X28.523 Y42.151
N13355 G1 Z2.8 F50.
N13360 Z1.414
N13365 X28.53 Y42.152 Z1.363 F100.
N13370 X28.549 Z1.314
N13375 X28.581 Y42.153 Z1.273
N13380 X28.623 Y42.155 Z1.241
N13385 X28.671 Y42.156 Z1.221
N13390 X28.723 Y42.158 Z1.214
N13395 X28.922 Y42.165
N13400 G3 X29.116 Y42.371 I-0.007 J0.2
N13405 X12.125 Y41.809 I-8.495 J-0.281
N13410 X29.116 Y42.371 I8.495 J0.281
N13415 X28.909 Y42.564 I-0.2 J-0.007
N13420 G1 X28.709 Y42.558
N13425 X28.658 Y42.556 Z1.221
N13430 X28.609 Y42.554 Z1.241
N13435 X28.568 Y42.553 Z1.273
N13440 X28.536 Y42.552 Z1.314
N13445 X28.516 Y42.551 Z1.363
N13450 X28.509 Z1.414
N13455 G0 Z6.5
N13460 X28.523 Y42.151
N13465 G1 Z2.514 F50.
N13470 Z1.129
N13475 X28.53 Y42.152 Z1.077 F100.
N13480 X28.549 Z1.029
N13485 X28.581 Y42.153 Z0.987
N13490 X28.623 Y42.155 Z0.955
N13495 X28.671 Y42.156 Z0.935
N13500 X28.723 Y42.158 Z0.929
N13505 X28.922 Y42.165
N13510 G3 X29.116 Y42.371 I-0.007 J0.2
N13515 X12.125 Y41.809 I-8.495 J-0.281
N13520 X29.116 Y42.371 I8.495 J0.281
N13525 X28.909 Y42.564 I-0.2 J-0.007
N13530 G1 X28.709 Y42.558
N13535 X28.658 Y42.556 Z0.935
N13540 X28.609 Y42.554 Z0.955
N13545 X28.568 Y42.553 Z0.987
N13550 X28.536 Y42.552 Z1.029
N13555 X28.516 Y42.551 Z1.077
N13560 X28.509 Z1.129
N13565 G0 Z6.5
N13570 X28.523 Y42.151
N13575 G1 Z2.229 F50.
N13580 Z0.843
N13585 X28.53 Y42.152 Z0.791 F100.
N13590 X28.549 Z0.743
N13595 X28.581 Y42.153 Z0.701
N13600 X28.623 Y42.155 Z0.67
N13605 X28.671 Y42.156 Z0.65
N13610 X28.723 Y42.158 Z0.643
N13615 X28.922 Y42.165
N13620 G3 X29.116 Y42.371 I-0.007 J0.2
N13625 X12.125 Y41.809 I-8.495 J-0.281
N13630 X29.116 Y42.371 I8.495 J0.281
N13635 X28.909 Y42.564 I-0.2 J-0.007
N13640 G1 X28.709 Y42.558
N13645 X28.658 Y42.556 Z0.65
N13650 X28.609 Y42.554 Z0.67
N13655 X28.568 Y42.553 Z0.701
N13660 X28.536 Y42.552 Z0.743
N13665 X28.516 Y42.551 Z0.791
N13670 X28.509 Z0.843
N13675 G0 Z6.5
N13680 X28.523 Y42.151
N13685 G1 Z1.943 F50.
N13690 Z0.557
N13695 X28.53 Y42.152 Z0.505 F100.
N13700 X28.549 Z0.457
N13705 X28.581 Y42.153 Z0.416
N13710 X28.623 Y42.155 Z0.384
N13715 X28.671 Y42.156 Z0.364
N13720 X28.723 Y42.158 Z0.357
N13725 X28.922 Y42.165
N13730 G3 X29.116 Y42.371 I-0.007 J0.2
N13735 X12.125 Y41.809 I-8.495 J-0.281
N13740 X29.116 Y42.371 I8.495 J0.281
N13745 X28.909 Y42.564 I-0.2 J-0.007
N13750 G1 X28.709 Y42.558
N13755 X28.658 Y42.556 Z0.364
N13760 X28.609 Y42.554 Z0.384
N13765 X28.568 Y42.553 Z0.416
N13770 X28.536 Y42.552 Z0.457
N13775 X28.516 Y42.551 Z0.505
N13780 X28.509 Z0.557
N13785 G0 Z6.5
N13790 X28.523 Y42.151
N13795 G1 Z1.657 F50.
N13800 Z0.271
N13805 X28.53 Y42.152 Z0.22 F100.
N13810 X28.549 Z0.171
N13815 X28.581 Y42.153 Z0.13
N13820 X28.623 Y42.155 Z0.098
N13825 X28.671 Y42.156 Z0.078
N13830 X28.723 Y42.158 Z0.071
N13835 X28.922 Y42.165
N13840 G3 X29.116 Y42.371 I-0.007 J0.2
N13845 X12.125 Y41.809 I-8.495 J-0.281
N13850 X29.116 Y42.371 I8.495 J0.281
N13855 X28.909 Y42.564 I-0.2 J-0.007
N13860 G1 X28.709 Y42.558
N13865 X28.658 Y42.556 Z0.078
N13870 X28.609 Y42.554 Z0.098
N13875 X28.568 Y42.553 Z0.13
N13880 X28.536 Y42.552 Z0.171
N13885 X28.516 Y42.551 Z0.22
N13890 X28.509 Z0.271
N13895 G0 Z6.5
N13900 X28.523 Y42.151
N13905 G1 Z1.371 F50.
N13910 Z0.
N13915 X28.723 Y42.158 F100.
N13920 X28.922 Y42.165
N13925 G3 X29.116 Y42.371 I-0.007 J0.2
N13930 X29.028 Y43.34 I-8.495 J-0.281
N13935 G1 Z-0.214 F50.
N13940 G3 X17.499 Y49.996 I-8.408 J-1.25 F100.
N13945 G1 Z0.
N13950 G3 X15.334 Y48.746 I3.121 J-7.906
N13955 G1 Z-0.214 F50.
N13960 G3 Y35.434 I5.286 J-6.656 F100.
N13965 G1 Z0.
N13970 G3 X17.499 Y34.184 I5.286 J6.656
N13975 G1 Z-0.214 F50.
N13980 G3 X29.028 Y40.84 I3.121 J7.906 F100.
N13985 G1 Z0.
N13990 G3 X29.116 Y42.371 I-8.408 J1.25
N13995 X28.909 Y42.564 I-0.2 J-0.007
N14000 G1 X28.509 Y42.551
N14005 G0 Z6.5
N14010 X28.523 Y42.151
N14015 G1 Z1.086 F50.
N14020 Z0.
N14025 Z6.5 F100.
N14030 Z0. F50.
N14035 X28.723 Y42.158 F100.
N14040 X28.922 Y42.165
N14045 G3 X29.116 Y42.371 I-0.007 J0.2
N14050 X29.028 Y43.34 I-8.495 J-0.281
N14055 G1 Z-0.5 F50.
N14060 G3 X17.499 Y49.996 I-8.408 J-1.25 F100.
N14065 G1 Z0.
N14070 G3 X15.334 Y48.746 I3.121 J-7.906
N14075 G1 Z-0.5 F50.
N14080 G3 Y35.434 I5.286 J-6.656 F100.
N14085 G1 Z0.
N14090 G3 X17.499 Y34.184 I5.286 J6.656
N14095 G1 Z-0.5 F50.
N14100 G3 X29.028 Y40.84 I3.121 J7.906 F100.
N14105 G1 Z0.
N14110 G3 X29.116 Y42.371 I-8.408 J1.25
N14115 X28.909 Y42.564 I-0.2 J-0.007
N14120 G1 X28.509 Y42.551
N14125 G0 Z11.5
N14130 M9
N14140 M30
%
