%
(1001)
(T1  D=2. CR=0. - ZMIN=-0.2 - FLAT END MILL)
N10 G90 G94 G17 G91.1
N15 G21
N20 G53 G0 Z0.
(2D INNERCONTOUR3)
N25 T1 M6
N30 S5000 M3
N35 G54
N40 M8
N45 G0 X128.52 Y66.89
N50 G43 Z11.5 H1
N55 G0 Z6.5
N60 G1 Z2.75 F333.33
N65 Z1.45
N70 G18 G2 X128.72 Z1.25 I0.2 K0. F1000.
N75 G1 X128.92
N80 G17 G3 X129.12 Y67.09 I0. J0.2
N85 X112.12 I-8.5 J0.
N90 X129.12 I8.5 J0.
N95 X128.92 Y67.29 I-0.2 J0.
N100 G1 X128.72
N105 G18 G3 X128.52 Z1.45 I0. K0.2
N110 G0 Z6.5
N115 Y66.89
N120 G1 Z2.5 F333.33
N125 Z1.2
N130 G2 X128.72 Z1. I0.2 K0. F1000.
N135 G1 X128.92
N140 G17 G3 X129.12 Y67.09 I0. J0.2
N145 X112.12 I-8.5 J0.
N150 X129.12 I8.5 J0.
N155 X128.92 Y67.29 I-0.2 J0.
N160 G1 X128.72
N165 G18 G3 X128.52 Z1.2 I0. K0.2
N170 G0 Z6.5
N175 Y66.89
N180 G1 Z2.25 F333.33
N185 Z0.95
N190 G2 X128.72 Z0.75 I0.2 K0. F1000.
N195 G1 X128.92
N200 G17 G3 X129.12 Y67.09 I0. J0.2
N205 X112.12 I-8.5 J0.
N210 X129.12 I8.5 J0.
N215 X128.92 Y67.29 I-0.2 J0.
N220 G1 X128.72
N225 G18 G3 X128.52 Z0.95 I0. K0.2
N230 G0 Z6.5
N235 Y66.89
N240 G1 Z2. F333.33
N245 Z0.7
N250 G2 X128.72 Z0.5 I0.2 K0. F1000.
N255 G1 X128.92
N260 G17 G3 X129.12 Y67.09 I0. J0.2
N265 X112.12 I-8.5 J0.
N270 X129.12 I8.5 J0.
N275 X128.92 Y67.29 I-0.2 J0.
N280 G1 X128.72
N285 G18 G3 X128.52 Z0.7 I0. K0.2
N290 G0 Z6.5
N295 Y66.89
N300 G1 Z1.75 F333.33
N305 Z0.45
N310 G2 X128.72 Z0.25 I0.2 K0. F1000.
N315 G1 X128.92
N320 G17 G3 X129.12 Y67.09 I0. J0.2
N325 X112.12 I-8.5 J0.
N330 X129.12 I8.5 J0.
N335 X128.92 Y67.29 I-0.2 J0.
N340 G1 X128.72
N345 G18 G3 X128.52 Z0.45 I0. K0.2
N350 G0 Z6.5
N355 Y66.89
N360 G1 Z1.5 F333.33
N365 Z0.2
N370 G2 X128.72 Z0. I0.2 K0. F1000.
N375 G1 X128.92
N380 G17 G3 X129.12 Y67.09 I0. J0.2
N385 X112.12 I-8.5 J0.
N390 X129.12 I8.5 J0.
N395 X128.92 Y67.29 I-0.2 J0.
N400 G1 X128.72
N405 G18 G3 X128.52 Z0.2 I0. K0.2
N410 G0 Z6.5
N415 Y66.89
N420 G1 Z1.25 F333.33
N425 Z0.
N430 G2 X128.72 Z-0.2 I0.2 K0. F1000.
N435 G1 X128.92
N440 G17 G3 X129.12 Y67.09 I0. J0.2
N445 X112.12 I-8.5 J0.
N450 X129.12 I8.5 J0.
N455 X128.92 Y67.29 I-0.2 J0.
N460 G1 X128.72
N465 G18 G3 X128.52 Z0. I0. K0.2
N470 G0 Z6.5
N475 X163.775 Y56.26
N480 G1 Z2.75 F333.33
N485 Z1.45
N490 G2 X163.975 Z1.25 I0.2 K0. F1000.
N495 G1 X164.175
N500 G17 G3 X164.375 Y56.46 I0. J0.2
N505 X143.375 I-10.5 J0.
N510 X164.375 I10.5 J0.
N515 X164.175 Y56.66 I-0.2 J0.
N520 G1 X163.975
N525 G18 G3 X163.775 Z1.45 I0. K0.2
N530 G0 Z6.5
N535 Y56.26
N540 G1 Z2.5 F333.33
N545 Z1.2
N550 G2 X163.975 Z1. I0.2 K0. F1000.
N555 G1 X164.175
N560 G17 G3 X164.375 Y56.46 I0. J0.2
N565 X143.375 I-10.5 J0.
N570 X164.375 I10.5 J0.
N575 X164.175 Y56.66 I-0.2 J0.
N580 G1 X163.975
N585 G18 G3 X163.775 Z1.2 I0. K0.2
N590 G0 Z6.5
N595 Y56.26
N600 G1 Z2.25 F333.33
N605 Z0.95
N610 G2 X163.975 Z0.75 I0.2 K0. F1000.
N615 G1 X164.175
N620 G17 G3 X164.375 Y56.46 I0. J0.2
N625 X143.375 I-10.5 J0.
N630 X164.375 I10.5 J0.
N635 X164.175 Y56.66 I-0.2 J0.
N640 G1 X163.975
N645 G18 G3 X163.775 Z0.95 I0. K0.2
N650 G0 Z6.5
N655 Y56.26
N660 G1 Z2. F333.33
N665 Z0.7
N670 G2 X163.975 Z0.5 I0.2 K0. F1000.
N675 G1 X164.175
N680 G17 G3 X164.375 Y56.46 I0. J0.2
N685 X143.375 I-10.5 J0.
N690 X164.375 I10.5 J0.
N695 X164.175 Y56.66 I-0.2 J0.
N700 G1 X163.975
N705 G18 G3 X163.775 Z0.7 I0. K0.2
N710 G0 Z6.5
N715 Y56.26
N720 G1 Z1.75 F333.33
N725 Z0.45
N730 G2 X163.975 Z0.25 I0.2 K0. F1000.
N735 G1 X164.175
N740 G17 G3 X164.375 Y56.46 I0. J0.2
N745 X143.375 I-10.5 J0.
N750 X164.375 I10.5 J0.
N755 X164.175 Y56.66 I-0.2 J0.
N760 G1 X163.975
N765 G18 G3 X163.775 Z0.45 I0. K0.2
N770 G0 Z6.5
N775 Y56.26
N780 G1 Z1.5 F333.33
N785 Z0.2
N790 G2 X163.975 Z0. I0.2 K0. F1000.
N795 G1 X164.175
N800 G17 G3 X164.375 Y56.46 I0. J0.2
N805 X143.375 I-10.5 J0.
N810 X164.375 I10.5 J0.
N815 X164.175 Y56.66 I-0.2 J0.
N820 G1 X163.975
N825 G18 G3 X163.775 Z0.2 I0. K0.2
N830 G0 Z6.5
N835 Y56.26
N840 G1 Z1.25 F333.33
N845 Z0.
N850 G2 X163.975 Z-0.2 I0.2 K0. F1000.
N855 G1 X164.175
N860 G17 G3 X164.375 Y56.46 I0. J0.2
N865 X143.375 I-10.5 J0.
N870 X164.375 I10.5 J0.
N875 X164.175 Y56.66 I-0.2 J0.
N880 G1 X163.975
N885 G18 G3 X163.775 Z0. I0. K0.2
N890 G0 Z6.5
N895 X198.775 Y56.26
N900 G1 Z2.75 F333.33
N905 Z1.45
N910 G2 X198.975 Z1.25 I0.2 K0. F1000.
N915 G1 X199.175
N920 G17 G3 X199.375 Y56.46 I0. J0.2
N925 X178.375 I-10.5 J0.
N930 X199.375 I10.5 J0.
N935 X199.175 Y56.66 I-0.2 J0.
N940 G1 X198.975
N945 G18 G3 X198.775 Z1.45 I0. K0.2
N950 G0 Z6.5
N955 Y56.26
N960 G1 Z2.5 F333.33
N965 Z1.2
N970 G2 X198.975 Z1. I0.2 K0. F1000.
N975 G1 X199.175
N980 G17 G3 X199.375 Y56.46 I0. J0.2
N985 X178.375 I-10.5 J0.
N990 X199.375 I10.5 J0.
N995 X199.175 Y56.66 I-0.2 J0.
N1000 G1 X198.975
N1005 G18 G3 X198.775 Z1.2 I0. K0.2
N1010 G0 Z6.5
N1015 Y56.26
N1020 G1 Z2.25 F333.33
N1025 Z0.95
N1030 G2 X198.975 Z0.75 I0.2 K0. F1000.
N1035 G1 X199.175
N1040 G17 G3 X199.375 Y56.46 I0. J0.2
N1045 X178.375 I-10.5 J0.
N1050 X199.375 I10.5 J0.
N1055 X199.175 Y56.66 I-0.2 J0.
N1060 G1 X198.975
N1065 G18 G3 X198.775 Z0.95 I0. K0.2
N1070 G0 Z6.5
N1075 Y56.26
N1080 G1 Z2. F333.33
N1085 Z0.7
N1090 G2 X198.975 Z0.5 I0.2 K0. F1000.
N1095 G1 X199.175
N1100 G17 G3 X199.375 Y56.46 I0. J0.2
N1105 X178.375 I-10.5 J0.
N1110 X199.375 I10.5 J0.
N1115 X199.175 Y56.66 I-0.2 J0.
N1120 G1 X198.975
N1125 G18 G3 X198.775 Z0.7 I0. K0.2
N1130 G0 Z6.5
N1135 Y56.26
N1140 G1 Z1.75 F333.33
N1145 Z0.45
N1150 G2 X198.975 Z0.25 I0.2 K0. F1000.
N1155 G1 X199.175
N1160 G17 G3 X199.375 Y56.46 I0. J0.2
N1165 X178.375 I-10.5 J0.
N1170 X199.375 I10.5 J0.
N1175 X199.175 Y56.66 I-0.2 J0.
N1180 G1 X198.975
N1185 G18 G3 X198.775 Z0.45 I0. K0.2
N1190 G0 Z6.5
N1195 Y56.26
N1200 G1 Z1.5 F333.33
N1205 Z0.2
N1210 G2 X198.975 Z0. I0.2 K0. F1000.
N1215 G1 X199.175
N1220 G17 G3 X199.375 Y56.46 I0. J0.2
N1225 X178.375 I-10.5 J0.
N1230 X199.375 I10.5 J0.
N1235 X199.175 Y56.66 I-0.2 J0.
N1240 G1 X198.975
N1245 G18 G3 X198.775 Z0.2 I0. K0.2
N1250 G0 Z6.5
N1255 Y56.26
N1260 G1 Z1.25 F333.33
N1265 Z0.
N1270 G2 X198.975 Z-0.2 I0.2 K0. F1000.
N1275 G1 X199.175
N1280 G17 G3 X199.375 Y56.46 I0. J0.2
N1285 X178.375 I-10.5 J0.
N1290 X199.375 I10.5 J0.
N1295 X199.175 Y56.66 I-0.2 J0.
N1300 G1 X198.975
N1305 G18 G3 X198.775 Z0. I0. K0.2
N1310 G0 Z6.5
N1315 X212.406 Y85.154
N1320 G1 Z2.75 F333.33
N1325 Z1.45
N1330 X212.412 Y85.156 Z1.398 F1000.
N1335 X212.432 Y85.161 Z1.35
N1340 X212.463 Y85.169 Z1.309
N1345 X212.503 Y85.179 Z1.277
N1350 X212.549 Y85.191 Z1.257
N1355 X212.6 Y85.204 Z1.25
N1360 X212.793 Y85.254
N1365 G17 G3 X212.937 Y85.497 I-0.05 J0.194
N1370 X209. Y85. I-1.937 J-0.497
N1375 G1 Y27.
N1380 G3 X213. I2. J0.
N1385 G1 Y85.
N1390 G3 X212.937 Y85.497 I-2. J0.
N1395 X212.694 Y85.641 I-0.194 J-0.05
N1400 G1 X212.5 Y85.591
N1405 X212.45 Y85.578 Z1.257
N1410 X212.403 Y85.566 Z1.277
N1415 X212.363 Y85.556 Z1.309
N1420 X212.332 Y85.548 Z1.35
N1425 X212.313 Y85.543 Z1.398
N1430 X212.306 Y85.542 Z1.45
N1435 G0 Z6.5
N1440 X212.406 Y85.154
N1445 G1 Z2.5 F333.33
N1450 Z1.2
N1455 X212.412 Y85.156 Z1.148 F1000.
N1460 X212.432 Y85.161 Z1.1
N1465 X212.463 Y85.169 Z1.059
N1470 X212.503 Y85.179 Z1.027
N1475 X212.549 Y85.191 Z1.007
N1480 X212.6 Y85.204 Z1.
N1485 X212.793 Y85.254
N1490 G3 X212.937 Y85.497 I-0.05 J0.194
N1495 X209. Y85. I-1.937 J-0.497
N1500 G1 Y27.
N1505 G3 X213. I2. J0.
N1510 G1 Y85.
N1515 G3 X212.937 Y85.497 I-2. J0.
N1520 X212.694 Y85.641 I-0.194 J-0.05
N1525 G1 X212.5 Y85.591
N1530 X212.45 Y85.578 Z1.007
N1535 X212.403 Y85.566 Z1.027
N1540 X212.363 Y85.556 Z1.059
N1545 X212.332 Y85.548 Z1.1
N1550 X212.313 Y85.543 Z1.148
N1555 X212.306 Y85.542 Z1.2
N1560 G0 Z6.5
N1565 X212.406 Y85.154
N1570 G1 Z2.25 F333.33
N1575 Z0.95
N1580 X212.412 Y85.156 Z0.898 F1000.
N1585 X212.432 Y85.161 Z0.85
N1590 X212.463 Y85.169 Z0.809
N1595 X212.503 Y85.179 Z0.777
N1600 X212.549 Y85.191 Z0.757
N1605 X212.6 Y85.204 Z0.75
N1610 X212.793 Y85.254
N1615 G3 X212.937 Y85.497 I-0.05 J0.194
N1620 X209. Y85. I-1.937 J-0.497
N1625 G1 Y27.
N1630 G3 X213. I2. J0.
N1635 G1 Y85.
N1640 G3 X212.937 Y85.497 I-2. J0.
N1645 X212.694 Y85.641 I-0.194 J-0.05
N1650 G1 X212.5 Y85.591
N1655 X212.45 Y85.578 Z0.757
N1660 X212.403 Y85.566 Z0.777
N1665 X212.363 Y85.556 Z0.809
N1670 X212.332 Y85.548 Z0.85
N1675 X212.313 Y85.543 Z0.898
N1680 X212.306 Y85.542 Z0.95
N1685 G0 Z6.5
N1690 X212.406 Y85.154
N1695 G1 Z2. F333.33
N1700 Z0.7
N1705 X212.412 Y85.156 Z0.648 F1000.
N1710 X212.432 Y85.161 Z0.6
N1715 X212.463 Y85.169 Z0.559
N1720 X212.503 Y85.179 Z0.527
N1725 X212.549 Y85.191 Z0.507
N1730 X212.6 Y85.204 Z0.5
N1735 X212.793 Y85.254
N1740 G3 X212.937 Y85.497 I-0.05 J0.194
N1745 X209. Y85. I-1.937 J-0.497
N1750 G1 Y27.
N1755 G3 X213. I2. J0.
N1760 G1 Y85.
N1765 G3 X212.937 Y85.497 I-2. J0.
N1770 X212.694 Y85.641 I-0.194 J-0.05
N1775 G1 X212.5 Y85.591
N1780 X212.45 Y85.578 Z0.507
N1785 X212.403 Y85.566 Z0.527
N1790 X212.363 Y85.556 Z0.559
N1795 X212.332 Y85.548 Z0.6
N1800 X212.313 Y85.543 Z0.648
N1805 X212.306 Y85.542 Z0.7
N1810 G0 Z6.5
N1815 X212.406 Y85.154
N1820 G1 Z1.75 F333.33
N1825 Z0.45
N1830 X212.412 Y85.156 Z0.398 F1000.
N1835 X212.432 Y85.161 Z0.35
N1840 X212.463 Y85.169 Z0.309
N1845 X212.503 Y85.179 Z0.277
N1850 X212.549 Y85.191 Z0.257
N1855 X212.6 Y85.204 Z0.25
N1860 X212.793 Y85.254
N1865 G3 X212.937 Y85.497 I-0.05 J0.194
N1870 X209. Y85. I-1.937 J-0.497
N1875 G1 Y27.
N1880 G3 X213. I2. J0.
N1885 G1 Y85.
N1890 G3 X212.937 Y85.497 I-2. J0.
N1895 X212.694 Y85.641 I-0.194 J-0.05
N1900 G1 X212.5 Y85.591
N1905 X212.45 Y85.578 Z0.257
N1910 X212.403 Y85.566 Z0.277
N1915 X212.363 Y85.556 Z0.309
N1920 X212.332 Y85.548 Z0.35
N1925 X212.313 Y85.543 Z0.398
N1930 X212.306 Y85.542 Z0.45
N1935 G0 Z6.5
N1940 X212.406 Y85.154
N1945 G1 Z1.5 F333.33
N1950 Z0.2
N1955 X212.412 Y85.156 Z0.148 F1000.
N1960 X212.432 Y85.161 Z0.1
N1965 X212.463 Y85.169 Z0.059
N1970 X212.503 Y85.179 Z0.027
N1975 X212.549 Y85.191 Z0.007
N1980 X212.6 Y85.204 Z0.
N1985 X212.793 Y85.254
N1990 G3 X212.937 Y85.497 I-0.05 J0.194
N1995 X209. Y85. I-1.937 J-0.497
N2000 G1 Y27.
N2005 G3 X213. I2. J0.
N2010 G1 Y85.
N2015 G3 X212.937 Y85.497 I-2. J0.
N2020 X212.694 Y85.641 I-0.194 J-0.05
N2025 G1 X212.5 Y85.591
N2030 X212.45 Y85.578 Z0.007
N2035 X212.403 Y85.566 Z0.027
N2040 X212.363 Y85.556 Z0.059
N2045 X212.332 Y85.548 Z0.1
N2050 X212.313 Y85.543 Z0.148
N2055 X212.306 Y85.542 Z0.2
N2060 G0 Z6.5
N2065 X212.406 Y85.154
N2070 G1 Z1.25 F333.33
N2075 Z0.
N2080 X212.412 Y85.156 Z-0.052 F1000.
N2085 X212.432 Y85.161 Z-0.1
N2090 X212.463 Y85.169 Z-0.141
N2095 X212.503 Y85.179 Z-0.173
N2100 X212.549 Y85.191 Z-0.193
N2105 X212.6 Y85.204 Z-0.2
N2110 X212.793 Y85.254
N2115 G3 X212.937 Y85.497 I-0.05 J0.194
N2120 X209. Y85. I-1.937 J-0.497
N2125 G1 Y27.
N2130 G3 X213. I2. J0.
N2135 G1 Y85.
N2140 G3 X212.937 Y85.497 I-2. J0.
N2145 X212.694 Y85.641 I-0.194 J-0.05
N2150 G1 X212.5 Y85.591
N2155 X212.45 Y85.578 Z-0.193
N2160 X212.403 Y85.566 Z-0.173
N2165 X212.363 Y85.556 Z-0.141
N2170 X212.332 Y85.548 Z-0.1
N2175 X212.313 Y85.543 Z-0.052
N2180 X212.306 Y85.542 Z0.
N2185 G0 Z6.5
N2190 X198.775 Y91.26
N2195 G1 Z2.75 F333.33
N2200 Z1.45
N2205 G18 G2 X198.975 Z1.25 I0.2 K0. F1000.
N2210 G1 X199.175
N2215 G17 G3 X199.375 Y91.46 I0. J0.2
N2220 X178.375 I-10.5 J0.
N2225 X199.375 I10.5 J0.
N2230 X199.175 Y91.66 I-0.2 J0.
N2235 G1 X198.975
N2240 G18 G3 X198.775 Z1.45 I0. K0.2
N2245 G0 Z6.5
N2250 Y91.26
N2255 G1 Z2.5 F333.33
N2260 Z1.2
N2265 G2 X198.975 Z1. I0.2 K0. F1000.
N2270 G1 X199.175
N2275 G17 G3 X199.375 Y91.46 I0. J0.2
N2280 X178.375 I-10.5 J0.
N2285 X199.375 I10.5 J0.
N2290 X199.175 Y91.66 I-0.2 J0.
N2295 G1 X198.975
N2300 G18 G3 X198.775 Z1.2 I0. K0.2
N2305 G0 Z6.5
N2310 Y91.26
N2315 G1 Z2.25 F333.33
N2320 Z0.95
N2325 G2 X198.975 Z0.75 I0.2 K0. F1000.
N2330 G1 X199.175
N2335 G17 G3 X199.375 Y91.46 I0. J0.2
N2340 X178.375 I-10.5 J0.
N2345 X199.375 I10.5 J0.
N2350 X199.175 Y91.66 I-0.2 J0.
N2355 G1 X198.975
N2360 G18 G3 X198.775 Z0.95 I0. K0.2
N2365 G0 Z6.5
N2370 Y91.26
N2375 G1 Z2. F333.33
N2380 Z0.7
N2385 G2 X198.975 Z0.5 I0.2 K0. F1000.
N2390 G1 X199.175
N2395 G17 G3 X199.375 Y91.46 I0. J0.2
N2400 X178.375 I-10.5 J0.
N2405 X199.375 I10.5 J0.
N2410 X199.175 Y91.66 I-0.2 J0.
N2415 G1 X198.975
N2420 G18 G3 X198.775 Z0.7 I0. K0.2
N2425 G0 Z6.5
N2430 Y91.26
N2435 G1 Z1.75 F333.33
N2440 Z0.45
N2445 G2 X198.975 Z0.25 I0.2 K0. F1000.
N2450 G1 X199.175
N2455 G17 G3 X199.375 Y91.46 I0. J0.2
N2460 X178.375 I-10.5 J0.
N2465 X199.375 I10.5 J0.
N2470 X199.175 Y91.66 I-0.2 J0.
N2475 G1 X198.975
N2480 G18 G3 X198.775 Z0.45 I0. K0.2
N2485 G0 Z6.5
N2490 Y91.26
N2495 G1 Z1.5 F333.33
N2500 Z0.2
N2505 G2 X198.975 Z0. I0.2 K0. F1000.
N2510 G1 X199.175
N2515 G17 G3 X199.375 Y91.46 I0. J0.2
N2520 X178.375 I-10.5 J0.
N2525 X199.375 I10.5 J0.
N2530 X199.175 Y91.66 I-0.2 J0.
N2535 G1 X198.975
N2540 G18 G3 X198.775 Z0.2 I0. K0.2
N2545 G0 Z6.5
N2550 Y91.26
N2555 G1 Z1.25 F333.33
N2560 Z0.
N2565 G2 X198.975 Z-0.2 I0.2 K0. F1000.
N2570 G1 X199.175
N2575 G17 G3 X199.375 Y91.46 I0. J0.2
N2580 X178.375 I-10.5 J0.
N2585 X199.375 I10.5 J0.
N2590 X199.175 Y91.66 I-0.2 J0.
N2595 G1 X198.975
N2600 G18 G3 X198.775 Z0. I0. K0.2
N2605 G0 Z6.5
N2610 X163.777 Y91.526
N2615 G1 Z2.75 F333.33
N2620 Z1.45
N2625 X163.784 Z1.398 F1000.
N2630 X163.804 Y91.527 Z1.35
N2635 X163.835 Y91.528 Z1.309
N2640 X163.877 Y91.529 Z1.277
N2645 X163.925 Y91.53 Z1.257
N2650 X163.977 Y91.532 Z1.25
N2655 X164.177 Y91.537
N2660 G17 G3 X164.371 Y91.742 I-0.005 J0.2
N2665 X143.379 Y91.179 I-10.496 J-0.282
N2670 X164.371 Y91.742 I10.496 J0.282
N2675 X164.166 Y91.937 I-0.2 J-0.005
N2680 G1 X163.966 Y91.931
N2685 X163.914 Y91.93 Z1.257
N2690 X163.866 Y91.929 Z1.277
N2695 X163.825 Y91.928 Z1.309
N2700 X163.793 Y91.927 Z1.35
N2705 X163.773 Y91.926 Z1.398
N2710 X163.766 Z1.45
N2715 G0 Z6.5
N2720 X163.777 Y91.526
N2725 G1 Z2.5 F333.33
N2730 Z1.2
N2735 X163.784 Z1.148 F1000.
N2740 X163.804 Y91.527 Z1.1
N2745 X163.835 Y91.528 Z1.059
N2750 X163.877 Y91.529 Z1.027
N2755 X163.925 Y91.53 Z1.007
N2760 X163.977 Y91.532 Z1.
N2765 X164.177 Y91.537
N2770 G3 X164.371 Y91.742 I-0.005 J0.2
N2775 X143.379 Y91.179 I-10.496 J-0.282
N2780 X164.371 Y91.742 I10.496 J0.282
N2785 X164.166 Y91.937 I-0.2 J-0.005
N2790 G1 X163.966 Y91.931
N2795 X163.914 Y91.93 Z1.007
N2800 X163.866 Y91.929 Z1.027
N2805 X163.825 Y91.928 Z1.059
N2810 X163.793 Y91.927 Z1.1
N2815 X163.773 Y91.926 Z1.148
N2820 X163.766 Z1.2
N2825 G0 Z6.5
N2830 X163.777 Y91.526
N2835 G1 Z2.25 F333.33
N2840 Z0.95
N2845 X163.784 Z0.898 F1000.
N2850 X163.804 Y91.527 Z0.85
N2855 X163.835 Y91.528 Z0.809
N2860 X163.877 Y91.529 Z0.777
N2865 X163.925 Y91.53 Z0.757
N2870 X163.977 Y91.532 Z0.75
N2875 X164.177 Y91.537
N2880 G3 X164.371 Y91.742 I-0.005 J0.2
N2885 X143.379 Y91.179 I-10.496 J-0.282
N2890 X164.371 Y91.742 I10.496 J0.282
N2895 X164.166 Y91.937 I-0.2 J-0.005
N2900 G1 X163.966 Y91.931
N2905 X163.914 Y91.93 Z0.757
N2910 X163.866 Y91.929 Z0.777
N2915 X163.825 Y91.928 Z0.809
N2920 X163.793 Y91.927 Z0.85
N2925 X163.773 Y91.926 Z0.898
N2930 X163.766 Z0.95
N2935 G0 Z6.5
N2940 X163.777 Y91.526
N2945 G1 Z2. F333.33
N2950 Z0.7
N2955 X163.784 Z0.648 F1000.
N2960 X163.804 Y91.527 Z0.6
N2965 X163.835 Y91.528 Z0.559
N2970 X163.877 Y91.529 Z0.527
N2975 X163.925 Y91.53 Z0.507
N2980 X163.977 Y91.532 Z0.5
N2985 X164.177 Y91.537
N2990 G3 X164.371 Y91.742 I-0.005 J0.2
N2995 X143.379 Y91.179 I-10.496 J-0.282
N3000 X164.371 Y91.742 I10.496 J0.282
N3005 X164.166 Y91.937 I-0.2 J-0.005
N3010 G1 X163.966 Y91.931
N3015 X163.914 Y91.93 Z0.507
N3020 X163.866 Y91.929 Z0.527
N3025 X163.825 Y91.928 Z0.559
N3030 X163.793 Y91.927 Z0.6
N3035 X163.773 Y91.926 Z0.648
N3040 X163.766 Z0.7
N3045 G0 Z6.5
N3050 X163.777 Y91.526
N3055 G1 Z1.75 F333.33
N3060 Z0.45
N3065 X163.784 Z0.398 F1000.
N3070 X163.804 Y91.527 Z0.35
N3075 X163.835 Y91.528 Z0.309
N3080 X163.877 Y91.529 Z0.277
N3085 X163.925 Y91.53 Z0.257
N3090 X163.977 Y91.532 Z0.25
N3095 X164.177 Y91.537
N3100 G3 X164.371 Y91.742 I-0.005 J0.2
N3105 X143.379 Y91.179 I-10.496 J-0.282
N3110 X164.371 Y91.742 I10.496 J0.282
N3115 X164.166 Y91.937 I-0.2 J-0.005
N3120 G1 X163.966 Y91.931
N3125 X163.914 Y91.93 Z0.257
N3130 X163.866 Y91.929 Z0.277
N3135 X163.825 Y91.928 Z0.309
N3140 X163.793 Y91.927 Z0.35
N3145 X163.773 Y91.926 Z0.398
N3150 X163.766 Z0.45
N3155 G0 Z6.5
N3160 X163.777 Y91.526
N3165 G1 Z1.5 F333.33
N3170 Z0.2
N3175 X163.784 Z0.148 F1000.
N3180 X163.804 Y91.527 Z0.1
N3185 X163.835 Y91.528 Z0.059
N3190 X163.877 Y91.529 Z0.027
N3195 X163.925 Y91.53 Z0.007
N3200 X163.977 Y91.532 Z0.
N3205 X164.177 Y91.537
N3210 G3 X164.371 Y91.742 I-0.005 J0.2
N3215 X143.379 Y91.179 I-10.496 J-0.282
N3220 X164.371 Y91.742 I10.496 J0.282
N3225 X164.166 Y91.937 I-0.2 J-0.005
N3230 G1 X163.966 Y91.931
N3235 X163.914 Y91.93 Z0.007
N3240 X163.866 Y91.929 Z0.027
N3245 X163.825 Y91.928 Z0.059
N3250 X163.793 Y91.927 Z0.1
N3255 X163.773 Y91.926 Z0.148
N3260 X163.766 Z0.2
N3265 G0 Z6.5
N3270 X163.777 Y91.526
N3275 G1 Z1.25 F333.33
N3280 Z0.
N3285 X163.784 Z-0.052 F1000.
N3290 X163.804 Y91.527 Z-0.1
N3295 X163.835 Y91.528 Z-0.141
N3300 X163.877 Y91.529 Z-0.173
N3305 X163.925 Y91.53 Z-0.193
N3310 X163.977 Y91.532 Z-0.2
N3315 X164.177 Y91.537
N3320 G3 X164.371 Y91.742 I-0.005 J0.2
N3325 X143.379 Y91.179 I-10.496 J-0.282
N3330 X164.371 Y91.742 I10.496 J0.282
N3335 X164.166 Y91.937 I-0.2 J-0.005
N3340 G1 X163.966 Y91.931
N3345 X163.914 Y91.93 Z-0.193
N3350 X163.866 Y91.929 Z-0.173
N3355 X163.825 Y91.928 Z-0.141
N3360 X163.793 Y91.927 Z-0.1
N3365 X163.773 Y91.926 Z-0.052
N3370 X163.766 Z0.
N3375 G0 Z6.5
N3380 X128.52 Y91.89
N3385 G1 Z2.75 F333.33
N3390 Z1.45
N3395 G18 G2 X128.72 Z1.25 I0.2 K0. F1000.
N3400 G1 X128.92
N3405 G17 G3 X129.12 Y92.09 I0. J0.2
N3410 X112.12 I-8.5 J0.
N3415 X129.12 I8.5 J0.
N3420 X128.92 Y92.29 I-0.2 J0.
N3425 G1 X128.72
N3430 G18 G3 X128.52 Z1.45 I0. K0.2
N3435 G0 Z6.5
N3440 Y91.89
N3445 G1 Z2.5 F333.33
N3450 Z1.2
N3455 G2 X128.72 Z1. I0.2 K0. F1000.
N3460 G1 X128.92
N3465 G17 G3 X129.12 Y92.09 I0. J0.2
N3470 X112.12 I-8.5 J0.
N3475 X129.12 I8.5 J0.
N3480 X128.92 Y92.29 I-0.2 J0.
N3485 G1 X128.72
N3490 G18 G3 X128.52 Z1.2 I0. K0.2
N3495 G0 Z6.5
N3500 Y91.89
N3505 G1 Z2.25 F333.33
N3510 Z0.95
N3515 G2 X128.72 Z0.75 I0.2 K0. F1000.
N3520 G1 X128.92
N3525 G17 G3 X129.12 Y92.09 I0. J0.2
N3530 X112.12 I-8.5 J0.
N3535 X129.12 I8.5 J0.
N3540 X128.92 Y92.29 I-0.2 J0.
N3545 G1 X128.72
N3550 G18 G3 X128.52 Z0.95 I0. K0.2
N3555 G0 Z6.5
N3560 Y91.89
N3565 G1 Z2. F333.33
N3570 Z0.7
N3575 G2 X128.72 Z0.5 I0.2 K0. F1000.
N3580 G1 X128.92
N3585 G17 G3 X129.12 Y92.09 I0. J0.2
N3590 X112.12 I-8.5 J0.
N3595 X129.12 I8.5 J0.
N3600 X128.92 Y92.29 I-0.2 J0.
N3605 G1 X128.72
N3610 G18 G3 X128.52 Z0.7 I0. K0.2
N3615 G0 Z6.5
N3620 Y91.89
N3625 G1 Z1.75 F333.33
N3630 Z0.45
N3635 G2 X128.72 Z0.25 I0.2 K0. F1000.
N3640 G1 X128.92
N3645 G17 G3 X129.12 Y92.09 I0. J0.2
N3650 X112.12 I-8.5 J0.
N3655 X129.12 I8.5 J0.
N3660 X128.92 Y92.29 I-0.2 J0.
N3665 G1 X128.72
N3670 G18 G3 X128.52 Z0.45 I0. K0.2
N3675 G0 Z6.5
N3680 Y91.89
N3685 G1 Z1.5 F333.33
N3690 Z0.2
N3695 G2 X128.72 Z0. I0.2 K0. F1000.
N3700 G1 X128.92
N3705 G17 G3 X129.12 Y92.09 I0. J0.2
N3710 X112.12 I-8.5 J0.
N3715 X129.12 I8.5 J0.
N3720 X128.92 Y92.29 I-0.2 J0.
N3725 G1 X128.72
N3730 G18 G3 X128.52 Z0.2 I0. K0.2
N3735 G0 Z6.5
N3740 Y91.89
N3745 G1 Z1.25 F333.33
N3750 Z0.
N3755 G2 X128.72 Z-0.2 I0.2 K0. F1000.
N3760 G1 X128.92
N3765 G17 G3 X129.12 Y92.09 I0. J0.2
N3770 X112.12 I-8.5 J0.
N3775 X129.12 I8.5 J0.
N3780 X128.92 Y92.29 I-0.2 J0.
N3785 G1 X128.72
N3790 G18 G3 X128.52 Z0. I0. K0.2
N3795 G0 Z6.5
N3800 X95.46 Y84.189
N3805 G1 Z2.75 F333.33
N3810 Z1.45
N3815 Y84.183 Z1.398 F1000.
N3820 Y84.163 Z1.35
N3825 Y84.131 Z1.309
N3830 Y84.09 Z1.277
N3835 Y84.041 Z1.257
N3840 X95.461 Y83.99 Z1.25
N3845 X95.462 Y83.79
N3850 G17 G3 X95.663 Y83.591 I0.2 J0.001
N3855 X104.12 Y92.09 I-0.042 J8.5
N3860 X87.12 I-8.5 J0.
N3865 X95.663 Y83.591 I8.5 J0.
N3870 X95.862 Y83.791 I-0.001 J0.2
N3875 G1 X95.861 Y83.992
N3880 X95.86 Y84.043 Z1.257
N3885 Y84.091 Z1.277
N3890 Y84.133 Z1.309
N3895 Y84.165 Z1.35
N3900 Y84.185 Z1.398
N3905 Y84.191 Z1.45
N3910 G0 Z6.5
N3915 X95.42 Y84.19
N3920 G1 Z2.5 F333.33
N3925 Z1.2
N3930 G19 G2 Y83.99 Z1. J-0.2 K0. F1000.
N3935 G1 Y83.79
N3940 G17 G3 X95.62 Y83.59 I0.2 J0.
N3945 X104.12 Y92.09 I0. J8.5
N3950 X87.12 I-8.5 J0.
N3955 X95.62 Y83.59 I8.5 J0.
N3960 X95.82 Y83.79 I0. J0.2
N3965 G1 Y83.99
N3970 G19 G3 Y84.19 Z1.2 J0. K0.2
N3975 G0 Z6.5
N3980 X95.42
N3985 G1 Z2.25 F333.33
N3990 Z0.95
N3995 G2 Y83.99 Z0.75 J-0.2 K0. F1000.
N4000 G1 Y83.79
N4005 G17 G3 X95.62 Y83.59 I0.2 J0.
N4010 X104.12 Y92.09 I0. J8.5
N4015 X87.12 I-8.5 J0.
N4020 X95.62 Y83.59 I8.5 J0.
N4025 X95.82 Y83.79 I0. J0.2
N4030 G1 Y83.99
N4035 G19 G3 Y84.19 Z0.95 J0. K0.2
N4040 G0 Z6.5
N4045 X95.42
N4050 G1 Z2. F333.33
N4055 Z0.7
N4060 G2 Y83.99 Z0.5 J-0.2 K0. F1000.
N4065 G1 Y83.79
N4070 G17 G3 X95.62 Y83.59 I0.2 J0.
N4075 X104.12 Y92.09 I0. J8.5
N4080 X87.12 I-8.5 J0.
N4085 X95.62 Y83.59 I8.5 J0.
N4090 X95.82 Y83.79 I0. J0.2
N4095 G1 Y83.99
N4100 G19 G3 Y84.19 Z0.7 J0. K0.2
N4105 G0 Z6.5
N4110 X95.42
N4115 G1 Z1.75 F333.33
N4120 Z0.45
N4125 G2 Y83.99 Z0.25 J-0.2 K0. F1000.
N4130 G1 Y83.79
N4135 G17 G3 X95.62 Y83.59 I0.2 J0.
N4140 X104.12 Y92.09 I0. J8.5
N4145 X87.12 I-8.5 J0.
N4150 X95.62 Y83.59 I8.5 J0.
N4155 X95.82 Y83.79 I0. J0.2
N4160 G1 Y83.99
N4165 G19 G3 Y84.19 Z0.45 J0. K0.2
N4170 G0 Z6.5
N4175 X95.42
N4180 G1 Z1.5 F333.33
N4185 Z0.2
N4190 G2 Y83.99 Z0. J-0.2 K0. F1000.
N4195 G1 Y83.79
N4200 G17 G3 X95.62 Y83.59 I0.2 J0.
N4205 X104.12 Y92.09 I0. J8.5
N4210 X87.12 I-8.5 J0.
N4215 X95.62 Y83.59 I8.5 J0.
N4220 X95.82 Y83.79 I0. J0.2
N4225 G1 Y83.99
N4230 G19 G3 Y84.19 Z0.2 J0. K0.2
N4235 G0 Z6.5
N4240 X95.42
N4245 G1 Z1.25 F333.33
N4250 Z0.
N4255 G2 Y83.99 Z-0.2 J-0.2 K0. F1000.
N4260 G1 Y83.79
N4265 G17 G3 X95.62 Y83.59 I0.2 J0.
N4270 X104.12 Y92.09 I0. J8.5
N4275 X87.12 I-8.5 J0.
N4280 X95.62 Y83.59 I8.5 J0.
N4285 X95.82 Y83.79 I0. J0.2
N4290 G1 Y83.99
N4295 G19 G3 Y84.19 Z0. J0. K0.2
N4300 G0 Z6.5
N4305 X96.033 Y74.981
N4310 G1 Z2.75 F333.33
N4315 Z1.45
N4320 X96.034 Y74.988 Z1.398 F1000.
N4325 Y75.008 Z1.35
N4330 X96.035 Y75.04 Z1.309
N4335 X96.036 Y75.081 Z1.277
N4340 X96.037 Y75.13 Z1.257
N4345 X96.039 Y75.181 Z1.25
N4350 X96.044 Y75.381
N4355 G17 G3 X95.85 Y75.587 I-0.2 J0.005
N4360 X87.12 Y67.09 I-0.229 J-8.497
N4365 X104.12 I8.5 J0.
N4370 X95.85 Y75.587 I-8.5 J0.
N4375 X95.644 Y75.392 I-0.005 J-0.2
N4380 G1 X95.639 Y75.192
N4385 X95.638 Y75.14 Z1.257
N4390 X95.636 Y75.092 Z1.277
N4395 X95.635 Y75.051 Z1.309
N4400 X95.634 Y75.019 Z1.35
N4405 Y74.999 Z1.398
N4410 Y74.992 Z1.45
N4415 G0 Z6.5
N4420 X96.033 Y74.981
N4425 G1 Z2.5 F333.33
N4430 Z1.2
N4435 X96.034 Y74.988 Z1.148 F1000.
N4440 Y75.008 Z1.1
N4445 X96.035 Y75.04 Z1.059
N4450 X96.036 Y75.081 Z1.027
N4455 X96.037 Y75.13 Z1.007
N4460 X96.039 Y75.181 Z1.
N4465 X96.044 Y75.381
N4470 G3 X95.85 Y75.587 I-0.2 J0.005
N4475 X87.12 Y67.09 I-0.229 J-8.497
N4480 X104.12 I8.5 J0.
N4485 X95.85 Y75.587 I-8.5 J0.
N4490 X95.644 Y75.392 I-0.005 J-0.2
N4495 G1 X95.639 Y75.192
N4500 X95.638 Y75.14 Z1.007
N4505 X95.636 Y75.092 Z1.027
N4510 X95.635 Y75.051 Z1.059
N4515 X95.634 Y75.019 Z1.1
N4520 Y74.999 Z1.148
N4525 Y74.992 Z1.2
N4530 G0 Z6.5
N4535 X96.033 Y74.981
N4540 G1 Z2.25 F333.33
N4545 Z0.95
N4550 X96.034 Y74.988 Z0.898 F1000.
N4555 Y75.008 Z0.85
N4560 X96.035 Y75.04 Z0.809
N4565 X96.036 Y75.081 Z0.777
N4570 X96.037 Y75.13 Z0.757
N4575 X96.039 Y75.181 Z0.75
N4580 X96.044 Y75.381
N4585 G3 X95.85 Y75.587 I-0.2 J0.005
N4590 X87.12 Y67.09 I-0.229 J-8.497
N4595 X104.12 I8.5 J0.
N4600 X95.85 Y75.587 I-8.5 J0.
N4605 X95.644 Y75.392 I-0.005 J-0.2
N4610 G1 X95.639 Y75.192
N4615 X95.638 Y75.14 Z0.757
N4620 X95.636 Y75.092 Z0.777
N4625 X95.635 Y75.051 Z0.809
N4630 X95.634 Y75.019 Z0.85
N4635 Y74.999 Z0.898
N4640 Y74.992 Z0.95
N4645 G0 Z6.5
N4650 X96.033 Y74.981
N4655 G1 Z2. F333.33
N4660 Z0.7
N4665 X96.034 Y74.988 Z0.648 F1000.
N4670 Y75.008 Z0.6
N4675 X96.035 Y75.04 Z0.559
N4680 X96.036 Y75.081 Z0.527
N4685 X96.037 Y75.13 Z0.507
N4690 X96.039 Y75.181 Z0.5
N4695 X96.044 Y75.381
N4700 G3 X95.85 Y75.587 I-0.2 J0.005
N4705 X87.12 Y67.09 I-0.229 J-8.497
N4710 X104.12 I8.5 J0.
N4715 X95.85 Y75.587 I-8.5 J0.
N4720 X95.644 Y75.392 I-0.005 J-0.2
N4725 G1 X95.639 Y75.192
N4730 X95.638 Y75.14 Z0.507
N4735 X95.636 Y75.092 Z0.527
N4740 X95.635 Y75.051 Z0.559
N4745 X95.634 Y75.019 Z0.6
N4750 Y74.999 Z0.648
N4755 Y74.992 Z0.7
N4760 G0 Z6.5
N4765 X96.033 Y74.981
N4770 G1 Z1.75 F333.33
N4775 Z0.45
N4780 X96.034 Y74.988 Z0.398 F1000.
N4785 Y75.008 Z0.35
N4790 X96.035 Y75.04 Z0.309
N4795 X96.036 Y75.081 Z0.277
N4800 X96.037 Y75.13 Z0.257
N4805 X96.039 Y75.181 Z0.25
N4810 X96.044 Y75.381
N4815 G3 X95.85 Y75.587 I-0.2 J0.005
N4820 X87.12 Y67.09 I-0.229 J-8.497
N4825 X104.12 I8.5 J0.
N4830 X95.85 Y75.587 I-8.5 J0.
N4835 X95.644 Y75.392 I-0.005 J-0.2
N4840 G1 X95.639 Y75.192
N4845 X95.638 Y75.14 Z0.257
N4850 X95.636 Y75.092 Z0.277
N4855 X95.635 Y75.051 Z0.309
N4860 X95.634 Y75.019 Z0.35
N4865 Y74.999 Z0.398
N4870 Y74.992 Z0.45
N4875 G0 Z6.5
N4880 X96.033 Y74.981
N4885 G1 Z1.5 F333.33
N4890 Z0.2
N4895 X96.034 Y74.988 Z0.148 F1000.
N4900 Y75.008 Z0.1
N4905 X96.035 Y75.04 Z0.059
N4910 X96.036 Y75.081 Z0.027
N4915 X96.037 Y75.13 Z0.007
N4920 X96.039 Y75.181 Z0.
N4925 X96.044 Y75.381
N4930 G3 X95.85 Y75.587 I-0.2 J0.005
N4935 X87.12 Y67.09 I-0.229 J-8.497
N4940 X104.12 I8.5 J0.
N4945 X95.85 Y75.587 I-8.5 J0.
N4950 X95.644 Y75.392 I-0.005 J-0.2
N4955 G1 X95.639 Y75.192
N4960 X95.638 Y75.14 Z0.007
N4965 X95.636 Y75.092 Z0.027
N4970 X95.635 Y75.051 Z0.059
N4975 X95.634 Y75.019 Z0.1
N4980 Y74.999 Z0.148
N4985 Y74.992 Z0.2
N4990 G0 Z6.5
N4995 X96.033 Y74.981
N5000 G1 Z1.25 F333.33
N5005 Z0.
N5010 X96.034 Y74.988 Z-0.052 F1000.
N5015 Y75.008 Z-0.1
N5020 X96.035 Y75.04 Z-0.141
N5025 X96.036 Y75.081 Z-0.173
N5030 X96.037 Y75.13 Z-0.193
N5035 X96.039 Y75.181 Z-0.2
N5040 X96.044 Y75.381
N5045 G3 X95.85 Y75.587 I-0.2 J0.005
N5050 X87.12 Y67.09 I-0.229 J-8.497
N5055 X104.12 I8.5 J0.
N5060 X95.85 Y75.587 I-8.5 J0.
N5065 X95.644 Y75.392 I-0.005 J-0.2
N5070 G1 X95.639 Y75.192
N5075 X95.638 Y75.14 Z-0.193
N5080 X95.636 Y75.092 Z-0.173
N5085 X95.635 Y75.051 Z-0.141
N5090 X95.634 Y75.019 Z-0.1
N5095 Y74.999 Z-0.052
N5100 Y74.992 Z0.
N5105 G0 Z6.5
N5110 X77.4 Y61.8
N5115 G1 Z2.75 F333.33
N5120 Z1.45
N5125 G18 G2 X77.6 Z1.25 I0.2 K0. F1000.
N5130 G1 X77.8
N5135 G17 G3 X78. Y62. I0. J0.2
N5140 G1 Y100.
N5145 G3 X74. I-2. J0.
N5150 G1 Y62.
N5155 G3 X78. I2. J0.
N5160 X77.8 Y62.2 I-0.2 J0.
N5165 G1 X77.6
N5170 G18 G3 X77.4 Z1.45 I0. K0.2
N5175 G0 Z6.5
N5180 Y61.8
N5185 G1 Z2.5 F333.33
N5190 Z1.2
N5195 G2 X77.6 Z1. I0.2 K0. F1000.
N5200 G1 X77.8
N5205 G17 G3 X78. Y62. I0. J0.2
N5210 G1 Y100.
N5215 G3 X74. I-2. J0.
N5220 G1 Y62.
N5225 G3 X78. I2. J0.
N5230 X77.8 Y62.2 I-0.2 J0.
N5235 G1 X77.6
N5240 G18 G3 X77.4 Z1.2 I0. K0.2
N5245 G0 Z6.5
N5250 Y61.8
N5255 G1 Z2.25 F333.33
N5260 Z0.95
N5265 G2 X77.6 Z0.75 I0.2 K0. F1000.
N5270 G1 X77.8
N5275 G17 G3 X78. Y62. I0. J0.2
N5280 G1 Y100.
N5285 G3 X74. I-2. J0.
N5290 G1 Y62.
N5295 G3 X78. I2. J0.
N5300 X77.8 Y62.2 I-0.2 J0.
N5305 G1 X77.6
N5310 G18 G3 X77.4 Z0.95 I0. K0.2
N5315 G0 Z6.5
N5320 Y61.8
N5325 G1 Z2. F333.33
N5330 Z0.7
N5335 G2 X77.6 Z0.5 I0.2 K0. F1000.
N5340 G1 X77.8
N5345 G17 G3 X78. Y62. I0. J0.2
N5350 G1 Y100.
N5355 G3 X74. I-2. J0.
N5360 G1 Y62.
N5365 G3 X78. I2. J0.
N5370 X77.8 Y62.2 I-0.2 J0.
N5375 G1 X77.6
N5380 G18 G3 X77.4 Z0.7 I0. K0.2
N5385 G0 Z6.5
N5390 Y61.8
N5395 G1 Z1.75 F333.33
N5400 Z0.45
N5405 G2 X77.6 Z0.25 I0.2 K0. F1000.
N5410 G1 X77.8
N5415 G17 G3 X78. Y62. I0. J0.2
N5420 G1 Y100.
N5425 G3 X74. I-2. J0.
N5430 G1 Y62.
N5435 G3 X78. I2. J0.
N5440 X77.8 Y62.2 I-0.2 J0.
N5445 G1 X77.6
N5450 G18 G3 X77.4 Z0.45 I0. K0.2
N5455 G0 Z6.5
N5460 Y61.8
N5465 G1 Z1.5 F333.33
N5470 Z0.2
N5475 G2 X77.6 Z0. I0.2 K0. F1000.
N5480 G1 X77.8
N5485 G17 G3 X78. Y62. I0. J0.2
N5490 G1 Y100.
N5495 G3 X74. I-2. J0.
N5500 G1 Y62.
N5505 G3 X78. I2. J0.
N5510 X77.8 Y62.2 I-0.2 J0.
N5515 G1 X77.6
N5520 G18 G3 X77.4 Z0.2 I0. K0.2
N5525 G0 Z6.5
N5530 Y61.8
N5535 G1 Z1.25 F333.33
N5540 Z0.
N5545 G2 X77.6 Z-0.2 I0.2 K0. F1000.
N5550 G1 X77.8
N5555 G17 G3 X78. Y62. I0. J0.2
N5560 G1 Y100.
N5565 G3 X74. I-2. J0.
N5570 G1 Y62.
N5575 G3 X78. I2. J0.
N5580 X77.8 Y62.2 I-0.2 J0.
N5585 G1 X77.6
N5590 G18 G3 X77.4 Z0. I0. K0.2
N5595 G0 Z6.5
N5600 X78.523 Y42.151
N5605 G1 Z2.75 F333.33
N5610 Z1.45
N5615 X78.53 Y42.152 Z1.398 F1000.
N5620 X78.549 Z1.35
N5625 X78.581 Y42.153 Z1.309
N5630 X78.623 Y42.155 Z1.277
N5635 X78.671 Y42.156 Z1.257
N5640 X78.723 Y42.158 Z1.25
N5645 X78.922 Y42.165
N5650 G17 G3 X79.116 Y42.371 I-0.007 J0.2
N5655 X62.125 Y41.809 I-8.495 J-0.281
N5660 X79.116 Y42.371 I8.495 J0.281
N5665 X78.909 Y42.564 I-0.2 J-0.007
N5670 G1 X78.709 Y42.558
N5675 X78.658 Y42.556 Z1.257
N5680 X78.609 Y42.554 Z1.277
N5685 X78.568 Y42.553 Z1.309
N5690 X78.536 Y42.552 Z1.35
N5695 X78.516 Y42.551 Z1.398
N5700 X78.509 Z1.45
N5705 G0 Z6.5
N5710 X78.523 Y42.151
N5715 G1 Z2.5 F333.33
N5720 Z1.2
N5725 X78.53 Y42.152 Z1.148 F1000.
N5730 X78.549 Z1.1
N5735 X78.581 Y42.153 Z1.059
N5740 X78.623 Y42.155 Z1.027
N5745 X78.671 Y42.156 Z1.007
N5750 X78.723 Y42.158 Z1.
N5755 X78.922 Y42.165
N5760 G3 X79.116 Y42.371 I-0.007 J0.2
N5765 X62.125 Y41.809 I-8.495 J-0.281
N5770 X79.116 Y42.371 I8.495 J0.281
N5775 X78.909 Y42.564 I-0.2 J-0.007
N5780 G1 X78.709 Y42.558
N5785 X78.658 Y42.556 Z1.007
N5790 X78.609 Y42.554 Z1.027
N5795 X78.568 Y42.553 Z1.059
N5800 X78.536 Y42.552 Z1.1
N5805 X78.516 Y42.551 Z1.148
N5810 X78.509 Z1.2
N5815 G0 Z6.5
N5820 X78.523 Y42.151
N5825 G1 Z2.25 F333.33
N5830 Z0.95
N5835 X78.53 Y42.152 Z0.898 F1000.
N5840 X78.549 Z0.85
N5845 X78.581 Y42.153 Z0.809
N5850 X78.623 Y42.155 Z0.777
N5855 X78.671 Y42.156 Z0.757
N5860 X78.723 Y42.158 Z0.75
N5865 X78.922 Y42.165
N5870 G3 X79.116 Y42.371 I-0.007 J0.2
N5875 X62.125 Y41.809 I-8.495 J-0.281
N5880 X79.116 Y42.371 I8.495 J0.281
N5885 X78.909 Y42.564 I-0.2 J-0.007
N5890 G1 X78.709 Y42.558
N5895 X78.658 Y42.556 Z0.757
N5900 X78.609 Y42.554 Z0.777
N5905 X78.568 Y42.553 Z0.809
N5910 X78.536 Y42.552 Z0.85
N5915 X78.516 Y42.551 Z0.898
N5920 X78.509 Z0.95
N5925 G0 Z6.5
N5930 X78.523 Y42.151
N5935 G1 Z2. F333.33
N5940 Z0.7
N5945 X78.53 Y42.152 Z0.648 F1000.
N5950 X78.549 Z0.6
N5955 X78.581 Y42.153 Z0.559
N5960 X78.623 Y42.155 Z0.527
N5965 X78.671 Y42.156 Z0.507
N5970 X78.723 Y42.158 Z0.5
N5975 X78.922 Y42.165
N5980 G3 X79.116 Y42.371 I-0.007 J0.2
N5985 X62.125 Y41.809 I-8.495 J-0.281
N5990 X79.116 Y42.371 I8.495 J0.281
N5995 X78.909 Y42.564 I-0.2 J-0.007
N6000 G1 X78.709 Y42.558
N6005 X78.658 Y42.556 Z0.507
N6010 X78.609 Y42.554 Z0.527
N6015 X78.568 Y42.553 Z0.559
N6020 X78.536 Y42.552 Z0.6
N6025 X78.516 Y42.551 Z0.648
N6030 X78.509 Z0.7
N6035 G0 Z6.5
N6040 X78.523 Y42.151
N6045 G1 Z1.75 F333.33
N6050 Z0.45
N6055 X78.53 Y42.152 Z0.398 F1000.
N6060 X78.549 Z0.35
N6065 X78.581 Y42.153 Z0.309
N6070 X78.623 Y42.155 Z0.277
N6075 X78.671 Y42.156 Z0.257
N6080 X78.723 Y42.158 Z0.25
N6085 X78.922 Y42.165
N6090 G3 X79.116 Y42.371 I-0.007 J0.2
N6095 X62.125 Y41.809 I-8.495 J-0.281
N6100 X79.116 Y42.371 I8.495 J0.281
N6105 X78.909 Y42.564 I-0.2 J-0.007
N6110 G1 X78.709 Y42.558
N6115 X78.658 Y42.556 Z0.257
N6120 X78.609 Y42.554 Z0.277
N6125 X78.568 Y42.553 Z0.309
N6130 X78.536 Y42.552 Z0.35
N6135 X78.516 Y42.551 Z0.398
N6140 X78.509 Z0.45
N6145 G0 Z6.5
N6150 X78.523 Y42.151
N6155 G1 Z1.5 F333.33
N6160 Z0.2
N6165 X78.53 Y42.152 Z0.148 F1000.
N6170 X78.549 Z0.1
N6175 X78.581 Y42.153 Z0.059
N6180 X78.623 Y42.155 Z0.027
N6185 X78.671 Y42.156 Z0.007
N6190 X78.723 Y42.158 Z0.
N6195 X78.922 Y42.165
N6200 G3 X79.116 Y42.371 I-0.007 J0.2
N6205 X62.125 Y41.809 I-8.495 J-0.281
N6210 X79.116 Y42.371 I8.495 J0.281
N6215 X78.909 Y42.564 I-0.2 J-0.007
N6220 G1 X78.709 Y42.558
N6225 X78.658 Y42.556 Z0.007
N6230 X78.609 Y42.554 Z0.027
N6235 X78.568 Y42.553 Z0.059
N6240 X78.536 Y42.552 Z0.1
N6245 X78.516 Y42.551 Z0.148
N6250 X78.509 Z0.2
N6255 G0 Z6.5
N6260 X78.523 Y42.151
N6265 G1 Z1.25 F333.33
N6270 Z0.
N6275 X78.53 Y42.152 Z-0.052 F1000.
N6280 X78.549 Z-0.1
N6285 X78.581 Y42.153 Z-0.141
N6290 X78.623 Y42.155 Z-0.173
N6295 X78.671 Y42.156 Z-0.193
N6300 X78.723 Y42.158 Z-0.2
N6305 X78.922 Y42.165
N6310 G3 X79.116 Y42.371 I-0.007 J0.2
N6315 X62.125 Y41.809 I-8.495 J-0.281
N6320 X79.116 Y42.371 I8.495 J0.281
N6325 X78.909 Y42.564 I-0.2 J-0.007
N6330 G1 X78.709 Y42.558
N6335 X78.658 Y42.556 Z-0.193
N6340 X78.609 Y42.554 Z-0.173
N6345 X78.568 Y42.553 Z-0.141
N6350 X78.536 Y42.552 Z-0.1
N6355 X78.516 Y42.551 Z-0.052
N6360 X78.509 Z0.
N6365 G0 Z6.5
N6370 X95.82 Y49.99
N6375 G1 Z2.75 F333.33
N6380 Z1.45
N6385 G19 G3 Y50.19 Z1.25 J0.2 K0. F1000.
N6390 G1 Y50.39
N6395 G17 G3 X95.62 Y50.59 I-0.2 J0.
N6400 X87.12 Y42.09 I0. J-8.5
N6405 X104.12 I8.5 J0.
N6410 X95.62 Y50.59 I-8.5 J0.
N6415 X95.42 Y50.39 I0. J-0.2
N6420 G1 Y50.19
N6425 G19 G2 Y49.99 Z1.45 J0. K0.2
N6430 G0 Z6.5
N6435 X95.82
N6440 G1 Z2.5 F333.33
N6445 Z1.2
N6450 G3 Y50.19 Z1. J0.2 K0. F1000.
N6455 G1 Y50.39
N6460 G17 G3 X95.62 Y50.59 I-0.2 J0.
N6465 X87.12 Y42.09 I0. J-8.5
N6470 X104.12 I8.5 J0.
N6475 X95.62 Y50.59 I-8.5 J0.
N6480 X95.42 Y50.39 I0. J-0.2
N6485 G1 Y50.19
N6490 G19 G2 Y49.99 Z1.2 J0. K0.2
N6495 G0 Z6.5
N6500 X95.82
N6505 G1 Z2.25 F333.33
N6510 Z0.95
N6515 G3 Y50.19 Z0.75 J0.2 K0. F1000.
N6520 G1 Y50.39
N6525 G17 G3 X95.62 Y50.59 I-0.2 J0.
N6530 X87.12 Y42.09 I0. J-8.5
N6535 X104.12 I8.5 J0.
N6540 X95.62 Y50.59 I-8.5 J0.
N6545 X95.42 Y50.39 I0. J-0.2
N6550 G1 Y50.19
N6555 G19 G2 Y49.99 Z0.95 J0. K0.2
N6560 G0 Z6.5
N6565 X95.82
N6570 G1 Z2. F333.33
N6575 Z0.7
N6580 G3 Y50.19 Z0.5 J0.2 K0. F1000.
N6585 G1 Y50.39
N6590 G17 G3 X95.62 Y50.59 I-0.2 J0.
N6595 X87.12 Y42.09 I0. J-8.5
N6600 X104.12 I8.5 J0.
N6605 X95.62 Y50.59 I-8.5 J0.
N6610 X95.42 Y50.39 I0. J-0.2
N6615 G1 Y50.19
N6620 G19 G2 Y49.99 Z0.7 J0. K0.2
N6625 G0 Z6.5
N6630 X95.82
N6635 G1 Z1.75 F333.33
N6640 Z0.45
N6645 G3 Y50.19 Z0.25 J0.2 K0. F1000.
N6650 G1 Y50.39
N6655 G17 G3 X95.62 Y50.59 I-0.2 J0.
N6660 X87.12 Y42.09 I0. J-8.5
N6665 X104.12 I8.5 J0.
N6670 X95.62 Y50.59 I-8.5 J0.
N6675 X95.42 Y50.39 I0. J-0.2
N6680 G1 Y50.19
N6685 G19 G2 Y49.99 Z0.45 J0. K0.2
N6690 G0 Z6.5
N6695 X95.82
N6700 G1 Z1.5 F333.33
N6705 Z0.2
N6710 G3 Y50.19 Z0. J0.2 K0. F1000.
N6715 G1 Y50.39
N6720 G17 G3 X95.62 Y50.59 I-0.2 J0.
N6725 X87.12 Y42.09 I0. J-8.5
N6730 X104.12 I8.5 J0.
N6735 X95.62 Y50.59 I-8.5 J0.
N6740 X95.42 Y50.39 I0. J-0.2
N6745 G1 Y50.19
N6750 G19 G2 Y49.99 Z0.2 J0. K0.2
N6755 G0 Z6.5
N6760 X95.82
N6765 G1 Z1.25 F333.33
N6770 Z0.
N6775 G3 Y50.19 Z-0.2 J0.2 K0. F1000.
N6780 G1 Y50.39
N6785 G17 G3 X95.62 Y50.59 I-0.2 J0.
N6790 X87.12 Y42.09 I0. J-8.5
N6795 X104.12 I8.5 J0.
N6800 X95.62 Y50.59 I-8.5 J0.
N6805 X95.42 Y50.39 I0. J-0.2
N6810 G1 Y50.19
N6815 G19 G2 Y49.99 Z0. J0. K0.2
N6820 G0 Z6.5
N6825 X128.52 Y41.89
N6830 G1 Z2.75 F333.33
N6835 Z1.45
N6840 G18 G2 X128.72 Z1.25 I0.2 K0. F1000.
N6845 G1 X128.92
N6850 G17 G3 X129.12 Y42.09 I0. J0.2
N6855 X112.12 I-8.5 J0.
N6860 X129.12 I8.5 J0.
N6865 X128.92 Y42.29 I-0.2 J0.
N6870 G1 X128.72
N6875 G18 G3 X128.52 Z1.45 I0. K0.2
N6880 G0 Z6.5
N6885 Y41.89
N6890 G1 Z2.5 F333.33
N6895 Z1.2
N6900 G2 X128.72 Z1. I0.2 K0. F1000.
N6905 G1 X128.92
N6910 G17 G3 X129.12 Y42.09 I0. J0.2
N6915 X112.12 I-8.5 J0.
N6920 X129.12 I8.5 J0.
N6925 X128.92 Y42.29 I-0.2 J0.
N6930 G1 X128.72
N6935 G18 G3 X128.52 Z1.2 I0. K0.2
N6940 G0 Z6.5
N6945 Y41.89
N6950 G1 Z2.25 F333.33
N6955 Z0.95
N6960 G2 X128.72 Z0.75 I0.2 K0. F1000.
N6965 G1 X128.92
N6970 G17 G3 X129.12 Y42.09 I0. J0.2
N6975 X112.12 I-8.5 J0.
N6980 X129.12 I8.5 J0.
N6985 X128.92 Y42.29 I-0.2 J0.
N6990 G1 X128.72
N6995 G18 G3 X128.52 Z0.95 I0. K0.2
N7000 G0 Z6.5
N7005 Y41.89
N7010 G1 Z2. F333.33
N7015 Z0.7
N7020 G2 X128.72 Z0.5 I0.2 K0. F1000.
N7025 G1 X128.92
N7030 G17 G3 X129.12 Y42.09 I0. J0.2
N7035 X112.12 I-8.5 J0.
N7040 X129.12 I8.5 J0.
N7045 X128.92 Y42.29 I-0.2 J0.
N7050 G1 X128.72
N7055 G18 G3 X128.52 Z0.7 I0. K0.2
N7060 G0 Z6.5
N7065 Y41.89
N7070 G1 Z1.75 F333.33
N7075 Z0.45
N7080 G2 X128.72 Z0.25 I0.2 K0. F1000.
N7085 G1 X128.92
N7090 G17 G3 X129.12 Y42.09 I0. J0.2
N7095 X112.12 I-8.5 J0.
N7100 X129.12 I8.5 J0.
N7105 X128.92 Y42.29 I-0.2 J0.
N7110 G1 X128.72
N7115 G18 G3 X128.52 Z0.45 I0. K0.2
N7120 G0 Z6.5
N7125 Y41.89
N7130 G1 Z1.5 F333.33
N7135 Z0.2
N7140 G2 X128.72 Z0. I0.2 K0. F1000.
N7145 G1 X128.92
N7150 G17 G3 X129.12 Y42.09 I0. J0.2
N7155 X112.12 I-8.5 J0.
N7160 X129.12 I8.5 J0.
N7165 X128.92 Y42.29 I-0.2 J0.
N7170 G1 X128.72
N7175 G18 G3 X128.52 Z0.2 I0. K0.2
N7180 G0 Z6.5
N7185 Y41.89
N7190 G1 Z1.25 F333.33
N7195 Z0.
N7200 G2 X128.72 Z-0.2 I0.2 K0. F1000.
N7205 G1 X128.92
N7210 G17 G3 X129.12 Y42.09 I0. J0.2
N7215 X112.12 I-8.5 J0.
N7220 X129.12 I8.5 J0.
N7225 X128.92 Y42.29 I-0.2 J0.
N7230 G1 X128.72
N7235 G18 G3 X128.52 Z0. I0. K0.2
N7240 G0 Z6.5
N7245 Y16.89
N7250 G1 Z2.75 F333.33
N7255 Z1.45
N7260 G2 X128.72 Z1.25 I0.2 K0. F1000.
N7265 G1 X128.92
N7270 G17 G3 X129.12 Y17.09 I0. J0.2
N7275 X112.12 I-8.5 J0.
N7280 X129.12 I8.5 J0.
N7285 X128.92 Y17.29 I-0.2 J0.
N7290 G1 X128.72
N7295 G18 G3 X128.52 Z1.45 I0. K0.2
N7300 G0 Z6.5
N7305 Y16.89
N7310 G1 Z2.5 F333.33
N7315 Z1.2
N7320 G2 X128.72 Z1. I0.2 K0. F1000.
N7325 G1 X128.92
N7330 G17 G3 X129.12 Y17.09 I0. J0.2
N7335 X112.12 I-8.5 J0.
N7340 X129.12 I8.5 J0.
N7345 X128.92 Y17.29 I-0.2 J0.
N7350 G1 X128.72
N7355 G18 G3 X128.52 Z1.2 I0. K0.2
N7360 G0 Z6.5
N7365 Y16.89
N7370 G1 Z2.25 F333.33
N7375 Z0.95
N7380 G2 X128.72 Z0.75 I0.2 K0. F1000.
N7385 G1 X128.92
N7390 G17 G3 X129.12 Y17.09 I0. J0.2
N7395 X112.12 I-8.5 J0.
N7400 X129.12 I8.5 J0.
N7405 X128.92 Y17.29 I-0.2 J0.
N7410 G1 X128.72
N7415 G18 G3 X128.52 Z0.95 I0. K0.2
N7420 G0 Z6.5
N7425 Y16.89
N7430 G1 Z2. F333.33
N7435 Z0.7
N7440 G2 X128.72 Z0.5 I0.2 K0. F1000.
N7445 G1 X128.92
N7450 G17 G3 X129.12 Y17.09 I0. J0.2
N7455 X112.12 I-8.5 J0.
N7460 X129.12 I8.5 J0.
N7465 X128.92 Y17.29 I-0.2 J0.
N7470 G1 X128.72
N7475 G18 G3 X128.52 Z0.7 I0. K0.2
N7480 G0 Z6.5
N7485 Y16.89
N7490 G1 Z1.75 F333.33
N7495 Z0.45
N7500 G2 X128.72 Z0.25 I0.2 K0. F1000.
N7505 G1 X128.92
N7510 G17 G3 X129.12 Y17.09 I0. J0.2
N7515 X112.12 I-8.5 J0.
N7520 X129.12 I8.5 J0.
N7525 X128.92 Y17.29 I-0.2 J0.
N7530 G1 X128.72
N7535 G18 G3 X128.52 Z0.45 I0. K0.2
N7540 G0 Z6.5
N7545 Y16.89
N7550 G1 Z1.5 F333.33
N7555 Z0.2
N7560 G2 X128.72 Z0. I0.2 K0. F1000.
N7565 G1 X128.92
N7570 G17 G3 X129.12 Y17.09 I0. J0.2
N7575 X112.12 I-8.5 J0.
N7580 X129.12 I8.5 J0.
N7585 X128.92 Y17.29 I-0.2 J0.
N7590 G1 X128.72
N7595 G18 G3 X128.52 Z0.2 I0. K0.2
N7600 G0 Z6.5
N7605 Y16.89
N7610 G1 Z1.25 F333.33
N7615 Z0.
N7620 G2 X128.72 Z-0.2 I0.2 K0. F1000.
N7625 G1 X128.92
N7630 G17 G3 X129.12 Y17.09 I0. J0.2
N7635 X112.12 I-8.5 J0.
N7640 X129.12 I8.5 J0.
N7645 X128.92 Y17.29 I-0.2 J0.
N7650 G1 X128.72
N7655 G18 G3 X128.52 Z0. I0. K0.2
N7660 G0 Z6.5
N7665 X163.777 Y21.526
N7670 G1 Z2.75 F333.33
N7675 Z1.45
N7680 X163.784 Z1.398 F1000.
N7685 X163.804 Y21.527 Z1.35
N7690 X163.835 Y21.528 Z1.309
N7695 X163.877 Y21.529 Z1.277
N7700 X163.925 Y21.53 Z1.257
N7705 X163.977 Y21.532 Z1.25
N7710 X164.177 Y21.537
N7715 G17 G3 X164.371 Y21.742 I-0.005 J0.2
N7720 X143.379 Y21.178 I-10.496 J-0.282
N7725 X164.371 Y21.742 I10.496 J0.282
N7730 X164.166 Y21.937 I-0.2 J-0.005
N7735 G1 X163.966 Y21.931
N7740 X163.914 Y21.93 Z1.257
N7745 X163.866 Y21.929 Z1.277
N7750 X163.825 Y21.928 Z1.309
N7755 X163.793 Y21.927 Z1.35
N7760 X163.773 Y21.926 Z1.398
N7765 X163.766 Z1.45
N7770 G0 Z6.5
N7775 X163.777 Y21.526
N7780 G1 Z2.5 F333.33
N7785 Z1.2
N7790 X163.784 Z1.148 F1000.
N7795 X163.804 Y21.527 Z1.1
N7800 X163.835 Y21.528 Z1.059
N7805 X163.877 Y21.529 Z1.027
N7810 X163.925 Y21.53 Z1.007
N7815 X163.977 Y21.532 Z1.
N7820 X164.177 Y21.537
N7825 G3 X164.371 Y21.742 I-0.005 J0.2
N7830 X143.379 Y21.178 I-10.496 J-0.282
N7835 X164.371 Y21.742 I10.496 J0.282
N7840 X164.166 Y21.937 I-0.2 J-0.005
N7845 G1 X163.966 Y21.931
N7850 X163.914 Y21.93 Z1.007
N7855 X163.866 Y21.929 Z1.027
N7860 X163.825 Y21.928 Z1.059
N7865 X163.793 Y21.927 Z1.1
N7870 X163.773 Y21.926 Z1.148
N7875 X163.766 Z1.2
N7880 G0 Z6.5
N7885 X163.777 Y21.526
N7890 G1 Z2.25 F333.33
N7895 Z0.95
N7900 X163.784 Z0.898 F1000.
N7905 X163.804 Y21.527 Z0.85
N7910 X163.835 Y21.528 Z0.809
N7915 X163.877 Y21.529 Z0.777
N7920 X163.925 Y21.53 Z0.757
N7925 X163.977 Y21.532 Z0.75
N7930 X164.177 Y21.537
N7935 G3 X164.371 Y21.742 I-0.005 J0.2
N7940 X143.379 Y21.178 I-10.496 J-0.282
N7945 X164.371 Y21.742 I10.496 J0.282
N7950 X164.166 Y21.937 I-0.2 J-0.005
N7955 G1 X163.966 Y21.931
N7960 X163.914 Y21.93 Z0.757
N7965 X163.866 Y21.929 Z0.777
N7970 X163.825 Y21.928 Z0.809
N7975 X163.793 Y21.927 Z0.85
N7980 X163.773 Y21.926 Z0.898
N7985 X163.766 Z0.95
N7990 G0 Z6.5
N7995 X163.777 Y21.526
N8000 G1 Z2. F333.33
N8005 Z0.7
N8010 X163.784 Z0.648 F1000.
N8015 X163.804 Y21.527 Z0.6
N8020 X163.835 Y21.528 Z0.559
N8025 X163.877 Y21.529 Z0.527
N8030 X163.925 Y21.53 Z0.507
N8035 X163.977 Y21.532 Z0.5
N8040 X164.177 Y21.537
N8045 G3 X164.371 Y21.742 I-0.005 J0.2
N8050 X143.379 Y21.178 I-10.496 J-0.282
N8055 X164.371 Y21.742 I10.496 J0.282
N8060 X164.166 Y21.937 I-0.2 J-0.005
N8065 G1 X163.966 Y21.931
N8070 X163.914 Y21.93 Z0.507
N8075 X163.866 Y21.929 Z0.527
N8080 X163.825 Y21.928 Z0.559
N8085 X163.793 Y21.927 Z0.6
N8090 X163.773 Y21.926 Z0.648
N8095 X163.766 Z0.7
N8100 G0 Z6.5
N8105 X163.777 Y21.526
N8110 G1 Z1.75 F333.33
N8115 Z0.45
N8120 X163.784 Z0.398 F1000.
N8125 X163.804 Y21.527 Z0.35
N8130 X163.835 Y21.528 Z0.309
N8135 X163.877 Y21.529 Z0.277
N8140 X163.925 Y21.53 Z0.257
N8145 X163.977 Y21.532 Z0.25
N8150 X164.177 Y21.537
N8155 G3 X164.371 Y21.742 I-0.005 J0.2
N8160 X143.379 Y21.178 I-10.496 J-0.282
N8165 X164.371 Y21.742 I10.496 J0.282
N8170 X164.166 Y21.937 I-0.2 J-0.005
N8175 G1 X163.966 Y21.931
N8180 X163.914 Y21.93 Z0.257
N8185 X163.866 Y21.929 Z0.277
N8190 X163.825 Y21.928 Z0.309
N8195 X163.793 Y21.927 Z0.35
N8200 X163.773 Y21.926 Z0.398
N8205 X163.766 Z0.45
N8210 G0 Z6.5
N8215 X163.777 Y21.526
N8220 G1 Z1.5 F333.33
N8225 Z0.2
N8230 X163.784 Z0.148 F1000.
N8235 X163.804 Y21.527 Z0.1
N8240 X163.835 Y21.528 Z0.059
N8245 X163.877 Y21.529 Z0.027
N8250 X163.925 Y21.53 Z0.007
N8255 X163.977 Y21.532 Z0.
N8260 X164.177 Y21.537
N8265 G3 X164.371 Y21.742 I-0.005 J0.2
N8270 X143.379 Y21.178 I-10.496 J-0.282
N8275 X164.371 Y21.742 I10.496 J0.282
N8280 X164.166 Y21.937 I-0.2 J-0.005
N8285 G1 X163.966 Y21.931
N8290 X163.914 Y21.93 Z0.007
N8295 X163.866 Y21.929 Z0.027
N8300 X163.825 Y21.928 Z0.059
N8305 X163.793 Y21.927 Z0.1
N8310 X163.773 Y21.926 Z0.148
N8315 X163.766 Z0.2
N8320 G0 Z6.5
N8325 X163.777 Y21.526
N8330 G1 Z1.25 F333.33
N8335 Z0.
N8340 X163.784 Z-0.052 F1000.
N8345 X163.804 Y21.527 Z-0.1
N8350 X163.835 Y21.528 Z-0.141
N8355 X163.877 Y21.529 Z-0.173
N8360 X163.925 Y21.53 Z-0.193
N8365 X163.977 Y21.532 Z-0.2
N8370 X164.177 Y21.537
N8375 G3 X164.371 Y21.742 I-0.005 J0.2
N8380 X143.379 Y21.178 I-10.496 J-0.282
N8385 X164.371 Y21.742 I10.496 J0.282
N8390 X164.166 Y21.937 I-0.2 J-0.005
N8395 G1 X163.966 Y21.931
N8400 X163.914 Y21.93 Z-0.193
N8405 X163.866 Y21.929 Z-0.173
N8410 X163.825 Y21.928 Z-0.141
N8415 X163.793 Y21.927 Z-0.1
N8420 X163.773 Y21.926 Z-0.052
N8425 X163.766 Z0.
N8430 G0 Z6.5
N8435 X198.777 Y21.526
N8440 G1 Z2.75 F333.33
N8445 Z1.45
N8450 X198.784 Z1.398 F1000.
N8455 X198.804 Y21.527 Z1.35
N8460 X198.835 Y21.528 Z1.309
N8465 X198.877 Y21.529 Z1.277
N8470 X198.925 Y21.53 Z1.257
N8475 X198.977 Y21.532 Z1.25
N8480 X199.177 Y21.537
N8485 G3 X199.371 Y21.742 I-0.005 J0.2
N8490 X178.379 Y21.178 I-10.496 J-0.282
N8495 X199.371 Y21.742 I10.496 J0.282
N8500 X199.166 Y21.937 I-0.2 J-0.005
N8505 G1 X198.966 Y21.931
N8510 X198.914 Y21.93 Z1.257
N8515 X198.866 Y21.929 Z1.277
N8520 X198.825 Y21.928 Z1.309
N8525 X198.793 Y21.927 Z1.35
N8530 X198.773 Y21.926 Z1.398
N8535 X198.766 Z1.45
N8540 G0 Z6.5
N8545 X198.777 Y21.526
N8550 G1 Z2.5 F333.33
N8555 Z1.2
N8560 X198.784 Z1.148 F1000.
N8565 X198.804 Y21.527 Z1.1
N8570 X198.835 Y21.528 Z1.059
N8575 X198.877 Y21.529 Z1.027
N8580 X198.925 Y21.53 Z1.007
N8585 X198.977 Y21.532 Z1.
N8590 X199.177 Y21.537
N8595 G3 X199.371 Y21.742 I-0.005 J0.2
N8600 X178.379 Y21.178 I-10.496 J-0.282
N8605 X199.371 Y21.742 I10.496 J0.282
N8610 X199.166 Y21.937 I-0.2 J-0.005
N8615 G1 X198.966 Y21.931
N8620 X198.914 Y21.93 Z1.007
N8625 X198.866 Y21.929 Z1.027
N8630 X198.825 Y21.928 Z1.059
N8635 X198.793 Y21.927 Z1.1
N8640 X198.773 Y21.926 Z1.148
N8645 X198.766 Z1.2
N8650 G0 Z6.5
N8655 X198.777 Y21.526
N8660 G1 Z2.25 F333.33
N8665 Z0.95
N8670 X198.784 Z0.898 F1000.
N8675 X198.804 Y21.527 Z0.85
N8680 X198.835 Y21.528 Z0.809
N8685 X198.877 Y21.529 Z0.777
N8690 X198.925 Y21.53 Z0.757
N8695 X198.977 Y21.532 Z0.75
N8700 X199.177 Y21.537
N8705 G3 X199.371 Y21.742 I-0.005 J0.2
N8710 X178.379 Y21.178 I-10.496 J-0.282
N8715 X199.371 Y21.742 I10.496 J0.282
N8720 X199.166 Y21.937 I-0.2 J-0.005
N8725 G1 X198.966 Y21.931
N8730 X198.914 Y21.93 Z0.757
N8735 X198.866 Y21.929 Z0.777
N8740 X198.825 Y21.928 Z0.809
N8745 X198.793 Y21.927 Z0.85
N8750 X198.773 Y21.926 Z0.898
N8755 X198.766 Z0.95
N8760 G0 Z6.5
N8765 X198.777 Y21.526
N8770 G1 Z2. F333.33
N8775 Z0.7
N8780 X198.784 Z0.648 F1000.
N8785 X198.804 Y21.527 Z0.6
N8790 X198.835 Y21.528 Z0.559
N8795 X198.877 Y21.529 Z0.527
N8800 X198.925 Y21.53 Z0.507
N8805 X198.977 Y21.532 Z0.5
N8810 X199.177 Y21.537
N8815 G3 X199.371 Y21.742 I-0.005 J0.2
N8820 X178.379 Y21.178 I-10.496 J-0.282
N8825 X199.371 Y21.742 I10.496 J0.282
N8830 X199.166 Y21.937 I-0.2 J-0.005
N8835 G1 X198.966 Y21.931
N8840 X198.914 Y21.93 Z0.507
N8845 X198.866 Y21.929 Z0.527
N8850 X198.825 Y21.928 Z0.559
N8855 X198.793 Y21.927 Z0.6
N8860 X198.773 Y21.926 Z0.648
N8865 X198.766 Z0.7
N8870 G0 Z6.5
N8875 X198.777 Y21.526
N8880 G1 Z1.75 F333.33
N8885 Z0.45
N8890 X198.784 Z0.398 F1000.
N8895 X198.804 Y21.527 Z0.35
N8900 X198.835 Y21.528 Z0.309
N8905 X198.877 Y21.529 Z0.277
N8910 X198.925 Y21.53 Z0.257
N8915 X198.977 Y21.532 Z0.25
N8920 X199.177 Y21.537
N8925 G3 X199.371 Y21.742 I-0.005 J0.2
N8930 X178.379 Y21.178 I-10.496 J-0.282
N8935 X199.371 Y21.742 I10.496 J0.282
N8940 X199.166 Y21.937 I-0.2 J-0.005
N8945 G1 X198.966 Y21.931
N8950 X198.914 Y21.93 Z0.257
N8955 X198.866 Y21.929 Z0.277
N8960 X198.825 Y21.928 Z0.309
N8965 X198.793 Y21.927 Z0.35
N8970 X198.773 Y21.926 Z0.398
N8975 X198.766 Z0.45
N8980 G0 Z6.5
N8985 X198.777 Y21.526
N8990 G1 Z1.5 F333.33
N8995 Z0.2
N9000 X198.784 Z0.148 F1000.
N9005 X198.804 Y21.527 Z0.1
N9010 X198.835 Y21.528 Z0.059
N9015 X198.877 Y21.529 Z0.027
N9020 X198.925 Y21.53 Z0.007
N9025 X198.977 Y21.532 Z0.
N9030 X199.177 Y21.537
N9035 G3 X199.371 Y21.742 I-0.005 J0.2
N9040 X178.379 Y21.178 I-10.496 J-0.282
N9045 X199.371 Y21.742 I10.496 J0.282
N9050 X199.166 Y21.937 I-0.2 J-0.005
N9055 G1 X198.966 Y21.931
N9060 X198.914 Y21.93 Z0.007
N9065 X198.866 Y21.929 Z0.027
N9070 X198.825 Y21.928 Z0.059
N9075 X198.793 Y21.927 Z0.1
N9080 X198.773 Y21.926 Z0.148
N9085 X198.766 Z0.2
N9090 G0 Z6.5
N9095 X198.777 Y21.526
N9100 G1 Z1.25 F333.33
N9105 Z0.
N9110 X198.784 Z-0.052 F1000.
N9115 X198.804 Y21.527 Z-0.1
N9120 X198.835 Y21.528 Z-0.141
N9125 X198.877 Y21.529 Z-0.173
N9130 X198.925 Y21.53 Z-0.193
N9135 X198.977 Y21.532 Z-0.2
N9140 X199.177 Y21.537
N9145 G3 X199.371 Y21.742 I-0.005 J0.2
N9150 X178.379 Y21.178 I-10.496 J-0.282
N9155 X199.371 Y21.742 I10.496 J0.282
N9160 X199.166 Y21.937 I-0.2 J-0.005
N9165 G1 X198.966 Y21.931
N9170 X198.914 Y21.93 Z-0.193
N9175 X198.866 Y21.929 Z-0.173
N9180 X198.825 Y21.928 Z-0.141
N9185 X198.793 Y21.927 Z-0.1
N9190 X198.773 Y21.926 Z-0.052
N9195 X198.766 Z0.
N9200 G0 Z6.5
N9205 X95.82 Y24.99
N9210 G1 Z2.75 F333.33
N9215 Z1.45
N9220 G19 G3 Y25.19 Z1.25 J0.2 K0. F1000.
N9225 G1 Y25.39
N9230 G17 G3 X95.62 Y25.59 I-0.2 J0.
N9235 X87.12 Y17.09 I0. J-8.5
N9240 X104.12 I8.5 J0.
N9245 X95.62 Y25.59 I-8.5 J0.
N9250 X95.42 Y25.39 I0. J-0.2
N9255 G1 Y25.19
N9260 G19 G2 Y24.99 Z1.45 J0. K0.2
N9265 G0 Z6.5
N9270 X95.82
N9275 G1 Z2.5 F333.33
N9280 Z1.2
N9285 G3 Y25.19 Z1. J0.2 K0. F1000.
N9290 G1 Y25.39
N9295 G17 G3 X95.62 Y25.59 I-0.2 J0.
N9300 X87.12 Y17.09 I0. J-8.5
N9305 X104.12 I8.5 J0.
N9310 X95.62 Y25.59 I-8.5 J0.
N9315 X95.42 Y25.39 I0. J-0.2
N9320 G1 Y25.19
N9325 G19 G2 Y24.99 Z1.2 J0. K0.2
N9330 G0 Z6.5
N9335 X95.82
N9340 G1 Z2.25 F333.33
N9345 Z0.95
N9350 G3 Y25.19 Z0.75 J0.2 K0. F1000.
N9355 G1 Y25.39
N9360 G17 G3 X95.62 Y25.59 I-0.2 J0.
N9365 X87.12 Y17.09 I0. J-8.5
N9370 X104.12 I8.5 J0.
N9375 X95.62 Y25.59 I-8.5 J0.
N9380 X95.42 Y25.39 I0. J-0.2
N9385 G1 Y25.19
N9390 G19 G2 Y24.99 Z0.95 J0. K0.2
N9395 G0 Z6.5
N9400 X95.82
N9405 G1 Z2. F333.33
N9410 Z0.7
N9415 G3 Y25.19 Z0.5 J0.2 K0. F1000.
N9420 G1 Y25.39
N9425 G17 G3 X95.62 Y25.59 I-0.2 J0.
N9430 X87.12 Y17.09 I0. J-8.5
N9435 X104.12 I8.5 J0.
N9440 X95.62 Y25.59 I-8.5 J0.
N9445 X95.42 Y25.39 I0. J-0.2
N9450 G1 Y25.19
N9455 G19 G2 Y24.99 Z0.7 J0. K0.2
N9460 G0 Z6.5
N9465 X95.82
N9470 G1 Z1.75 F333.33
N9475 Z0.45
N9480 G3 Y25.19 Z0.25 J0.2 K0. F1000.
N9485 G1 Y25.39
N9490 G17 G3 X95.62 Y25.59 I-0.2 J0.
N9495 X87.12 Y17.09 I0. J-8.5
N9500 X104.12 I8.5 J0.
N9505 X95.62 Y25.59 I-8.5 J0.
N9510 X95.42 Y25.39 I0. J-0.2
N9515 G1 Y25.19
N9520 G19 G2 Y24.99 Z0.45 J0. K0.2
N9525 G0 Z6.5
N9530 X95.82
N9535 G1 Z1.5 F333.33
N9540 Z0.2
N9545 G3 Y25.19 Z0. J0.2 K0. F1000.
N9550 G1 Y25.39
N9555 G17 G3 X95.62 Y25.59 I-0.2 J0.
N9560 X87.12 Y17.09 I0. J-8.5
N9565 X104.12 I8.5 J0.
N9570 X95.62 Y25.59 I-8.5 J0.
N9575 X95.42 Y25.39 I0. J-0.2
N9580 G1 Y25.19
N9585 G19 G2 Y24.99 Z0.2 J0. K0.2
N9590 G0 Z6.5
N9595 X95.82
N9600 G1 Z1.25 F333.33
N9605 Z0.
N9610 G3 Y25.19 Z-0.2 J0.2 K0. F1000.
N9615 G1 Y25.39
N9620 G17 G3 X95.62 Y25.59 I-0.2 J0.
N9625 X87.12 Y17.09 I0. J-8.5
N9630 X104.12 I8.5 J0.
N9635 X95.62 Y25.59 I-8.5 J0.
N9640 X95.42 Y25.39 I0. J-0.2
N9645 G1 Y25.19
N9650 G19 G2 Y24.99 Z0. J0. K0.2
N9655 G0 Z6.5
N9660 X78.52 Y16.89
N9665 G1 Z2.75 F333.33
N9670 Z1.45
N9675 G18 G2 X78.72 Z1.25 I0.2 K0. F1000.
N9680 G1 X78.92
N9685 G17 G3 X79.12 Y17.09 I0. J0.2
N9690 X62.12 I-8.5 J0.
N9695 X79.12 I8.5 J0.
N9700 X78.92 Y17.29 I-0.2 J0.
N9705 G1 X78.72
N9710 G18 G3 X78.52 Z1.45 I0. K0.2
N9715 G0 Z6.5
N9720 Y16.89
N9725 G1 Z2.5 F333.33
N9730 Z1.2
N9735 G2 X78.72 Z1. I0.2 K0. F1000.
N9740 G1 X78.92
N9745 G17 G3 X79.12 Y17.09 I0. J0.2
N9750 X62.12 I-8.5 J0.
N9755 X79.12 I8.5 J0.
N9760 X78.92 Y17.29 I-0.2 J0.
N9765 G1 X78.72
N9770 G18 G3 X78.52 Z1.2 I0. K0.2
N9775 G0 Z6.5
N9780 Y16.89
N9785 G1 Z2.25 F333.33
N9790 Z0.95
N9795 G2 X78.72 Z0.75 I0.2 K0. F1000.
N9800 G1 X78.92
N9805 G17 G3 X79.12 Y17.09 I0. J0.2
N9810 X62.12 I-8.5 J0.
N9815 X79.12 I8.5 J0.
N9820 X78.92 Y17.29 I-0.2 J0.
N9825 G1 X78.72
N9830 G18 G3 X78.52 Z0.95 I0. K0.2
N9835 G0 Z6.5
N9840 Y16.89
N9845 G1 Z2. F333.33
N9850 Z0.7
N9855 G2 X78.72 Z0.5 I0.2 K0. F1000.
N9860 G1 X78.92
N9865 G17 G3 X79.12 Y17.09 I0. J0.2
N9870 X62.12 I-8.5 J0.
N9875 X79.12 I8.5 J0.
N9880 X78.92 Y17.29 I-0.2 J0.
N9885 G1 X78.72
N9890 G18 G3 X78.52 Z0.7 I0. K0.2
N9895 G0 Z6.5
N9900 Y16.89
N9905 G1 Z1.75 F333.33
N9910 Z0.45
N9915 G2 X78.72 Z0.25 I0.2 K0. F1000.
N9920 G1 X78.92
N9925 G17 G3 X79.12 Y17.09 I0. J0.2
N9930 X62.12 I-8.5 J0.
N9935 X79.12 I8.5 J0.
N9940 X78.92 Y17.29 I-0.2 J0.
N9945 G1 X78.72
N9950 G18 G3 X78.52 Z0.45 I0. K0.2
N9955 G0 Z6.5
N9960 Y16.89
N9965 G1 Z1.5 F333.33
N9970 Z0.2
N9975 G2 X78.72 Z0. I0.2 K0. F1000.
N9980 G1 X78.92
N9985 G17 G3 X79.12 Y17.09 I0. J0.2
N9990 X62.12 I-8.5 J0.
N9995 X79.12 I8.5 J0.
N10000 X78.92 Y17.29 I-0.2 J0.
N10005 G1 X78.72
N10010 G18 G3 X78.52 Z0.2 I0. K0.2
N10015 G0 Z6.5
N10020 Y16.89
N10025 G1 Z1.25 F333.33
N10030 Z0.
N10035 G2 X78.72 Z-0.2 I0.2 K0. F1000.
N10040 G1 X78.92
N10045 G17 G3 X79.12 Y17.09 I0. J0.2
N10050 X62.12 I-8.5 J0.
N10055 X79.12 I8.5 J0.
N10060 X78.92 Y17.29 I-0.2 J0.
N10065 G1 X78.72
N10070 G18 G3 X78.52 Z0. I0. K0.2
N10075 G0 Z6.5
N10080 X53.52 Y16.89
N10085 G1 Z2.75 F333.33
N10090 Z1.45
N10095 G2 X53.72 Z1.25 I0.2 K0. F1000.
N10100 G1 X53.92
N10105 G17 G3 X54.12 Y17.09 I0. J0.2
N10110 X37.12 I-8.5 J0.
N10115 X54.12 I8.5 J0.
N10120 X53.92 Y17.29 I-0.2 J0.
N10125 G1 X53.72
N10130 G18 G3 X53.52 Z1.45 I0. K0.2
N10135 G0 Z6.5
N10140 Y16.89
N10145 G1 Z2.5 F333.33
N10150 Z1.2
N10155 G2 X53.72 Z1. I0.2 K0. F1000.
N10160 G1 X53.92
N10165 G17 G3 X54.12 Y17.09 I0. J0.2
N10170 X37.12 I-8.5 J0.
N10175 X54.12 I8.5 J0.
N10180 X53.92 Y17.29 I-0.2 J0.
N10185 G1 X53.72
N10190 G18 G3 X53.52 Z1.2 I0. K0.2
N10195 G0 Z6.5
N10200 Y16.89
N10205 G1 Z2.25 F333.33
N10210 Z0.95
N10215 G2 X53.72 Z0.75 I0.2 K0. F1000.
N10220 G1 X53.92
N10225 G17 G3 X54.12 Y17.09 I0. J0.2
N10230 X37.12 I-8.5 J0.
N10235 X54.12 I8.5 J0.
N10240 X53.92 Y17.29 I-0.2 J0.
N10245 G1 X53.72
N10250 G18 G3 X53.52 Z0.95 I0. K0.2
N10255 G0 Z6.5
N10260 Y16.89
N10265 G1 Z2. F333.33
N10270 Z0.7
N10275 G2 X53.72 Z0.5 I0.2 K0. F1000.
N10280 G1 X53.92
N10285 G17 G3 X54.12 Y17.09 I0. J0.2
N10290 X37.12 I-8.5 J0.
N10295 X54.12 I8.5 J0.
N10300 X53.92 Y17.29 I-0.2 J0.
N10305 G1 X53.72
N10310 G18 G3 X53.52 Z0.7 I0. K0.2
N10315 G0 Z6.5
N10320 Y16.89
N10325 G1 Z1.75 F333.33
N10330 Z0.45
N10335 G2 X53.72 Z0.25 I0.2 K0. F1000.
N10340 G1 X53.92
N10345 G17 G3 X54.12 Y17.09 I0. J0.2
N10350 X37.12 I-8.5 J0.
N10355 X54.12 I8.5 J0.
N10360 X53.92 Y17.29 I-0.2 J0.
N10365 G1 X53.72
N10370 G18 G3 X53.52 Z0.45 I0. K0.2
N10375 G0 Z6.5
N10380 Y16.89
N10385 G1 Z1.5 F333.33
N10390 Z0.2
N10395 G2 X53.72 Z0. I0.2 K0. F1000.
N10400 G1 X53.92
N10405 G17 G3 X54.12 Y17.09 I0. J0.2
N10410 X37.12 I-8.5 J0.
N10415 X54.12 I8.5 J0.
N10420 X53.92 Y17.29 I-0.2 J0.
N10425 G1 X53.72
N10430 G18 G3 X53.52 Z0.2 I0. K0.2
N10435 G0 Z6.5
N10440 Y16.89
N10445 G1 Z1.25 F333.33
N10450 Z0.
N10455 G2 X53.72 Z-0.2 I0.2 K0. F1000.
N10460 G1 X53.92
N10465 G17 G3 X54.12 Y17.09 I0. J0.2
N10470 X37.12 I-8.5 J0.
N10475 X54.12 I8.5 J0.
N10480 X53.92 Y17.29 I-0.2 J0.
N10485 G1 X53.72
N10490 G18 G3 X53.52 Z0. I0. K0.2
N10495 G0 Z6.5
N10500 Y41.89
N10505 G1 Z2.75 F333.33
N10510 Z1.45
N10515 G2 X53.72 Z1.25 I0.2 K0. F1000.
N10520 G1 X53.92
N10525 G17 G3 X54.12 Y42.09 I0. J0.2
N10530 X37.12 I-8.5 J0.
N10535 X54.12 I8.5 J0.
N10540 X53.92 Y42.29 I-0.2 J0.
N10545 G1 X53.72
N10550 G18 G3 X53.52 Z1.45 I0. K0.2
N10555 G0 Z6.5
N10560 Y41.89
N10565 G1 Z2.5 F333.33
N10570 Z1.2
N10575 G2 X53.72 Z1. I0.2 K0. F1000.
N10580 G1 X53.92
N10585 G17 G3 X54.12 Y42.09 I0. J0.2
N10590 X37.12 I-8.5 J0.
N10595 X54.12 I8.5 J0.
N10600 X53.92 Y42.29 I-0.2 J0.
N10605 G1 X53.72
N10610 G18 G3 X53.52 Z1.2 I0. K0.2
N10615 G0 Z6.5
N10620 Y41.89
N10625 G1 Z2.25 F333.33
N10630 Z0.95
N10635 G2 X53.72 Z0.75 I0.2 K0. F1000.
N10640 G1 X53.92
N10645 G17 G3 X54.12 Y42.09 I0. J0.2
N10650 X37.12 I-8.5 J0.
N10655 X54.12 I8.5 J0.
N10660 X53.92 Y42.29 I-0.2 J0.
N10665 G1 X53.72
N10670 G18 G3 X53.52 Z0.95 I0. K0.2
N10675 G0 Z6.5
N10680 Y41.89
N10685 G1 Z2. F333.33
N10690 Z0.7
N10695 G2 X53.72 Z0.5 I0.2 K0. F1000.
N10700 G1 X53.92
N10705 G17 G3 X54.12 Y42.09 I0. J0.2
N10710 X37.12 I-8.5 J0.
N10715 X54.12 I8.5 J0.
N10720 X53.92 Y42.29 I-0.2 J0.
N10725 G1 X53.72
N10730 G18 G3 X53.52 Z0.7 I0. K0.2
N10735 G0 Z6.5
N10740 Y41.89
N10745 G1 Z1.75 F333.33
N10750 Z0.45
N10755 G2 X53.72 Z0.25 I0.2 K0. F1000.
N10760 G1 X53.92
N10765 G17 G3 X54.12 Y42.09 I0. J0.2
N10770 X37.12 I-8.5 J0.
N10775 X54.12 I8.5 J0.
N10780 X53.92 Y42.29 I-0.2 J0.
N10785 G1 X53.72
N10790 G18 G3 X53.52 Z0.45 I0. K0.2
N10795 G0 Z6.5
N10800 Y41.89
N10805 G1 Z1.5 F333.33
N10810 Z0.2
N10815 G2 X53.72 Z0. I0.2 K0. F1000.
N10820 G1 X53.92
N10825 G17 G3 X54.12 Y42.09 I0. J0.2
N10830 X37.12 I-8.5 J0.
N10835 X54.12 I8.5 J0.
N10840 X53.92 Y42.29 I-0.2 J0.
N10845 G1 X53.72
N10850 G18 G3 X53.52 Z0.2 I0. K0.2
N10855 G0 Z6.5
N10860 Y41.89
N10865 G1 Z1.25 F333.33
N10870 Z0.
N10875 G2 X53.72 Z-0.2 I0.2 K0. F1000.
N10880 G1 X53.92
N10885 G17 G3 X54.12 Y42.09 I0. J0.2
N10890 X37.12 I-8.5 J0.
N10895 X54.12 I8.5 J0.
N10900 X53.92 Y42.29 I-0.2 J0.
N10905 G1 X53.72
N10910 G18 G3 X53.52 Z0. I0. K0.2
N10915 G0 Z6.5
N10920 X28.52 Y41.89
N10925 G1 Z2.75 F333.33
N10930 Z1.45
N10935 G2 X28.72 Z1.25 I0.2 K0. F1000.
N10940 G1 X28.92
N10945 G17 G3 X29.12 Y42.09 I0. J0.2
N10950 X12.12 I-8.5 J0.
N10955 X29.12 I8.5 J0.
N10960 X28.92 Y42.29 I-0.2 J0.
N10965 G1 X28.72
N10970 G18 G3 X28.52 Z1.45 I0. K0.2
N10975 G0 Z6.5
N10980 Y41.89
N10985 G1 Z2.5 F333.33
N10990 Z1.2
N10995 G2 X28.72 Z1. I0.2 K0. F1000.
N11000 G1 X28.92
N11005 G17 G3 X29.12 Y42.09 I0. J0.2
N11010 X12.12 I-8.5 J0.
N11015 X29.12 I8.5 J0.
N11020 X28.92 Y42.29 I-0.2 J0.
N11025 G1 X28.72
N11030 G18 G3 X28.52 Z1.2 I0. K0.2
N11035 G0 Z6.5
N11040 Y41.89
N11045 G1 Z2.25 F333.33
N11050 Z0.95
N11055 G2 X28.72 Z0.75 I0.2 K0. F1000.
N11060 G1 X28.92
N11065 G17 G3 X29.12 Y42.09 I0. J0.2
N11070 X12.12 I-8.5 J0.
N11075 X29.12 I8.5 J0.
N11080 X28.92 Y42.29 I-0.2 J0.
N11085 G1 X28.72
N11090 G18 G3 X28.52 Z0.95 I0. K0.2
N11095 G0 Z6.5
N11100 Y41.89
N11105 G1 Z2. F333.33
N11110 Z0.7
N11115 G2 X28.72 Z0.5 I0.2 K0. F1000.
N11120 G1 X28.92
N11125 G17 G3 X29.12 Y42.09 I0. J0.2
N11130 X12.12 I-8.5 J0.
N11135 X29.12 I8.5 J0.
N11140 X28.92 Y42.29 I-0.2 J0.
N11145 G1 X28.72
N11150 G18 G3 X28.52 Z0.7 I0. K0.2
N11155 G0 Z6.5
N11160 Y41.89
N11165 G1 Z1.75 F333.33
N11170 Z0.45
N11175 G2 X28.72 Z0.25 I0.2 K0. F1000.
N11180 G1 X28.92
N11185 G17 G3 X29.12 Y42.09 I0. J0.2
N11190 X12.12 I-8.5 J0.
N11195 X29.12 I8.5 J0.
N11200 X28.92 Y42.29 I-0.2 J0.
N11205 G1 X28.72
N11210 G18 G3 X28.52 Z0.45 I0. K0.2
N11215 G0 Z6.5
N11220 Y41.89
N11225 G1 Z1.5 F333.33
N11230 Z0.2
N11235 G2 X28.72 Z0. I0.2 K0. F1000.
N11240 G1 X28.92
N11245 G17 G3 X29.12 Y42.09 I0. J0.2
N11250 X12.12 I-8.5 J0.
N11255 X29.12 I8.5 J0.
N11260 X28.92 Y42.29 I-0.2 J0.
N11265 G1 X28.72
N11270 G18 G3 X28.52 Z0.2 I0. K0.2
N11275 G0 Z6.5
N11280 Y41.89
N11285 G1 Z1.25 F333.33
N11290 Z0.
N11295 G2 X28.72 Z-0.2 I0.2 K0. F1000.
N11300 G1 X28.92
N11305 G17 G3 X29.12 Y42.09 I0. J0.2
N11310 X12.12 I-8.5 J0.
N11315 X29.12 I8.5 J0.
N11320 X28.92 Y42.29 I-0.2 J0.
N11325 G1 X28.72
N11330 G18 G3 X28.52 Z0. I0. K0.2
N11335 G0 Z6.5
N11340 Y16.89
N11345 G1 Z2.75 F333.33
N11350 Z1.45
N11355 G2 X28.72 Z1.25 I0.2 K0. F1000.
N11360 G1 X28.92
N11365 G17 G3 X29.12 Y17.09 I0. J0.2
N11370 X12.12 I-8.5 J0.
N11375 X29.12 I8.5 J0.
N11380 X28.92 Y17.29 I-0.2 J0.
N11385 G1 X28.72
N11390 G18 G3 X28.52 Z1.45 I0. K0.2
N11395 G0 Z6.5
N11400 Y16.89
N11405 G1 Z2.5 F333.33
N11410 Z1.2
N11415 G2 X28.72 Z1. I0.2 K0. F1000.
N11420 G1 X28.92
N11425 G17 G3 X29.12 Y17.09 I0. J0.2
N11430 X12.12 I-8.5 J0.
N11435 X29.12 I8.5 J0.
N11440 X28.92 Y17.29 I-0.2 J0.
N11445 G1 X28.72
N11450 G18 G3 X28.52 Z1.2 I0. K0.2
N11455 G0 Z6.5
N11460 Y16.89
N11465 G1 Z2.25 F333.33
N11470 Z0.95
N11475 G2 X28.72 Z0.75 I0.2 K0. F1000.
N11480 G1 X28.92
N11485 G17 G3 X29.12 Y17.09 I0. J0.2
N11490 X12.12 I-8.5 J0.
N11495 X29.12 I8.5 J0.
N11500 X28.92 Y17.29 I-0.2 J0.
N11505 G1 X28.72
N11510 G18 G3 X28.52 Z0.95 I0. K0.2
N11515 G0 Z6.5
N11520 Y16.89
N11525 G1 Z2. F333.33
N11530 Z0.7
N11535 G2 X28.72 Z0.5 I0.2 K0. F1000.
N11540 G1 X28.92
N11545 G17 G3 X29.12 Y17.09 I0. J0.2
N11550 X12.12 I-8.5 J0.
N11555 X29.12 I8.5 J0.
N11560 X28.92 Y17.29 I-0.2 J0.
N11565 G1 X28.72
N11570 G18 G3 X28.52 Z0.7 I0. K0.2
N11575 G0 Z6.5
N11580 Y16.89
N11585 G1 Z1.75 F333.33
N11590 Z0.45
N11595 G2 X28.72 Z0.25 I0.2 K0. F1000.
N11600 G1 X28.92
N11605 G17 G3 X29.12 Y17.09 I0. J0.2
N11610 X12.12 I-8.5 J0.
N11615 X29.12 I8.5 J0.
N11620 X28.92 Y17.29 I-0.2 J0.
N11625 G1 X28.72
N11630 G18 G3 X28.52 Z0.45 I0. K0.2
N11635 G0 Z6.5
N11640 Y16.89
N11645 G1 Z1.5 F333.33
N11650 Z0.2
N11655 G2 X28.72 Z0. I0.2 K0. F1000.
N11660 G1 X28.92
N11665 G17 G3 X29.12 Y17.09 I0. J0.2
N11670 X12.12 I-8.5 J0.
N11675 X29.12 I8.5 J0.
N11680 X28.92 Y17.29 I-0.2 J0.
N11685 G1 X28.72
N11690 G18 G3 X28.52 Z0.2 I0. K0.2
N11695 G0 Z6.5
N11700 Y16.89
N11705 G1 Z1.25 F333.33
N11710 Z0.
N11715 G2 X28.72 Z-0.2 I0.2 K0. F1000.
N11720 G1 X28.92
N11725 G17 G3 X29.12 Y17.09 I0. J0.2
N11730 X12.12 I-8.5 J0.
N11735 X29.12 I8.5 J0.
N11740 X28.92 Y17.29 I-0.2 J0.
N11745 G1 X28.72
N11750 G18 G3 X28.52 Z0. I0. K0.2
N11755 G0 Z11.5
N11760 G17
N11765 M9
N11770 G53 G0 Z0.
N11775 M30
%
