%
(1001)
(T1  D=2. CR=0. - ZMIN=-0.3 - FLAT END MILL)
N10 G90 G94 G17 G91.1
N15 G21
N30 S12000 M3
N35 G54
N40 M8
N45 G0 X232.465 Y-1.6
N50 G43 Z16.5 H1
N55 G0 Z6.5
N60 G1 Z2.75 F100.
N65 Z1.475
N70 G19 G3 Y-1.4 Z1.275 J0.2 K0. F125.
N75 G1 Y-1.2
N80 G17 G3 X232.265 Y-1. I-0.2 J0.
N85 G1 X0. F100.
N90 G2 X-1. Y0. I0. J1.
N95 G1 Y112.
N100 G2 X0. Y113. I1. J0.
N105 G1 X235.
N110 G2 X236. Y112. I0. J-1.
N115 G1 Y0.
N120 G2 X235. Y-1. I-1. J0.
N125 G1 X232.265
N130 G3 X232.065 Y-1.2 I0. J-0.2 F125.
N135 G1 Y-1.4
N140 G19 G2 Y-1.6 Z1.475 J0. K0.2
N145 G0 Z6.5
N150 X232.465
N155 G1 Z2.525 F100.
N160 Z1.25
N165 G3 Y-1.4 Z1.05 J0.2 K0. F125.
N170 G1 Y-1.2
N175 G17 G3 X232.265 Y-1. I-0.2 J0.
N180 G1 X0. F100.
N185 G2 X-1. Y0. I0. J1.
N190 G1 Y112.
N195 G2 X0. Y113. I1. J0.
N200 G1 X235.
N205 G2 X236. Y112. I0. J-1.
N210 G1 Y0.
N215 G2 X235. Y-1. I-1. J0.
N220 G1 X232.265
N225 G3 X232.065 Y-1.2 I0. J-0.2 F125.
N230 G1 Y-1.4
N235 G19 G2 Y-1.6 Z1.25 J0. K0.2
N240 G0 Z6.5
N245 X232.465
N250 G1 Z2.3 F100.
N255 Z1.025
N260 G3 Y-1.4 Z0.825 J0.2 K0. F125.
N265 G1 Y-1.2
N270 G17 G3 X232.265 Y-1. I-0.2 J0.
N275 G1 X0. F100.
N280 G2 X-1. Y0. I0. J1.
N285 G1 Y112.
N290 G2 X0. Y113. I1. J0.
N295 G1 X235.
N300 G2 X236. Y112. I0. J-1.
N305 G1 Y0.
N310 G2 X235. Y-1. I-1. J0.
N315 G1 X232.265
N320 G3 X232.065 Y-1.2 I0. J-0.2 F125.
N325 G1 Y-1.4
N330 G19 G2 Y-1.6 Z1.025 J0. K0.2
N335 G0 Z6.5
N340 X232.465
N345 G1 Z2.075 F100.
N350 Z0.8
N355 G3 Y-1.4 Z0.6 J0.2 K0. F125.
N360 G1 Y-1.2
N365 G17 G3 X232.265 Y-1. I-0.2 J0.
N370 G1 X0. F100.
N375 G2 X-1. Y0. I0. J1.
N380 G1 Y112.
N385 G2 X0. Y113. I1. J0.
N390 G1 X235.
N395 G2 X236. Y112. I0. J-1.
N400 G1 Y0.
N405 G2 X235. Y-1. I-1. J0.
N410 G1 X232.265
N415 G3 X232.065 Y-1.2 I0. J-0.2 F125.
N420 G1 Y-1.4
N425 G19 G2 Y-1.6 Z0.8 J0. K0.2
N430 G0 Z6.5
N435 X232.465
N440 G1 Z1.85 F100.
N445 Z0.575
N450 G3 Y-1.4 Z0.375 J0.2 K0. F125.
N455 G1 Y-1.2
N460 G17 G3 X232.265 Y-1. I-0.2 J0.
N465 G1 X0. F100.
N470 G2 X-1. Y0. I0. J1.
N475 G1 Y112.
N480 G2 X0. Y113. I1. J0.
N485 G1 X235.
N490 G2 X236. Y112. I0. J-1.
N495 G1 Y0.
N500 G2 X235. Y-1. I-1. J0.
N505 G1 X232.265
N510 G3 X232.065 Y-1.2 I0. J-0.2 F125.
N515 G1 Y-1.4
N520 G19 G2 Y-1.6 Z0.575 J0. K0.2
N525 G0 Z6.5
N530 X232.465
N535 G1 Z1.625 F100.
N540 Z0.35
N545 G3 Y-1.4 Z0.15 J0.2 K0. F125.
N550 G1 Y-1.2
N555 G17 G3 X232.265 Y-1. I-0.2 J0.
N560 G1 X0. F100.
N565 G2 X-1. Y0. I0. J1.
N570 G1 Y112.
N575 G2 X0. Y113. I1. J0.
N580 G1 X235.
N585 G2 X236. Y112. I0. J-1.
N590 G1 Y0.
N595 G2 X235. Y-1. I-1. J0.
N600 G1 X232.265
N605 G3 X232.065 Y-1.2 I0. J-0.2 F125.
N610 G1 Y-1.4
N615 G19 G2 Y-1.6 Z0.35 J0. K0.2
N620 G0 Z6.5
N625 X232.465
N630 G1 Z1.4 F100.
N635 Z0.125
N640 G3 Y-1.4 Z-0.075 J0.2 K0. F125.
N645 G1 Y-1.2
N650 G17 G3 X232.265 Y-1. I-0.2 J0.
N655 G1 X0. F100.
N660 G2 X-1. Y0. I0. J1.
N665 G1 Y112.
N670 G2 X0. Y113. I1. J0.
N675 G1 X235.
N680 G2 X236. Y112. I0. J-1.
N685 G1 Y0.
N690 G2 X235. Y-1. I-1. J0.
N695 G1 X232.265
N700 G3 X232.065 Y-1.2 I0. J-0.2 F125.
N705 G1 Y-1.4
N710 G19 G2 Y-1.6 Z0.125 J0. K0.2
N715 G0 Z6.5
N720 X232.465
N725 G1 Z1.175 F100.
N730 Z-0.1
N735 G3 Y-1.4 Z-0.3 J0.2 K0. F125.
N740 G1 Y-1.2
N745 G17 G3 X232.265 Y-1. I-0.2 J0.
N750 G1 X0. F100.
N755 G2 X-1. Y0. I0. J1.
N760 G1 Y112.
N765 G2 X0. Y113. I1. J0.
N770 G1 X235.
N775 G2 X236. Y112. I0. J-1.
N780 G1 Y0.
N785 G2 X235. Y-1. I-1. J0.
N790 G1 X232.265
N795 G3 X232.065 Y-1.2 I0. J-0.2 F125.
N800 G1 Y-1.4
N805 G19 G2 Y-1.6 Z-0.1 J0. K0.2
N810 G0 Z16.5
N815 G17
N820 M9
N830 M30
%
