%
(STAB_INNER)
(MACHINE)
(  VENDOR PLANETCNC)
(  DESCRIPTION CNC 4030)
(T1  D=2. CR=0. - ZMIN=-0.5 - FLAT END MILL)
N10 G90 G94 G17 G91.1
N15 G21
(2D CONTOUR5)
N20 T1 M6
N25 S12000 M3
N30 G54
N35 G0 X118.588 Y55.145
N40 G43 Z6.5 H1
N45 G0 Z4.5
N50 G1 Z2.7 F333.33
N55 Z1.5
N60 X118.594 Y55.148 Z1.448 F250.
N65 X118.613 Y55.155 Z1.4
N70 X118.642 Y55.166 Z1.359
N75 X118.681 Y55.181 Z1.327
N80 X118.726 Y55.199 Z1.307
N85 X118.774 Y55.218 Z1.3
N90 X118.961 Y55.29
N95 G3 X119.075 Y55.549 I-0.072 J0.186
N100 X117.687 Y55.011 I-0.694 J-0.269
N105 X119.075 Y55.549 I0.694 J0.269
N110 X118.816 Y55.663 I-0.186 J-0.072
N115 G1 X118.63 Y55.591
N120 X118.581 Y55.572 Z1.307
N125 X118.536 Y55.554 Z1.327
N130 X118.498 Y55.539 Z1.359
N135 X118.468 Y55.528 Z1.4
N140 X118.449 Y55.521 Z1.448
N145 X118.443 Y55.518 Z1.5
N150 G0 Z4.5
N155 X118.588 Y55.145
N160 G1 Z2.5 F333.33
N165 Z1.3
N170 X118.594 Y55.148 Z1.248 F250.
N175 X118.613 Y55.155 Z1.2
N180 X118.642 Y55.166 Z1.159
N185 X118.681 Y55.181 Z1.127
N190 X118.726 Y55.199 Z1.107
N195 X118.774 Y55.218 Z1.1
N200 X118.961 Y55.29
N205 G3 X119.075 Y55.549 I-0.072 J0.186
N210 X117.687 Y55.011 I-0.694 J-0.269
N215 X119.075 Y55.549 I0.694 J0.269
N220 X118.816 Y55.663 I-0.186 J-0.072
N225 G1 X118.63 Y55.591
N230 X118.581 Y55.572 Z1.107
N235 X118.536 Y55.554 Z1.127
N240 X118.498 Y55.539 Z1.159
N245 X118.468 Y55.528 Z1.2
N250 X118.449 Y55.521 Z1.248
N255 X118.443 Y55.518 Z1.3
N260 G0 Z4.5
N265 X118.588 Y55.145
N270 G1 Z2.3 F333.33
N275 Z1.1
N280 X118.594 Y55.148 Z1.048 F250.
N285 X118.613 Y55.155 Z1.
N290 X118.642 Y55.166 Z0.959
N295 X118.681 Y55.181 Z0.927
N300 X118.726 Y55.199 Z0.907
N305 X118.774 Y55.218 Z0.9
N310 X118.961 Y55.29
N315 G3 X119.075 Y55.549 I-0.072 J0.186
N320 X117.687 Y55.011 I-0.694 J-0.269
N325 X119.075 Y55.549 I0.694 J0.269
N330 X118.816 Y55.663 I-0.186 J-0.072
N335 G1 X118.63 Y55.591
N340 X118.581 Y55.572 Z0.907
N345 X118.536 Y55.554 Z0.927
N350 X118.498 Y55.539 Z0.959
N355 X118.468 Y55.528 Z1.
N360 X118.449 Y55.521 Z1.048
N365 X118.443 Y55.518 Z1.1
N370 G0 Z4.5
N375 X118.588 Y55.145
N380 G1 Z2.1 F333.33
N385 Z0.9
N390 X118.594 Y55.148 Z0.848 F250.
N395 X118.613 Y55.155 Z0.8
N400 X118.642 Y55.166 Z0.759
N405 X118.681 Y55.181 Z0.727
N410 X118.726 Y55.199 Z0.707
N415 X118.774 Y55.218 Z0.7
N420 X118.961 Y55.29
N425 G3 X119.075 Y55.549 I-0.072 J0.186
N430 X117.687 Y55.011 I-0.694 J-0.269
N435 X119.075 Y55.549 I0.694 J0.269
N440 X118.816 Y55.663 I-0.186 J-0.072
N445 G1 X118.63 Y55.591
N450 X118.581 Y55.572 Z0.707
N455 X118.536 Y55.554 Z0.727
N460 X118.498 Y55.539 Z0.759
N465 X118.468 Y55.528 Z0.8
N470 X118.449 Y55.521 Z0.848
N475 X118.443 Y55.518 Z0.9
N480 G0 Z4.5
N485 X118.588 Y55.145
N490 G1 Z1.9 F333.33
N495 Z0.7
N500 X118.594 Y55.148 Z0.648 F250.
N505 X118.613 Y55.155 Z0.6
N510 X118.642 Y55.166 Z0.559
N515 X118.681 Y55.181 Z0.527
N520 X118.726 Y55.199 Z0.507
N525 X118.774 Y55.218 Z0.5
N530 X118.961 Y55.29
N535 G3 X119.075 Y55.549 I-0.072 J0.186
N540 X117.687 Y55.011 I-0.694 J-0.269
N545 X119.075 Y55.549 I0.694 J0.269
N550 X118.816 Y55.663 I-0.186 J-0.072
N555 G1 X118.63 Y55.591
N560 X118.581 Y55.572 Z0.507
N565 X118.536 Y55.554 Z0.527
N570 X118.498 Y55.539 Z0.559
N575 X118.468 Y55.528 Z0.6
N580 X118.449 Y55.521 Z0.648
N585 X118.443 Y55.518 Z0.7
N590 G0 Z4.5
N595 X118.588 Y55.145
N600 G1 Z1.7 F333.33
N605 Z0.5
N610 X118.594 Y55.148 Z0.448 F250.
N615 X118.613 Y55.155 Z0.4
N620 X118.642 Y55.166 Z0.359
N625 X118.681 Y55.181 Z0.327
N630 X118.726 Y55.199 Z0.307
N635 X118.774 Y55.218 Z0.3
N640 X118.961 Y55.29
N645 G3 X119.075 Y55.549 I-0.072 J0.186
N650 X117.687 Y55.011 I-0.694 J-0.269
N655 X119.075 Y55.549 I0.694 J0.269
N660 X118.816 Y55.663 I-0.186 J-0.072
N665 G1 X118.63 Y55.591
N670 X118.581 Y55.572 Z0.307
N675 X118.536 Y55.554 Z0.327
N680 X118.498 Y55.539 Z0.359
N685 X118.468 Y55.528 Z0.4
N690 X118.449 Y55.521 Z0.448
N695 X118.443 Y55.518 Z0.5
N700 G0 Z4.5
N705 X118.588 Y55.145
N710 G1 Z1.5 F333.33
N715 Z0.3
N720 X118.594 Y55.148 Z0.248 F250.
N725 X118.613 Y55.155 Z0.2
N730 X118.642 Y55.166 Z0.159
N735 X118.681 Y55.181 Z0.127
N740 X118.726 Y55.199 Z0.107
N745 X118.774 Y55.218 Z0.1
N750 X118.961 Y55.29
N755 G3 X119.075 Y55.549 I-0.072 J0.186
N760 X117.687 Y55.011 I-0.694 J-0.269
N765 X119.075 Y55.549 I0.694 J0.269
N770 X118.816 Y55.663 I-0.186 J-0.072
N775 G1 X118.63 Y55.591
N780 X118.581 Y55.572 Z0.107
N785 X118.536 Y55.554 Z0.127
N790 X118.498 Y55.539 Z0.159
N795 X118.468 Y55.528 Z0.2
N800 X118.449 Y55.521 Z0.248
N805 X118.443 Y55.518 Z0.3
N810 G0 Z4.5
N815 X118.588 Y55.145
N820 G1 Z1.3 F333.33
N825 Z0.1
N830 X118.594 Y55.148 Z0.048 F250.
N835 X118.613 Y55.155 Z0.
N840 X118.642 Y55.166 Z-0.041
N845 X118.681 Y55.181 Z-0.073
N850 X118.726 Y55.199 Z-0.093
N855 X118.774 Y55.218 Z-0.1
N860 X118.961 Y55.29
N865 G3 X119.075 Y55.549 I-0.072 J0.186
N870 X117.687 Y55.011 I-0.694 J-0.269
N875 X119.075 Y55.549 I0.694 J0.269
N880 X118.816 Y55.663 I-0.186 J-0.072
N885 G1 X118.63 Y55.591
N890 X118.581 Y55.572 Z-0.093
N895 X118.536 Y55.554 Z-0.073
N900 X118.498 Y55.539 Z-0.041
N905 X118.468 Y55.528 Z0.
N910 X118.449 Y55.521 Z0.048
N915 X118.443 Y55.518 Z0.1
N920 G0 Z4.5
N925 X118.588 Y55.145
N930 G1 Z1.1 F333.33
N935 Z-0.1
N940 X118.594 Y55.148 Z-0.152 F250.
N945 X118.613 Y55.155 Z-0.2
N950 X118.642 Y55.166 Z-0.241
N955 X118.681 Y55.181 Z-0.273
N960 X118.726 Y55.199 Z-0.293
N965 X118.774 Y55.218 Z-0.3
N970 X118.961 Y55.29
N975 G3 X119.075 Y55.549 I-0.072 J0.186
N980 X117.687 Y55.011 I-0.694 J-0.269
N985 X119.075 Y55.549 I0.694 J0.269
N990 X118.816 Y55.663 I-0.186 J-0.072
N995 G1 X118.63 Y55.591
N1000 X118.581 Y55.572 Z-0.293
N1005 X118.536 Y55.554 Z-0.273
N1010 X118.498 Y55.539 Z-0.241
N1015 X118.468 Y55.528 Z-0.2
N1020 X118.449 Y55.521 Z-0.152
N1025 X118.443 Y55.518 Z-0.1
N1030 G0 Z4.5
N1035 X118.588 Y55.145
N1040 G1 Z0.9 F333.33
N1045 Z-0.3
N1050 X118.594 Y55.148 Z-0.352 F250.
N1055 X118.613 Y55.155 Z-0.4
N1060 X118.642 Y55.166 Z-0.441
N1065 X118.681 Y55.181 Z-0.473
N1070 X118.726 Y55.199 Z-0.493
N1075 X118.774 Y55.218 Z-0.5
N1080 X118.961 Y55.29
N1085 G3 X119.075 Y55.549 I-0.072 J0.186
N1090 X117.687 Y55.011 I-0.694 J-0.269
N1095 X119.075 Y55.549 I0.694 J0.269
N1100 X118.816 Y55.663 I-0.186 J-0.072
N1105 G1 X118.63 Y55.591
N1110 X118.581 Y55.572 Z-0.493
N1115 X118.536 Y55.554 Z-0.473
N1120 X118.498 Y55.539 Z-0.441
N1125 X118.468 Y55.528 Z-0.4
N1130 X118.449 Y55.521 Z-0.352
N1135 X118.443 Y55.518 Z-0.3
N1140 G0 Z4.5
N1145 X135.625 Y46.234
N1150 G1 Z2.7 F333.33
N1155 Z1.5
N1160 G18 G2 X135.825 Z1.3 I0.2 K0. F250.
N1165 G1 X136.025
N1170 G17 G3 X136.225 Y46.434 I0. J0.2
N1175 X118.225 I-9. J0.
N1180 X136.225 I9. J0.
N1185 X136.025 Y46.634 I-0.2 J0.
N1190 G1 X135.825
N1195 G18 G3 X135.625 Z1.5 I0. K0.2
N1200 G0 Z4.5
N1205 Y46.234
N1210 G1 Z2.5 F333.33
N1215 Z1.3
N1220 G2 X135.825 Z1.1 I0.2 K0. F250.
N1225 G1 X136.025
N1230 G17 G3 X136.225 Y46.434 I0. J0.2
N1235 X118.225 I-9. J0.
N1240 X136.225 I9. J0.
N1245 X136.025 Y46.634 I-0.2 J0.
N1250 G1 X135.825
N1255 G18 G3 X135.625 Z1.3 I0. K0.2
N1260 G0 Z4.5
N1265 Y46.234
N1270 G1 Z2.3 F333.33
N1275 Z1.1
N1280 G2 X135.825 Z0.9 I0.2 K0. F250.
N1285 G1 X136.025
N1290 G17 G3 X136.225 Y46.434 I0. J0.2
N1295 X118.225 I-9. J0.
N1300 X136.225 I9. J0.
N1305 X136.025 Y46.634 I-0.2 J0.
N1310 G1 X135.825
N1315 G18 G3 X135.625 Z1.1 I0. K0.2
N1320 G0 Z4.5
N1325 Y46.234
N1330 G1 Z2.1 F333.33
N1335 Z0.9
N1340 G2 X135.825 Z0.7 I0.2 K0. F250.
N1345 G1 X136.025
N1350 G17 G3 X136.225 Y46.434 I0. J0.2
N1355 X118.225 I-9. J0.
N1360 X136.225 I9. J0.
N1365 X136.025 Y46.634 I-0.2 J0.
N1370 G1 X135.825
N1375 G18 G3 X135.625 Z0.9 I0. K0.2
N1380 G0 Z4.5
N1385 Y46.234
N1390 G1 Z1.9 F333.33
N1395 Z0.7
N1400 G2 X135.825 Z0.5 I0.2 K0. F250.
N1405 G1 X136.025
N1410 G17 G3 X136.225 Y46.434 I0. J0.2
N1415 X118.225 I-9. J0.
N1420 X136.225 I9. J0.
N1425 X136.025 Y46.634 I-0.2 J0.
N1430 G1 X135.825
N1435 G18 G3 X135.625 Z0.7 I0. K0.2
N1440 G0 Z4.5
N1445 Y46.234
N1450 G1 Z1.7 F333.33
N1455 Z0.5
N1460 Z4.5 F250.
N1465 Z0.5 F333.33
N1470 X135.825 F250.
N1475 X136.025
N1480 G17 G3 X136.225 Y46.434 I0. J0.2
N1485 X136.138 Y47.684 I-9. J0.
N1490 G1 Z0.3 F333.33
N1495 G3 X123.851 Y54.778 I-8.913 J-1.25 F250.
N1500 G1 Z0.5
N1505 G3 X121.686 Y53.528 I3.374 J-8.344
N1510 G1 Z0.3 F333.33
N1515 G3 Y39.341 I5.539 J-7.094 F250.
N1520 G1 Z0.5
N1525 G3 X123.851 Y38.091 I5.539 J7.094
N1530 G1 Z0.3 F333.33
N1535 G3 X136.138 Y45.184 I3.374 J8.344 F250.
N1540 G1 Z0.5
N1545 G3 X136.225 Y46.434 I-8.913 J1.25
N1550 X136.025 Y46.634 I-0.2 J0.
N1555 G1 X135.825
N1560 X135.625 F333.33
N1565 G0 Z4.5
N1570 Y46.234
N1575 G1 Z1.5 F333.33
N1580 Z0.5
N1585 X135.825 F250.
N1590 X136.025
N1595 G3 X136.225 Y46.434 I0. J0.2
N1600 X136.138 Y47.684 I-9. J0.
N1605 G1 Z0.1 F333.33
N1610 G3 X123.851 Y54.778 I-8.913 J-1.25 F250.
N1615 G1 Z0.5
N1620 G3 X121.686 Y53.528 I3.374 J-8.344
N1625 G1 Z0.1 F333.33
N1630 G3 Y39.341 I5.539 J-7.094 F250.
N1635 G1 Z0.5
N1640 G3 X123.851 Y38.091 I5.539 J7.094
N1645 G1 Z0.1 F333.33
N1650 G3 X136.138 Y45.184 I3.374 J8.344 F250.
N1655 G1 Z0.5
N1660 G3 X136.225 Y46.434 I-8.913 J1.25
N1665 X136.025 Y46.634 I-0.2 J0.
N1670 G1 X135.625
N1675 G0 Z4.5
N1680 Y46.234
N1685 G1 Z1.3 F333.33
N1690 Z0.5
N1695 X135.825 F250.
N1700 X136.025
N1705 G3 X136.225 Y46.434 I0. J0.2
N1710 X136.138 Y47.684 I-9. J0.
N1715 G1 Z-0.1 F333.33
N1720 G3 X123.851 Y54.778 I-8.913 J-1.25 F250.
N1725 G1 Z0.5
N1730 G3 X121.686 Y53.528 I3.374 J-8.344
N1735 G1 Z-0.1 F333.33
N1740 G3 Y39.341 I5.539 J-7.094 F250.
N1745 G1 Z0.5
N1750 G3 X123.851 Y38.091 I5.539 J7.094
N1755 G1 Z-0.1 F333.33
N1760 G3 X136.138 Y45.184 I3.374 J8.344 F250.
N1765 G1 Z0.5
N1770 G3 X136.225 Y46.434 I-8.913 J1.25
N1775 X136.025 Y46.634 I-0.2 J0.
N1780 G1 X135.625
N1785 G0 Z4.5
N1790 Y46.234
N1795 G1 Z1.1 F333.33
N1800 Z0.5
N1805 X135.825 F250.
N1810 X136.025
N1815 G3 X136.225 Y46.434 I0. J0.2
N1820 X136.138 Y47.684 I-9. J0.
N1825 G1 Z-0.3 F333.33
N1830 G3 X123.851 Y54.778 I-8.913 J-1.25 F250.
N1835 G1 Z0.5
N1840 G3 X121.686 Y53.528 I3.374 J-8.344
N1845 G1 Z-0.3 F333.33
N1850 G3 Y39.341 I5.539 J-7.094 F250.
N1855 G1 Z0.5
N1860 G3 X123.851 Y38.091 I5.539 J7.094
N1865 G1 Z-0.3 F333.33
N1870 G3 X136.138 Y45.184 I3.374 J8.344 F250.
N1875 G1 Z0.5
N1880 G3 X136.225 Y46.434 I-8.913 J1.25
N1885 X136.025 Y46.634 I-0.2 J0.
N1890 G1 X135.625
N1895 G0 Z4.5
N1900 Y46.234
N1905 G1 Z0.9 F333.33
N1910 Z0.5
N1915 X135.825 F250.
N1920 X136.025
N1925 G3 X136.225 Y46.434 I0. J0.2
N1930 X136.138 Y47.684 I-9. J0.
N1935 G1 Z-0.5 F333.33
N1940 G3 X123.851 Y54.778 I-8.913 J-1.25 F250.
N1945 G1 Z0.5
N1950 G3 X121.686 Y53.528 I3.374 J-8.344
N1955 G1 Z-0.5 F333.33
N1960 G3 Y39.341 I5.539 J-7.094 F250.
N1965 G1 Z0.5
N1970 G3 X123.851 Y38.091 I5.539 J7.094
N1975 G1 Z-0.5 F333.33
N1980 G3 X136.138 Y45.184 I3.374 J8.344 F250.
N1985 G1 Z0.5
N1990 G3 X136.225 Y46.434 I-8.913 J1.25
N1995 X136.025 Y46.634 I-0.2 J0.
N2000 G1 X135.625
N2005 G0 Z4.5
N2010 X135.868 Y37.455
N2015 G1 Z2.7 F333.33
N2020 Z1.5
N2025 Y37.448 Z1.448 F250.
N2030 Y37.428 Z1.4
N2035 Y37.396 Z1.359
N2040 Y37.355 Z1.327
N2045 Y37.307 Z1.307
N2050 Y37.255 Z1.3
N2055 Y37.055
N2060 G3 X136.068 Y36.855 I0.2 J0.
N2065 X136.812 Y37.599 I0. J0.744
N2070 X135.323 I-0.744 J0.
N2075 X136.068 Y36.855 I0.745 J0.
N2080 X136.268 Y37.055 I0. J0.2
N2085 G1 Y37.255
N2090 Y37.307 Z1.307
N2095 Y37.355 Z1.327
N2100 Y37.396 Z1.359
N2105 Y37.428 Z1.4
N2110 Y37.448 Z1.448
N2115 Y37.455 Z1.5
N2120 G0 Z4.5
N2125 X135.868
N2130 G1 Z2.5 F333.33
N2135 Z1.3
N2140 Y37.448 Z1.248 F250.
N2145 Y37.428 Z1.2
N2150 Y37.396 Z1.159
N2155 Y37.355 Z1.127
N2160 Y37.307 Z1.107
N2165 Y37.255 Z1.1
N2170 Y37.055
N2175 G3 X136.068 Y36.855 I0.2 J0.
N2180 X136.812 Y37.599 I0. J0.744
N2185 X135.323 I-0.744 J0.
N2190 X136.068 Y36.855 I0.745 J0.
N2195 X136.268 Y37.055 I0. J0.2
N2200 G1 Y37.255
N2205 Y37.307 Z1.107
N2210 Y37.355 Z1.127
N2215 Y37.396 Z1.159
N2220 Y37.428 Z1.2
N2225 Y37.448 Z1.248
N2230 Y37.455 Z1.3
N2235 G0 Z4.5
N2240 X135.868
N2245 G1 Z2.3 F333.33
N2250 Z1.1
N2255 Y37.448 Z1.048 F250.
N2260 Y37.428 Z1.
N2265 Y37.396 Z0.959
N2270 Y37.355 Z0.927
N2275 Y37.307 Z0.907
N2280 Y37.255 Z0.9
N2285 Y37.055
N2290 G3 X136.068 Y36.855 I0.2 J0.
N2295 X136.812 Y37.599 I0. J0.744
N2300 X135.323 I-0.744 J0.
N2305 X136.068 Y36.855 I0.745 J0.
N2310 X136.268 Y37.055 I0. J0.2
N2315 G1 Y37.255
N2320 Y37.307 Z0.907
N2325 Y37.355 Z0.927
N2330 Y37.396 Z0.959
N2335 Y37.428 Z1.
N2340 Y37.448 Z1.048
N2345 Y37.455 Z1.1
N2350 G0 Z4.5
N2355 X135.868
N2360 G1 Z2.1 F333.33
N2365 Z0.9
N2370 Y37.448 Z0.848 F250.
N2375 Y37.428 Z0.8
N2380 Y37.396 Z0.759
N2385 Y37.355 Z0.727
N2390 Y37.307 Z0.707
N2395 Y37.255 Z0.7
N2400 Y37.055
N2405 G3 X136.068 Y36.855 I0.2 J0.
N2410 X136.812 Y37.599 I0. J0.744
N2415 X135.323 I-0.744 J0.
N2420 X136.068 Y36.855 I0.745 J0.
N2425 X136.268 Y37.055 I0. J0.2
N2430 G1 Y37.255
N2435 Y37.307 Z0.707
N2440 Y37.355 Z0.727
N2445 Y37.396 Z0.759
N2450 Y37.428 Z0.8
N2455 Y37.448 Z0.848
N2460 Y37.455 Z0.9
N2465 G0 Z4.5
N2470 X135.868
N2475 G1 Z1.9 F333.33
N2480 Z0.7
N2485 Y37.448 Z0.648 F250.
N2490 Y37.428 Z0.6
N2495 Y37.396 Z0.559
N2500 Y37.355 Z0.527
N2505 Y37.307 Z0.507
N2510 Y37.255 Z0.5
N2515 Y37.055
N2520 G3 X136.068 Y36.855 I0.2 J0.
N2525 X136.812 Y37.599 I0. J0.744
N2530 X135.323 I-0.744 J0.
N2535 X136.068 Y36.855 I0.745 J0.
N2540 X136.268 Y37.055 I0. J0.2
N2545 G1 Y37.255
N2550 Y37.307 Z0.507
N2555 Y37.355 Z0.527
N2560 Y37.396 Z0.559
N2565 Y37.428 Z0.6
N2570 Y37.448 Z0.648
N2575 Y37.455 Z0.7
N2580 G0 Z4.5
N2585 X135.868
N2590 G1 Z1.7 F333.33
N2595 Z0.5
N2600 Y37.448 Z0.448 F250.
N2605 Y37.428 Z0.4
N2610 Y37.396 Z0.359
N2615 Y37.355 Z0.327
N2620 Y37.307 Z0.307
N2625 Y37.255 Z0.3
N2630 Y37.055
N2635 G3 X136.068 Y36.855 I0.2 J0.
N2640 X136.812 Y37.599 I0. J0.744
N2645 X135.323 I-0.744 J0.
N2650 X136.068 Y36.855 I0.745 J0.
N2655 X136.268 Y37.055 I0. J0.2
N2660 G1 Y37.255
N2665 Y37.307 Z0.307
N2670 Y37.355 Z0.327
N2675 Y37.396 Z0.359
N2680 Y37.428 Z0.4
N2685 Y37.448 Z0.448
N2690 Y37.455 Z0.5
N2695 G0 Z4.5
N2700 X135.868
N2705 G1 Z1.5 F333.33
N2710 Z0.3
N2715 Y37.448 Z0.248 F250.
N2720 Y37.428 Z0.2
N2725 Y37.396 Z0.159
N2730 Y37.355 Z0.127
N2735 Y37.307 Z0.107
N2740 Y37.255 Z0.1
N2745 Y37.055
N2750 G3 X136.068 Y36.855 I0.2 J0.
N2755 X136.812 Y37.599 I0. J0.744
N2760 X135.323 I-0.744 J0.
N2765 X136.068 Y36.855 I0.745 J0.
N2770 X136.268 Y37.055 I0. J0.2
N2775 G1 Y37.255
N2780 Y37.307 Z0.107
N2785 Y37.355 Z0.127
N2790 Y37.396 Z0.159
N2795 Y37.428 Z0.2
N2800 Y37.448 Z0.248
N2805 Y37.455 Z0.3
N2810 G0 Z4.5
N2815 X135.868
N2820 G1 Z1.3 F333.33
N2825 Z0.1
N2830 Y37.448 Z0.048 F250.
N2835 Y37.428 Z0.
N2840 Y37.396 Z-0.041
N2845 Y37.355 Z-0.073
N2850 Y37.307 Z-0.093
N2855 Y37.255 Z-0.1
N2860 Y37.055
N2865 G3 X136.068 Y36.855 I0.2 J0.
N2870 X136.812 Y37.599 I0. J0.744
N2875 X135.323 I-0.744 J0.
N2880 X136.068 Y36.855 I0.745 J0.
N2885 X136.268 Y37.055 I0. J0.2
N2890 G1 Y37.255
N2895 Y37.307 Z-0.093
N2900 Y37.355 Z-0.073
N2905 Y37.396 Z-0.041
N2910 Y37.428 Z0.
N2915 Y37.448 Z0.048
N2920 Y37.455 Z0.1
N2925 G0 Z4.5
N2930 X135.868
N2935 G1 Z1.1 F333.33
N2940 Z-0.1
N2945 Y37.448 Z-0.152 F250.
N2950 Y37.428 Z-0.2
N2955 Y37.396 Z-0.241
N2960 Y37.355 Z-0.273
N2965 Y37.307 Z-0.293
N2970 Y37.255 Z-0.3
N2975 Y37.055
N2980 G3 X136.068 Y36.855 I0.2 J0.
N2985 X136.812 Y37.599 I0. J0.744
N2990 X135.323 I-0.744 J0.
N2995 X136.068 Y36.855 I0.745 J0.
N3000 X136.268 Y37.055 I0. J0.2
N3005 G1 Y37.255
N3010 Y37.307 Z-0.293
N3015 Y37.355 Z-0.273
N3020 Y37.396 Z-0.241
N3025 Y37.428 Z-0.2
N3030 Y37.448 Z-0.152
N3035 Y37.455 Z-0.1
N3040 G0 Z4.5
N3045 X135.868
N3050 G1 Z0.9 F333.33
N3055 Z-0.3
N3060 Y37.448 Z-0.352 F250.
N3065 Y37.428 Z-0.4
N3070 Y37.396 Z-0.441
N3075 Y37.355 Z-0.473
N3080 Y37.307 Z-0.493
N3085 Y37.255 Z-0.5
N3090 Y37.055
N3095 G3 X136.068 Y36.855 I0.2 J0.
N3100 X136.812 Y37.599 I0. J0.744
N3105 X135.323 I-0.744 J0.
N3110 X136.068 Y36.855 I0.745 J0.
N3115 X136.268 Y37.055 I0. J0.2
N3120 G1 Y37.255
N3125 Y37.307 Z-0.493
N3130 Y37.355 Z-0.473
N3135 Y37.396 Z-0.441
N3140 Y37.428 Z-0.4
N3145 Y37.448 Z-0.352
N3150 Y37.455 Z-0.3
N3155 G0 Z4.5
N3160 X135.625 Y19.234
N3165 G1 Z2.7 F333.33
N3170 Z1.5
N3175 G18 G2 X135.825 Z1.3 I0.2 K0. F250.
N3180 G1 X136.025
N3185 G17 G3 X136.225 Y19.434 I0. J0.2
N3190 X118.225 I-9. J0.
N3195 X136.225 I9. J0.
N3200 X136.025 Y19.634 I-0.2 J0.
N3205 G1 X135.825
N3210 G18 G3 X135.625 Z1.5 I0. K0.2
N3215 G0 Z4.5
N3220 Y19.234
N3225 G1 Z2.5 F333.33
N3230 Z1.3
N3235 G2 X135.825 Z1.1 I0.2 K0. F250.
N3240 G1 X136.025
N3245 G17 G3 X136.225 Y19.434 I0. J0.2
N3250 X118.225 I-9. J0.
N3255 X136.225 I9. J0.
N3260 X136.025 Y19.634 I-0.2 J0.
N3265 G1 X135.825
N3270 G18 G3 X135.625 Z1.3 I0. K0.2
N3275 G0 Z4.5
N3280 Y19.234
N3285 G1 Z2.3 F333.33
N3290 Z1.1
N3295 G2 X135.825 Z0.9 I0.2 K0. F250.
N3300 G1 X136.025
N3305 G17 G3 X136.225 Y19.434 I0. J0.2
N3310 X118.225 I-9. J0.
N3315 X136.225 I9. J0.
N3320 X136.025 Y19.634 I-0.2 J0.
N3325 G1 X135.825
N3330 G18 G3 X135.625 Z1.1 I0. K0.2
N3335 G0 Z4.5
N3340 Y19.234
N3345 G1 Z2.1 F333.33
N3350 Z0.9
N3355 G2 X135.825 Z0.7 I0.2 K0. F250.
N3360 G1 X136.025
N3365 G17 G3 X136.225 Y19.434 I0. J0.2
N3370 X118.225 I-9. J0.
N3375 X136.225 I9. J0.
N3380 X136.025 Y19.634 I-0.2 J0.
N3385 G1 X135.825
N3390 G18 G3 X135.625 Z0.9 I0. K0.2
N3395 G0 Z4.5
N3400 Y19.234
N3405 G1 Z1.9 F333.33
N3410 Z0.7
N3415 G2 X135.825 Z0.5 I0.2 K0. F250.
N3420 G1 X136.025
N3425 G17 G3 X136.225 Y19.434 I0. J0.2
N3430 X118.225 I-9. J0.
N3435 X136.225 I9. J0.
N3440 X136.025 Y19.634 I-0.2 J0.
N3445 G1 X135.825
N3450 G18 G3 X135.625 Z0.7 I0. K0.2
N3455 G0 Z4.5
N3460 Y19.234
N3465 G1 Z1.7 F333.33
N3470 Z0.5
N3475 Z4.5 F250.
N3480 Z0.5 F333.33
N3485 X135.825 F250.
N3490 X136.025
N3495 G17 G3 X136.225 Y19.434 I0. J0.2
N3500 X136.138 Y20.684 I-9. J0.
N3505 G1 Z0.3 F333.33
N3510 G3 X123.851 Y27.778 I-8.913 J-1.25 F250.
N3515 G1 Z0.5
N3520 G3 X121.686 Y26.528 I3.374 J-8.344
N3525 G1 Z0.3 F333.33
N3530 G3 Y12.341 I5.539 J-7.094 F250.
N3535 G1 Z0.5
N3540 G3 X123.851 Y11.091 I5.539 J7.094
N3545 G1 Z0.3 F333.33
N3550 G3 X136.138 Y18.184 I3.374 J8.344 F250.
N3555 G1 Z0.5
N3560 G3 X136.225 Y19.434 I-8.913 J1.25
N3565 X136.025 Y19.634 I-0.2 J0.
N3570 G1 X135.825
N3575 X135.625 F333.33
N3580 G0 Z4.5
N3585 Y19.234
N3590 G1 Z1.5 F333.33
N3595 Z0.5
N3600 X135.825 F250.
N3605 X136.025
N3610 G3 X136.225 Y19.434 I0. J0.2
N3615 X136.138 Y20.684 I-9. J0.
N3620 G1 Z0.1 F333.33
N3625 G3 X123.851 Y27.778 I-8.913 J-1.25 F250.
N3630 G1 Z0.5
N3635 G3 X121.686 Y26.528 I3.374 J-8.344
N3640 G1 Z0.1 F333.33
N3645 G3 Y12.341 I5.539 J-7.094 F250.
N3650 G1 Z0.5
N3655 G3 X123.851 Y11.091 I5.539 J7.094
N3660 G1 Z0.1 F333.33
N3665 G3 X136.138 Y18.184 I3.374 J8.344 F250.
N3670 G1 Z0.5
N3675 G3 X136.225 Y19.434 I-8.913 J1.25
N3680 X136.025 Y19.634 I-0.2 J0.
N3685 G1 X135.625
N3690 G0 Z4.5
N3695 Y19.234
N3700 G1 Z1.3 F333.33
N3705 Z0.5
N3710 X135.825 F250.
N3715 X136.025
N3720 G3 X136.225 Y19.434 I0. J0.2
N3725 X136.138 Y20.684 I-9. J0.
N3730 G1 Z-0.1 F333.33
N3735 G3 X123.851 Y27.778 I-8.913 J-1.25 F250.
N3740 G1 Z0.5
N3745 G3 X121.686 Y26.528 I3.374 J-8.344
N3750 G1 Z-0.1 F333.33
N3755 G3 Y12.341 I5.539 J-7.094 F250.
N3760 G1 Z0.5
N3765 G3 X123.851 Y11.091 I5.539 J7.094
N3770 G1 Z-0.1 F333.33
N3775 G3 X136.138 Y18.184 I3.374 J8.344 F250.
N3780 G1 Z0.5
N3785 G3 X136.225 Y19.434 I-8.913 J1.25
N3790 X136.025 Y19.634 I-0.2 J0.
N3795 G1 X135.625
N3800 G0 Z4.5
N3805 Y19.234
N3810 G1 Z1.1 F333.33
N3815 Z0.5
N3820 X135.825 F250.
N3825 X136.025
N3830 G3 X136.225 Y19.434 I0. J0.2
N3835 X136.138 Y20.684 I-9. J0.
N3840 G1 Z-0.3 F333.33
N3845 G3 X123.851 Y27.778 I-8.913 J-1.25 F250.
N3850 G1 Z0.5
N3855 G3 X121.686 Y26.528 I3.374 J-8.344
N3860 G1 Z-0.3 F333.33
N3865 G3 Y12.341 I5.539 J-7.094 F250.
N3870 G1 Z0.5
N3875 G3 X123.851 Y11.091 I5.539 J7.094
N3880 G1 Z-0.3 F333.33
N3885 G3 X136.138 Y18.184 I3.374 J8.344 F250.
N3890 G1 Z0.5
N3895 G3 X136.225 Y19.434 I-8.913 J1.25
N3900 X136.025 Y19.634 I-0.2 J0.
N3905 G1 X135.625
N3910 G0 Z4.5
N3915 Y19.234
N3920 G1 Z0.9 F333.33
N3925 Z0.5
N3930 X135.825 F250.
N3935 X136.025
N3940 G3 X136.225 Y19.434 I0. J0.2
N3945 X136.138 Y20.684 I-9. J0.
N3950 G1 Z-0.5 F333.33
N3955 G3 X123.851 Y27.778 I-8.913 J-1.25 F250.
N3960 G1 Z0.5
N3965 G3 X121.686 Y26.528 I3.374 J-8.344
N3970 G1 Z-0.5 F333.33
N3975 G3 Y12.341 I5.539 J-7.094 F250.
N3980 G1 Z0.5
N3985 G3 X123.851 Y11.091 I5.539 J7.094
N3990 G1 Z-0.5 F333.33
N3995 G3 X136.138 Y18.184 I3.374 J8.344 F250.
N4000 G1 Z0.5
N4005 G3 X136.225 Y19.434 I-8.913 J1.25
N4010 X136.025 Y19.634 I-0.2 J0.
N4015 G1 X135.625
N4020 G0 Z4.5
N4025 X135.868 Y10.455
N4030 G1 Z2.7 F333.33
N4035 Z1.5
N4040 Y10.448 Z1.448 F250.
N4045 Y10.428 Z1.4
N4050 Y10.396 Z1.359
N4055 Y10.355 Z1.327
N4060 Y10.307 Z1.307
N4065 Y10.255 Z1.3
N4070 Y10.055
N4075 G3 X136.068 Y9.855 I0.2 J0.
N4080 X136.812 Y10.599 I0. J0.745
N4085 X135.323 I-0.744 J0.
N4090 X136.068 Y9.855 I0.745 J0.001
N4095 X136.268 Y10.055 I0. J0.2
N4100 G1 Y10.255
N4105 Y10.307 Z1.307
N4110 Y10.355 Z1.327
N4115 Y10.396 Z1.359
N4120 Y10.428 Z1.4
N4125 Y10.448 Z1.448
N4130 Y10.455 Z1.5
N4135 G0 Z4.5
N4140 X135.868
N4145 G1 Z2.5 F333.33
N4150 Z1.3
N4155 Y10.448 Z1.248 F250.
N4160 Y10.428 Z1.2
N4165 Y10.396 Z1.159
N4170 Y10.355 Z1.127
N4175 Y10.307 Z1.107
N4180 Y10.255 Z1.1
N4185 Y10.055
N4190 G3 X136.068 Y9.855 I0.2 J0.
N4195 X136.812 Y10.599 I0. J0.745
N4200 X135.323 I-0.744 J0.
N4205 X136.068 Y9.855 I0.745 J0.001
N4210 X136.268 Y10.055 I0. J0.2
N4215 G1 Y10.255
N4220 Y10.307 Z1.107
N4225 Y10.355 Z1.127
N4230 Y10.396 Z1.159
N4235 Y10.428 Z1.2
N4240 Y10.448 Z1.248
N4245 Y10.455 Z1.3
N4250 G0 Z4.5
N4255 X135.868
N4260 G1 Z2.3 F333.33
N4265 Z1.1
N4270 Y10.448 Z1.048 F250.
N4275 Y10.428 Z1.
N4280 Y10.396 Z0.959
N4285 Y10.355 Z0.927
N4290 Y10.307 Z0.907
N4295 Y10.255 Z0.9
N4300 Y10.055
N4305 G3 X136.068 Y9.855 I0.2 J0.
N4310 X136.812 Y10.599 I0. J0.745
N4315 X135.323 I-0.744 J0.
N4320 X136.068 Y9.855 I0.745 J0.001
N4325 X136.268 Y10.055 I0. J0.2
N4330 G1 Y10.255
N4335 Y10.307 Z0.907
N4340 Y10.355 Z0.927
N4345 Y10.396 Z0.959
N4350 Y10.428 Z1.
N4355 Y10.448 Z1.048
N4360 Y10.455 Z1.1
N4365 G0 Z4.5
N4370 X135.868
N4375 G1 Z2.1 F333.33
N4380 Z0.9
N4385 Y10.448 Z0.848 F250.
N4390 Y10.428 Z0.8
N4395 Y10.396 Z0.759
N4400 Y10.355 Z0.727
N4405 Y10.307 Z0.707
N4410 Y10.255 Z0.7
N4415 Y10.055
N4420 G3 X136.068 Y9.855 I0.2 J0.
N4425 X136.812 Y10.599 I0. J0.745
N4430 X135.323 I-0.744 J0.
N4435 X136.068 Y9.855 I0.745 J0.001
N4440 X136.268 Y10.055 I0. J0.2
N4445 G1 Y10.255
N4450 Y10.307 Z0.707
N4455 Y10.355 Z0.727
N4460 Y10.396 Z0.759
N4465 Y10.428 Z0.8
N4470 Y10.448 Z0.848
N4475 Y10.455 Z0.9
N4480 G0 Z4.5
N4485 X135.868
N4490 G1 Z1.9 F333.33
N4495 Z0.7
N4500 Y10.448 Z0.648 F250.
N4505 Y10.428 Z0.6
N4510 Y10.396 Z0.559
N4515 Y10.355 Z0.527
N4520 Y10.307 Z0.507
N4525 Y10.255 Z0.5
N4530 Y10.055
N4535 G3 X136.068 Y9.855 I0.2 J0.
N4540 X136.812 Y10.599 I0. J0.745
N4545 X135.323 I-0.744 J0.
N4550 X136.068 Y9.855 I0.745 J0.001
N4555 X136.268 Y10.055 I0. J0.2
N4560 G1 Y10.255
N4565 Y10.307 Z0.507
N4570 Y10.355 Z0.527
N4575 Y10.396 Z0.559
N4580 Y10.428 Z0.6
N4585 Y10.448 Z0.648
N4590 Y10.455 Z0.7
N4595 G0 Z4.5
N4600 X135.868
N4605 G1 Z1.7 F333.33
N4610 Z0.5
N4615 Y10.448 Z0.448 F250.
N4620 Y10.428 Z0.4
N4625 Y10.396 Z0.359
N4630 Y10.355 Z0.327
N4635 Y10.307 Z0.307
N4640 Y10.255 Z0.3
N4645 Y10.055
N4650 G3 X136.068 Y9.855 I0.2 J0.
N4655 X136.812 Y10.599 I0. J0.745
N4660 X135.323 I-0.744 J0.
N4665 X136.068 Y9.855 I0.745 J0.001
N4670 X136.268 Y10.055 I0. J0.2
N4675 G1 Y10.255
N4680 Y10.307 Z0.307
N4685 Y10.355 Z0.327
N4690 Y10.396 Z0.359
N4695 Y10.428 Z0.4
N4700 Y10.448 Z0.448
N4705 Y10.455 Z0.5
N4710 G0 Z4.5
N4715 X135.868
N4720 G1 Z1.5 F333.33
N4725 Z0.3
N4730 Y10.448 Z0.248 F250.
N4735 Y10.428 Z0.2
N4740 Y10.396 Z0.159
N4745 Y10.355 Z0.127
N4750 Y10.307 Z0.107
N4755 Y10.255 Z0.1
N4760 Y10.055
N4765 G3 X136.068 Y9.855 I0.2 J0.
N4770 X136.812 Y10.599 I0. J0.745
N4775 X135.323 I-0.744 J0.
N4780 X136.068 Y9.855 I0.745 J0.001
N4785 X136.268 Y10.055 I0. J0.2
N4790 G1 Y10.255
N4795 Y10.307 Z0.107
N4800 Y10.355 Z0.127
N4805 Y10.396 Z0.159
N4810 Y10.428 Z0.2
N4815 Y10.448 Z0.248
N4820 Y10.455 Z0.3
N4825 G0 Z4.5
N4830 X135.868
N4835 G1 Z1.3 F333.33
N4840 Z0.1
N4845 Y10.448 Z0.048 F250.
N4850 Y10.428 Z0.
N4855 Y10.396 Z-0.041
N4860 Y10.355 Z-0.073
N4865 Y10.307 Z-0.093
N4870 Y10.255 Z-0.1
N4875 Y10.055
N4880 G3 X136.068 Y9.855 I0.2 J0.
N4885 X136.812 Y10.599 I0. J0.745
N4890 X135.323 I-0.744 J0.
N4895 X136.068 Y9.855 I0.745 J0.001
N4900 X136.268 Y10.055 I0. J0.2
N4905 G1 Y10.255
N4910 Y10.307 Z-0.093
N4915 Y10.355 Z-0.073
N4920 Y10.396 Z-0.041
N4925 Y10.428 Z0.
N4930 Y10.448 Z0.048
N4935 Y10.455 Z0.1
N4940 G0 Z4.5
N4945 X135.868
N4950 G1 Z1.1 F333.33
N4955 Z-0.1
N4960 Y10.448 Z-0.152 F250.
N4965 Y10.428 Z-0.2
N4970 Y10.396 Z-0.241
N4975 Y10.355 Z-0.273
N4980 Y10.307 Z-0.293
N4985 Y10.255 Z-0.3
N4990 Y10.055
N4995 G3 X136.068 Y9.855 I0.2 J0.
N5000 X136.812 Y10.599 I0. J0.745
N5005 X135.323 I-0.744 J0.
N5010 X136.068 Y9.855 I0.745 J0.001
N5015 X136.268 Y10.055 I0. J0.2
N5020 G1 Y10.255
N5025 Y10.307 Z-0.293
N5030 Y10.355 Z-0.273
N5035 Y10.396 Z-0.241
N5040 Y10.428 Z-0.2
N5045 Y10.448 Z-0.152
N5050 Y10.455 Z-0.1
N5055 G0 Z4.5
N5060 X135.868
N5065 G1 Z0.9 F333.33
N5070 Z-0.3
N5075 Y10.448 Z-0.352 F250.
N5080 Y10.428 Z-0.4
N5085 Y10.396 Z-0.441
N5090 Y10.355 Z-0.473
N5095 Y10.307 Z-0.493
N5100 Y10.255 Z-0.5
N5105 Y10.055
N5110 G3 X136.068 Y9.855 I0.2 J0.
N5115 X136.812 Y10.599 I0. J0.745
N5120 X135.323 I-0.744 J0.
N5125 X136.068 Y9.855 I0.745 J0.001
N5130 X136.268 Y10.055 I0. J0.2
N5135 G1 Y10.255
N5140 Y10.307 Z-0.493
N5145 Y10.355 Z-0.473
N5150 Y10.396 Z-0.441
N5155 Y10.428 Z-0.4
N5160 Y10.448 Z-0.352
N5165 Y10.455 Z-0.3
N5170 G0 Z4.5
N5175 X170.627 Y19.497
N5180 G1 Z2.7 F333.33
N5185 Z1.5
N5190 X170.634 Z1.448 F250.
N5195 X170.654 Y19.498 Z1.4
N5200 X170.686 Y19.499 Z1.359
N5205 X170.727 Y19.5 Z1.327
N5210 X170.775 Y19.502 Z1.307
N5215 X170.827 Y19.503 Z1.3
N5220 X171.027 Y19.509
N5225 G3 X171.221 Y19.716 I-0.006 J0.2
N5230 X153.229 Y19.153 I-8.996 J-0.281
N5235 X171.221 Y19.716 I8.996 J0.281
N5240 X171.014 Y19.909 I-0.2 J-0.006
N5245 G1 X170.815 Y19.903
N5250 X170.763 Y19.901 Z1.307
N5255 X170.715 Y19.9 Z1.327
N5260 X170.673 Y19.899 Z1.359
N5265 X170.641 Y19.898 Z1.4
N5270 X170.621 Y19.897 Z1.448
N5275 X170.615 Z1.5
N5280 G0 Z4.5
N5285 X170.627 Y19.497
N5290 G1 Z2.5 F333.33
N5295 Z1.3
N5300 X170.634 Z1.248 F250.
N5305 X170.654 Y19.498 Z1.2
N5310 X170.686 Y19.499 Z1.159
N5315 X170.727 Y19.5 Z1.127
N5320 X170.775 Y19.502 Z1.107
N5325 X170.827 Y19.503 Z1.1
N5330 X171.027 Y19.509
N5335 G3 X171.221 Y19.716 I-0.006 J0.2
N5340 X153.229 Y19.153 I-8.996 J-0.281
N5345 X171.221 Y19.716 I8.996 J0.281
N5350 X171.014 Y19.909 I-0.2 J-0.006
N5355 G1 X170.815 Y19.903
N5360 X170.763 Y19.901 Z1.107
N5365 X170.715 Y19.9 Z1.127
N5370 X170.673 Y19.899 Z1.159
N5375 X170.641 Y19.898 Z1.2
N5380 X170.621 Y19.897 Z1.248
N5385 X170.615 Z1.3
N5390 G0 Z4.5
N5395 X170.627 Y19.497
N5400 G1 Z2.3 F333.33
N5405 Z1.1
N5410 X170.634 Z1.048 F250.
N5415 X170.654 Y19.498 Z1.
N5420 X170.686 Y19.499 Z0.959
N5425 X170.727 Y19.5 Z0.927
N5430 X170.775 Y19.502 Z0.907
N5435 X170.827 Y19.503 Z0.9
N5440 X171.027 Y19.509
N5445 G3 X171.221 Y19.716 I-0.006 J0.2
N5450 X153.229 Y19.153 I-8.996 J-0.281
N5455 X171.221 Y19.716 I8.996 J0.281
N5460 X171.014 Y19.909 I-0.2 J-0.006
N5465 G1 X170.815 Y19.903
N5470 X170.763 Y19.901 Z0.907
N5475 X170.715 Y19.9 Z0.927
N5480 X170.673 Y19.899 Z0.959
N5485 X170.641 Y19.898 Z1.
N5490 X170.621 Y19.897 Z1.048
N5495 X170.615 Z1.1
N5500 G0 Z4.5
N5505 X170.627 Y19.497
N5510 G1 Z2.1 F333.33
N5515 Z0.9
N5520 X170.634 Z0.848 F250.
N5525 X170.654 Y19.498 Z0.8
N5530 X170.686 Y19.499 Z0.759
N5535 X170.727 Y19.5 Z0.727
N5540 X170.775 Y19.502 Z0.707
N5545 X170.827 Y19.503 Z0.7
N5550 X171.027 Y19.509
N5555 G3 X171.221 Y19.716 I-0.006 J0.2
N5560 X153.229 Y19.153 I-8.996 J-0.281
N5565 X171.221 Y19.716 I8.996 J0.281
N5570 X171.014 Y19.909 I-0.2 J-0.006
N5575 G1 X170.815 Y19.903
N5580 X170.763 Y19.901 Z0.707
N5585 X170.715 Y19.9 Z0.727
N5590 X170.673 Y19.899 Z0.759
N5595 X170.641 Y19.898 Z0.8
N5600 X170.621 Y19.897 Z0.848
N5605 X170.615 Z0.9
N5610 G0 Z4.5
N5615 X170.627 Y19.497
N5620 G1 Z1.9 F333.33
N5625 Z0.7
N5630 X170.634 Z0.648 F250.
N5635 X170.654 Y19.498 Z0.6
N5640 X170.686 Y19.499 Z0.559
N5645 X170.727 Y19.5 Z0.527
N5650 X170.775 Y19.502 Z0.507
N5655 X170.827 Y19.503 Z0.5
N5660 X171.027 Y19.509
N5665 G3 X171.221 Y19.716 I-0.006 J0.2
N5670 X153.229 Y19.153 I-8.996 J-0.281
N5675 X171.221 Y19.716 I8.996 J0.281
N5680 X171.014 Y19.909 I-0.2 J-0.006
N5685 G1 X170.815 Y19.903
N5690 X170.763 Y19.901 Z0.507
N5695 X170.715 Y19.9 Z0.527
N5700 X170.673 Y19.899 Z0.559
N5705 X170.641 Y19.898 Z0.6
N5710 X170.621 Y19.897 Z0.648
N5715 X170.615 Z0.7
N5720 G0 Z4.5
N5725 X170.627 Y19.497
N5730 G1 Z1.7 F333.33
N5735 Z0.5
N5740 Z4.5 F250.
N5745 Z0.5 F333.33
N5750 X170.827 Y19.503 F250.
N5755 X171.027 Y19.509
N5760 G3 X171.221 Y19.716 I-0.006 J0.2
N5765 X171.138 Y20.684 I-8.996 J-0.281
N5770 G1 Z0.3 F333.33
N5775 G3 X158.851 Y27.778 I-8.913 J-1.25 F250.
N5780 G1 Z0.5
N5785 G3 X156.686 Y26.528 I3.374 J-8.344
N5790 G1 Z0.3 F333.33
N5795 G3 Y12.341 I5.539 J-7.094 F250.
N5800 G1 Z0.5
N5805 G3 X158.851 Y11.091 I5.539 J7.094
N5810 G1 Z0.3 F333.33
N5815 G3 X171.138 Y18.184 I3.374 J8.344 F250.
N5820 G1 Z0.5
N5825 G3 X171.221 Y19.716 I-8.913 J1.25
N5830 X171.014 Y19.909 I-0.2 J-0.006
N5835 G1 X170.815 Y19.903
N5840 X170.615 Y19.897 F333.33
N5845 G0 Z4.5
N5850 X170.627 Y19.497
N5855 G1 Z1.5 F333.33
N5860 Z0.5
N5865 X170.827 Y19.503 F250.
N5870 X171.027 Y19.509
N5875 G3 X171.221 Y19.716 I-0.006 J0.2
N5880 X171.138 Y20.684 I-8.996 J-0.281
N5885 G1 Z0.1 F333.33
N5890 G3 X158.851 Y27.778 I-8.913 J-1.25 F250.
N5895 G1 Z0.5
N5900 G3 X156.686 Y26.528 I3.374 J-8.344
N5905 G1 Z0.1 F333.33
N5910 G3 Y12.341 I5.539 J-7.094 F250.
N5915 G1 Z0.5
N5920 G3 X158.851 Y11.091 I5.539 J7.094
N5925 G1 Z0.1 F333.33
N5930 G3 X171.138 Y18.184 I3.374 J8.344 F250.
N5935 G1 Z0.5
N5940 G3 X171.221 Y19.716 I-8.913 J1.25
N5945 X171.014 Y19.909 I-0.2 J-0.006
N5950 G1 X170.615 Y19.897
N5955 G0 Z4.5
N5960 X170.627 Y19.497
N5965 G1 Z1.3 F333.33
N5970 Z0.5
N5975 X170.827 Y19.503 F250.
N5980 X171.027 Y19.509
N5985 G3 X171.221 Y19.716 I-0.006 J0.2
N5990 X171.138 Y20.684 I-8.996 J-0.281
N5995 G1 Z-0.1 F333.33
N6000 G3 X158.851 Y27.778 I-8.913 J-1.25 F250.
N6005 G1 Z0.5
N6010 G3 X156.686 Y26.528 I3.374 J-8.344
N6015 G1 Z-0.1 F333.33
N6020 G3 Y12.341 I5.539 J-7.094 F250.
N6025 G1 Z0.5
N6030 G3 X158.851 Y11.091 I5.539 J7.094
N6035 G1 Z-0.1 F333.33
N6040 G3 X171.138 Y18.184 I3.374 J8.344 F250.
N6045 G1 Z0.5
N6050 G3 X171.221 Y19.716 I-8.913 J1.25
N6055 X171.014 Y19.909 I-0.2 J-0.006
N6060 G1 X170.615 Y19.897
N6065 G0 Z4.5
N6070 X170.627 Y19.497
N6075 G1 Z1.1 F333.33
N6080 Z0.5
N6085 X170.827 Y19.503 F250.
N6090 X171.027 Y19.509
N6095 G3 X171.221 Y19.716 I-0.006 J0.2
N6100 X171.138 Y20.684 I-8.996 J-0.281
N6105 G1 Z-0.3 F333.33
N6110 G3 X158.851 Y27.778 I-8.913 J-1.25 F250.
N6115 G1 Z0.5
N6120 G3 X156.686 Y26.528 I3.374 J-8.344
N6125 G1 Z-0.3 F333.33
N6130 G3 Y12.341 I5.539 J-7.094 F250.
N6135 G1 Z0.5
N6140 G3 X158.851 Y11.091 I5.539 J7.094
N6145 G1 Z-0.3 F333.33
N6150 G3 X171.138 Y18.184 I3.374 J8.344 F250.
N6155 G1 Z0.5
N6160 G3 X171.221 Y19.716 I-8.913 J1.25
N6165 X171.014 Y19.909 I-0.2 J-0.006
N6170 G1 X170.615 Y19.897
N6175 G0 Z4.5
N6180 X170.627 Y19.497
N6185 G1 Z0.9 F333.33
N6190 Z0.5
N6195 X170.827 Y19.503 F250.
N6200 X171.027 Y19.509
N6205 G3 X171.221 Y19.716 I-0.006 J0.2
N6210 X171.138 Y20.684 I-8.996 J-0.281
N6215 G1 Z-0.5 F333.33
N6220 G3 X158.851 Y27.778 I-8.913 J-1.25 F250.
N6225 G1 Z0.5
N6230 G3 X156.686 Y26.528 I3.374 J-8.344
N6235 G1 Z-0.5 F333.33
N6240 G3 Y12.341 I5.539 J-7.094 F250.
N6245 G1 Z0.5
N6250 G3 X158.851 Y11.091 I5.539 J7.094
N6255 G1 Z-0.5 F333.33
N6260 G3 X171.138 Y18.184 I3.374 J8.344 F250.
N6265 G1 Z0.5
N6270 G3 X171.221 Y19.716 I-8.913 J1.25
N6275 X171.014 Y19.909 I-0.2 J-0.006
N6280 G1 X170.615 Y19.897
N6285 G0 Z4.5
N6290 X170.868 Y10.455
N6295 G1 Z2.7 F333.33
N6300 Z1.5
N6305 Y10.448 Z1.448 F250.
N6310 Y10.428 Z1.4
N6315 Y10.396 Z1.359
N6320 Y10.355 Z1.327
N6325 Y10.307 Z1.307
N6330 Y10.255 Z1.3
N6335 Y10.055
N6340 G3 X171.068 Y9.855 I0.2 J0.
N6345 X171.812 Y10.599 I0. J0.745
N6350 X170.323 I-0.744 J0.
N6355 X171.068 Y9.855 I0.745 J0.001
N6360 X171.268 Y10.055 I0. J0.2
N6365 G1 Y10.255
N6370 Y10.307 Z1.307
N6375 Y10.355 Z1.327
N6380 Y10.396 Z1.359
N6385 Y10.428 Z1.4
N6390 Y10.448 Z1.448
N6395 Y10.455 Z1.5
N6400 G0 Z4.5
N6405 X170.868
N6410 G1 Z2.5 F333.33
N6415 Z1.3
N6420 Y10.448 Z1.248 F250.
N6425 Y10.428 Z1.2
N6430 Y10.396 Z1.159
N6435 Y10.355 Z1.127
N6440 Y10.307 Z1.107
N6445 Y10.255 Z1.1
N6450 Y10.055
N6455 G3 X171.068 Y9.855 I0.2 J0.
N6460 X171.812 Y10.599 I0. J0.745
N6465 X170.323 I-0.744 J0.
N6470 X171.068 Y9.855 I0.745 J0.001
N6475 X171.268 Y10.055 I0. J0.2
N6480 G1 Y10.255
N6485 Y10.307 Z1.107
N6490 Y10.355 Z1.127
N6495 Y10.396 Z1.159
N6500 Y10.428 Z1.2
N6505 Y10.448 Z1.248
N6510 Y10.455 Z1.3
N6515 G0 Z4.5
N6520 X170.868
N6525 G1 Z2.3 F333.33
N6530 Z1.1
N6535 Y10.448 Z1.048 F250.
N6540 Y10.428 Z1.
N6545 Y10.396 Z0.959
N6550 Y10.355 Z0.927
N6555 Y10.307 Z0.907
N6560 Y10.255 Z0.9
N6565 Y10.055
N6570 G3 X171.068 Y9.855 I0.2 J0.
N6575 X171.812 Y10.599 I0. J0.745
N6580 X170.323 I-0.744 J0.
N6585 X171.068 Y9.855 I0.745 J0.001
N6590 X171.268 Y10.055 I0. J0.2
N6595 G1 Y10.255
N6600 Y10.307 Z0.907
N6605 Y10.355 Z0.927
N6610 Y10.396 Z0.959
N6615 Y10.428 Z1.
N6620 Y10.448 Z1.048
N6625 Y10.455 Z1.1
N6630 G0 Z4.5
N6635 X170.868
N6640 G1 Z2.1 F333.33
N6645 Z0.9
N6650 Y10.448 Z0.848 F250.
N6655 Y10.428 Z0.8
N6660 Y10.396 Z0.759
N6665 Y10.355 Z0.727
N6670 Y10.307 Z0.707
N6675 Y10.255 Z0.7
N6680 Y10.055
N6685 G3 X171.068 Y9.855 I0.2 J0.
N6690 X171.812 Y10.599 I0. J0.745
N6695 X170.323 I-0.744 J0.
N6700 X171.068 Y9.855 I0.745 J0.001
N6705 X171.268 Y10.055 I0. J0.2
N6710 G1 Y10.255
N6715 Y10.307 Z0.707
N6720 Y10.355 Z0.727
N6725 Y10.396 Z0.759
N6730 Y10.428 Z0.8
N6735 Y10.448 Z0.848
N6740 Y10.455 Z0.9
N6745 G0 Z4.5
N6750 X170.868
N6755 G1 Z1.9 F333.33
N6760 Z0.7
N6765 Y10.448 Z0.648 F250.
N6770 Y10.428 Z0.6
N6775 Y10.396 Z0.559
N6780 Y10.355 Z0.527
N6785 Y10.307 Z0.507
N6790 Y10.255 Z0.5
N6795 Y10.055
N6800 G3 X171.068 Y9.855 I0.2 J0.
N6805 X171.812 Y10.599 I0. J0.745
N6810 X170.323 I-0.744 J0.
N6815 X171.068 Y9.855 I0.745 J0.001
N6820 X171.268 Y10.055 I0. J0.2
N6825 G1 Y10.255
N6830 Y10.307 Z0.507
N6835 Y10.355 Z0.527
N6840 Y10.396 Z0.559
N6845 Y10.428 Z0.6
N6850 Y10.448 Z0.648
N6855 Y10.455 Z0.7
N6860 G0 Z4.5
N6865 X170.868
N6870 G1 Z1.7 F333.33
N6875 Z0.5
N6880 Y10.448 Z0.448 F250.
N6885 Y10.428 Z0.4
N6890 Y10.396 Z0.359
N6895 Y10.355 Z0.327
N6900 Y10.307 Z0.307
N6905 Y10.255 Z0.3
N6910 Y10.055
N6915 G3 X171.068 Y9.855 I0.2 J0.
N6920 X171.812 Y10.599 I0. J0.745
N6925 X170.323 I-0.744 J0.
N6930 X171.068 Y9.855 I0.745 J0.001
N6935 X171.268 Y10.055 I0. J0.2
N6940 G1 Y10.255
N6945 Y10.307 Z0.307
N6950 Y10.355 Z0.327
N6955 Y10.396 Z0.359
N6960 Y10.428 Z0.4
N6965 Y10.448 Z0.448
N6970 Y10.455 Z0.5
N6975 G0 Z4.5
N6980 X170.868
N6985 G1 Z1.5 F333.33
N6990 Z0.3
N6995 Y10.448 Z0.248 F250.
N7000 Y10.428 Z0.2
N7005 Y10.396 Z0.159
N7010 Y10.355 Z0.127
N7015 Y10.307 Z0.107
N7020 Y10.255 Z0.1
N7025 Y10.055
N7030 G3 X171.068 Y9.855 I0.2 J0.
N7035 X171.812 Y10.599 I0. J0.745
N7040 X170.323 I-0.744 J0.
N7045 X171.068 Y9.855 I0.745 J0.001
N7050 X171.268 Y10.055 I0. J0.2
N7055 G1 Y10.255
N7060 Y10.307 Z0.107
N7065 Y10.355 Z0.127
N7070 Y10.396 Z0.159
N7075 Y10.428 Z0.2
N7080 Y10.448 Z0.248
N7085 Y10.455 Z0.3
N7090 G0 Z4.5
N7095 X170.868
N7100 G1 Z1.3 F333.33
N7105 Z0.1
N7110 Y10.448 Z0.048 F250.
N7115 Y10.428 Z0.
N7120 Y10.396 Z-0.041
N7125 Y10.355 Z-0.073
N7130 Y10.307 Z-0.093
N7135 Y10.255 Z-0.1
N7140 Y10.055
N7145 G3 X171.068 Y9.855 I0.2 J0.
N7150 X171.812 Y10.599 I0. J0.745
N7155 X170.323 I-0.744 J0.
N7160 X171.068 Y9.855 I0.745 J0.001
N7165 X171.268 Y10.055 I0. J0.2
N7170 G1 Y10.255
N7175 Y10.307 Z-0.093
N7180 Y10.355 Z-0.073
N7185 Y10.396 Z-0.041
N7190 Y10.428 Z0.
N7195 Y10.448 Z0.048
N7200 Y10.455 Z0.1
N7205 G0 Z4.5
N7210 X170.868
N7215 G1 Z1.1 F333.33
N7220 Z-0.1
N7225 Y10.448 Z-0.152 F250.
N7230 Y10.428 Z-0.2
N7235 Y10.396 Z-0.241
N7240 Y10.355 Z-0.273
N7245 Y10.307 Z-0.293
N7250 Y10.255 Z-0.3
N7255 Y10.055
N7260 G3 X171.068 Y9.855 I0.2 J0.
N7265 X171.812 Y10.599 I0. J0.745
N7270 X170.323 I-0.744 J0.
N7275 X171.068 Y9.855 I0.745 J0.001
N7280 X171.268 Y10.055 I0. J0.2
N7285 G1 Y10.255
N7290 Y10.307 Z-0.293
N7295 Y10.355 Z-0.273
N7300 Y10.396 Z-0.241
N7305 Y10.428 Z-0.2
N7310 Y10.448 Z-0.152
N7315 Y10.455 Z-0.1
N7320 G0 Z4.5
N7325 X170.868
N7330 G1 Z0.9 F333.33
N7335 Z-0.3
N7340 Y10.448 Z-0.352 F250.
N7345 Y10.428 Z-0.4
N7350 Y10.396 Z-0.441
N7355 Y10.355 Z-0.473
N7360 Y10.307 Z-0.493
N7365 Y10.255 Z-0.5
N7370 Y10.055
N7375 G3 X171.068 Y9.855 I0.2 J0.
N7380 X171.812 Y10.599 I0. J0.745
N7385 X170.323 I-0.744 J0.
N7390 X171.068 Y9.855 I0.745 J0.001
N7395 X171.268 Y10.055 I0. J0.2
N7400 G1 Y10.255
N7405 Y10.307 Z-0.493
N7410 Y10.355 Z-0.473
N7415 Y10.396 Z-0.441
N7420 Y10.428 Z-0.4
N7425 Y10.448 Z-0.352
N7430 Y10.455 Z-0.3
N7435 G0 Z4.5
N7440 X205.625 Y19.234
N7445 G1 Z2.7 F333.33
N7450 Z1.5
N7455 G18 G2 X205.825 Z1.3 I0.2 K0. F250.
N7460 G1 X206.025
N7465 G17 G3 X206.225 Y19.434 I0. J0.2
N7470 X188.225 I-9. J0.
N7475 X206.225 I9. J0.
N7480 X206.025 Y19.634 I-0.2 J0.
N7485 G1 X205.825
N7490 G18 G3 X205.625 Z1.5 I0. K0.2
N7495 G0 Z4.5
N7500 Y19.234
N7505 G1 Z2.5 F333.33
N7510 Z1.3
N7515 G2 X205.825 Z1.1 I0.2 K0. F250.
N7520 G1 X206.025
N7525 G17 G3 X206.225 Y19.434 I0. J0.2
N7530 X188.225 I-9. J0.
N7535 X206.225 I9. J0.
N7540 X206.025 Y19.634 I-0.2 J0.
N7545 G1 X205.825
N7550 G18 G3 X205.625 Z1.3 I0. K0.2
N7555 G0 Z4.5
N7560 Y19.234
N7565 G1 Z2.3 F333.33
N7570 Z1.1
N7575 G2 X205.825 Z0.9 I0.2 K0. F250.
N7580 G1 X206.025
N7585 G17 G3 X206.225 Y19.434 I0. J0.2
N7590 X188.225 I-9. J0.
N7595 X206.225 I9. J0.
N7600 X206.025 Y19.634 I-0.2 J0.
N7605 G1 X205.825
N7610 G18 G3 X205.625 Z1.1 I0. K0.2
N7615 G0 Z4.5
N7620 Y19.234
N7625 G1 Z2.1 F333.33
N7630 Z0.9
N7635 G2 X205.825 Z0.7 I0.2 K0. F250.
N7640 G1 X206.025
N7645 G17 G3 X206.225 Y19.434 I0. J0.2
N7650 X188.225 I-9. J0.
N7655 X206.225 I9. J0.
N7660 X206.025 Y19.634 I-0.2 J0.
N7665 G1 X205.825
N7670 G18 G3 X205.625 Z0.9 I0. K0.2
N7675 G0 Z4.5
N7680 Y19.234
N7685 G1 Z1.9 F333.33
N7690 Z0.7
N7695 G2 X205.825 Z0.5 I0.2 K0. F250.
N7700 G1 X206.025
N7705 G17 G3 X206.225 Y19.434 I0. J0.2
N7710 X188.225 I-9. J0.
N7715 X206.225 I9. J0.
N7720 X206.025 Y19.634 I-0.2 J0.
N7725 G1 X205.825
N7730 G18 G3 X205.625 Z0.7 I0. K0.2
N7735 G0 Z4.5
N7740 Y19.234
N7745 G1 Z1.7 F333.33
N7750 Z0.5
N7755 Z4.5 F250.
N7760 Z0.5 F333.33
N7765 X205.825 F250.
N7770 X206.025
N7775 G17 G3 X206.225 Y19.434 I0. J0.2
N7780 X206.138 Y20.684 I-9. J0.
N7785 G1 Z0.3 F333.33
N7790 G3 X193.851 Y27.778 I-8.913 J-1.25 F250.
N7795 G1 Z0.5
N7800 G3 X191.686 Y26.528 I3.374 J-8.344
N7805 G1 Z0.3 F333.33
N7810 G3 Y12.341 I5.539 J-7.094 F250.
N7815 G1 Z0.5
N7820 G3 X193.851 Y11.091 I5.539 J7.094
N7825 G1 Z0.3 F333.33
N7830 G3 X206.138 Y18.184 I3.374 J8.344 F250.
N7835 G1 Z0.5
N7840 G3 X206.225 Y19.434 I-8.913 J1.25
N7845 X206.025 Y19.634 I-0.2 J0.
N7850 G1 X205.825
N7855 X205.625 F333.33
N7860 G0 Z4.5
N7865 Y19.234
N7870 G1 Z1.5 F333.33
N7875 Z0.5
N7880 X205.825 F250.
N7885 X206.025
N7890 G3 X206.225 Y19.434 I0. J0.2
N7895 X206.138 Y20.684 I-9. J0.
N7900 G1 Z0.1 F333.33
N7905 G3 X193.851 Y27.778 I-8.913 J-1.25 F250.
N7910 G1 Z0.5
N7915 G3 X191.686 Y26.528 I3.374 J-8.344
N7920 G1 Z0.1 F333.33
N7925 G3 Y12.341 I5.539 J-7.094 F250.
N7930 G1 Z0.5
N7935 G3 X193.851 Y11.091 I5.539 J7.094
N7940 G1 Z0.1 F333.33
N7945 G3 X206.138 Y18.184 I3.374 J8.344 F250.
N7950 G1 Z0.5
N7955 G3 X206.225 Y19.434 I-8.913 J1.25
N7960 X206.025 Y19.634 I-0.2 J0.
N7965 G1 X205.625
N7970 G0 Z4.5
N7975 Y19.234
N7980 G1 Z1.3 F333.33
N7985 Z0.5
N7990 X205.825 F250.
N7995 X206.025
N8000 G3 X206.225 Y19.434 I0. J0.2
N8005 X206.138 Y20.684 I-9. J0.
N8010 G1 Z-0.1 F333.33
N8015 G3 X193.851 Y27.778 I-8.913 J-1.25 F250.
N8020 G1 Z0.5
N8025 G3 X191.686 Y26.528 I3.374 J-8.344
N8030 G1 Z-0.1 F333.33
N8035 G3 Y12.341 I5.539 J-7.094 F250.
N8040 G1 Z0.5
N8045 G3 X193.851 Y11.091 I5.539 J7.094
N8050 G1 Z-0.1 F333.33
N8055 G3 X206.138 Y18.184 I3.374 J8.344 F250.
N8060 G1 Z0.5
N8065 G3 X206.225 Y19.434 I-8.913 J1.25
N8070 X206.025 Y19.634 I-0.2 J0.
N8075 G1 X205.625
N8080 G0 Z4.5
N8085 Y19.234
N8090 G1 Z1.1 F333.33
N8095 Z0.5
N8100 X205.825 F250.
N8105 X206.025
N8110 G3 X206.225 Y19.434 I0. J0.2
N8115 X206.138 Y20.684 I-9. J0.
N8120 G1 Z-0.3 F333.33
N8125 G3 X193.851 Y27.778 I-8.913 J-1.25 F250.
N8130 G1 Z0.5
N8135 G3 X191.686 Y26.528 I3.374 J-8.344
N8140 G1 Z-0.3 F333.33
N8145 G3 Y12.341 I5.539 J-7.094 F250.
N8150 G1 Z0.5
N8155 G3 X193.851 Y11.091 I5.539 J7.094
N8160 G1 Z-0.3 F333.33
N8165 G3 X206.138 Y18.184 I3.374 J8.344 F250.
N8170 G1 Z0.5
N8175 G3 X206.225 Y19.434 I-8.913 J1.25
N8180 X206.025 Y19.634 I-0.2 J0.
N8185 G1 X205.625
N8190 G0 Z4.5
N8195 Y19.234
N8200 G1 Z0.9 F333.33
N8205 Z0.5
N8210 X205.825 F250.
N8215 X206.025
N8220 G3 X206.225 Y19.434 I0. J0.2
N8225 X206.138 Y20.684 I-9. J0.
N8230 G1 Z-0.5 F333.33
N8235 G3 X193.851 Y27.778 I-8.913 J-1.25 F250.
N8240 G1 Z0.5
N8245 G3 X191.686 Y26.528 I3.374 J-8.344
N8250 G1 Z-0.5 F333.33
N8255 G3 Y12.341 I5.539 J-7.094 F250.
N8260 G1 Z0.5
N8265 G3 X193.851 Y11.091 I5.539 J7.094
N8270 G1 Z-0.5 F333.33
N8275 G3 X206.138 Y18.184 I3.374 J8.344 F250.
N8280 G1 Z0.5
N8285 G3 X206.225 Y19.434 I-8.913 J1.25
N8290 X206.025 Y19.634 I-0.2 J0.
N8295 G1 X205.625
N8300 G0 Z4.5
N8305 X205.933 Y10.392
N8310 G1 Z2.7 F333.33
N8315 Z1.5
N8320 X205.936 Y10.386 Z1.448 F250.
N8325 X205.943 Y10.367 Z1.4
N8330 X205.954 Y10.338 Z1.359
N8335 X205.969 Y10.299 Z1.327
N8340 X205.987 Y10.254 Z1.307
N8345 X206.006 Y10.206 Z1.3
N8350 X206.078 Y10.019
N8355 G3 X206.337 Y9.905 I0.186 J0.072
N8360 X206.812 Y10.599 I-0.269 J0.694
N8365 X205.323 I-0.744 J0.
N8370 X206.337 Y9.905 I0.745 J0.001
N8375 X206.451 Y10.164 I-0.072 J0.186
N8380 G1 X206.378 Y10.35
N8385 X206.36 Y10.399 Z1.307
N8390 X206.342 Y10.444 Z1.327
N8395 X206.327 Y10.482 Z1.359
N8400 X206.316 Y10.512 Z1.4
N8405 X206.309 Y10.53 Z1.448
N8410 X206.306 Y10.537 Z1.5
N8415 G0 Z4.5
N8420 X205.933 Y10.392
N8425 G1 Z2.5 F333.33
N8430 Z1.3
N8435 X205.936 Y10.386 Z1.248 F250.
N8440 X205.943 Y10.367 Z1.2
N8445 X205.954 Y10.338 Z1.159
N8450 X205.969 Y10.299 Z1.127
N8455 X205.987 Y10.254 Z1.107
N8460 X206.006 Y10.206 Z1.1
N8465 X206.078 Y10.019
N8470 G3 X206.337 Y9.905 I0.186 J0.072
N8475 X206.812 Y10.599 I-0.269 J0.694
N8480 X205.323 I-0.744 J0.
N8485 X206.337 Y9.905 I0.745 J0.001
N8490 X206.451 Y10.164 I-0.072 J0.186
N8495 G1 X206.378 Y10.35
N8500 X206.36 Y10.399 Z1.107
N8505 X206.342 Y10.444 Z1.127
N8510 X206.327 Y10.482 Z1.159
N8515 X206.316 Y10.512 Z1.2
N8520 X206.309 Y10.53 Z1.248
N8525 X206.306 Y10.537 Z1.3
N8530 G0 Z4.5
N8535 X205.933 Y10.392
N8540 G1 Z2.3 F333.33
N8545 Z1.1
N8550 X205.936 Y10.386 Z1.048 F250.
N8555 X205.943 Y10.367 Z1.
N8560 X205.954 Y10.338 Z0.959
N8565 X205.969 Y10.299 Z0.927
N8570 X205.987 Y10.254 Z0.907
N8575 X206.006 Y10.206 Z0.9
N8580 X206.078 Y10.019
N8585 G3 X206.337 Y9.905 I0.186 J0.072
N8590 X206.812 Y10.599 I-0.269 J0.694
N8595 X205.323 I-0.744 J0.
N8600 X206.337 Y9.905 I0.745 J0.001
N8605 X206.451 Y10.164 I-0.072 J0.186
N8610 G1 X206.378 Y10.35
N8615 X206.36 Y10.399 Z0.907
N8620 X206.342 Y10.444 Z0.927
N8625 X206.327 Y10.482 Z0.959
N8630 X206.316 Y10.512 Z1.
N8635 X206.309 Y10.53 Z1.048
N8640 X206.306 Y10.537 Z1.1
N8645 G0 Z4.5
N8650 X205.933 Y10.392
N8655 G1 Z2.1 F333.33
N8660 Z0.9
N8665 X205.936 Y10.386 Z0.848 F250.
N8670 X205.943 Y10.367 Z0.8
N8675 X205.954 Y10.338 Z0.759
N8680 X205.969 Y10.299 Z0.727
N8685 X205.987 Y10.254 Z0.707
N8690 X206.006 Y10.206 Z0.7
N8695 X206.078 Y10.019
N8700 G3 X206.337 Y9.905 I0.186 J0.072
N8705 X206.812 Y10.599 I-0.269 J0.694
N8710 X205.323 I-0.744 J0.
N8715 X206.337 Y9.905 I0.745 J0.001
N8720 X206.451 Y10.164 I-0.072 J0.186
N8725 G1 X206.378 Y10.35
N8730 X206.36 Y10.399 Z0.707
N8735 X206.342 Y10.444 Z0.727
N8740 X206.327 Y10.482 Z0.759
N8745 X206.316 Y10.512 Z0.8
N8750 X206.309 Y10.53 Z0.848
N8755 X206.306 Y10.537 Z0.9
N8760 G0 Z4.5
N8765 X205.933 Y10.392
N8770 G1 Z1.9 F333.33
N8775 Z0.7
N8780 X205.936 Y10.386 Z0.648 F250.
N8785 X205.943 Y10.367 Z0.6
N8790 X205.954 Y10.338 Z0.559
N8795 X205.969 Y10.299 Z0.527
N8800 X205.987 Y10.254 Z0.507
N8805 X206.006 Y10.206 Z0.5
N8810 X206.078 Y10.019
N8815 G3 X206.337 Y9.905 I0.186 J0.072
N8820 X206.812 Y10.599 I-0.269 J0.694
N8825 X205.323 I-0.744 J0.
N8830 X206.337 Y9.905 I0.745 J0.001
N8835 X206.451 Y10.164 I-0.072 J0.186
N8840 G1 X206.378 Y10.35
N8845 X206.36 Y10.399 Z0.507
N8850 X206.342 Y10.444 Z0.527
N8855 X206.327 Y10.482 Z0.559
N8860 X206.316 Y10.512 Z0.6
N8865 X206.309 Y10.53 Z0.648
N8870 X206.306 Y10.537 Z0.7
N8875 G0 Z4.5
N8880 X205.933 Y10.392
N8885 G1 Z1.7 F333.33
N8890 Z0.5
N8895 X205.936 Y10.386 Z0.448 F250.
N8900 X205.943 Y10.367 Z0.4
N8905 X205.954 Y10.338 Z0.359
N8910 X205.969 Y10.299 Z0.327
N8915 X205.987 Y10.254 Z0.307
N8920 X206.006 Y10.206 Z0.3
N8925 X206.078 Y10.019
N8930 G3 X206.337 Y9.905 I0.186 J0.072
N8935 X206.812 Y10.599 I-0.269 J0.694
N8940 X205.323 I-0.744 J0.
N8945 X206.337 Y9.905 I0.745 J0.001
N8950 X206.451 Y10.164 I-0.072 J0.186
N8955 G1 X206.378 Y10.35
N8960 X206.36 Y10.399 Z0.307
N8965 X206.342 Y10.444 Z0.327
N8970 X206.327 Y10.482 Z0.359
N8975 X206.316 Y10.512 Z0.4
N8980 X206.309 Y10.53 Z0.448
N8985 X206.306 Y10.537 Z0.5
N8990 G0 Z4.5
N8995 X205.933 Y10.392
N9000 G1 Z1.5 F333.33
N9005 Z0.3
N9010 X205.936 Y10.386 Z0.248 F250.
N9015 X205.943 Y10.367 Z0.2
N9020 X205.954 Y10.338 Z0.159
N9025 X205.969 Y10.299 Z0.127
N9030 X205.987 Y10.254 Z0.107
N9035 X206.006 Y10.206 Z0.1
N9040 X206.078 Y10.019
N9045 G3 X206.337 Y9.905 I0.186 J0.072
N9050 X206.812 Y10.599 I-0.269 J0.694
N9055 X205.323 I-0.744 J0.
N9060 X206.337 Y9.905 I0.745 J0.001
N9065 X206.451 Y10.164 I-0.072 J0.186
N9070 G1 X206.378 Y10.35
N9075 X206.36 Y10.399 Z0.107
N9080 X206.342 Y10.444 Z0.127
N9085 X206.327 Y10.482 Z0.159
N9090 X206.316 Y10.512 Z0.2
N9095 X206.309 Y10.53 Z0.248
N9100 X206.306 Y10.537 Z0.3
N9105 G0 Z4.5
N9110 X205.933 Y10.392
N9115 G1 Z1.3 F333.33
N9120 Z0.1
N9125 X205.936 Y10.386 Z0.048 F250.
N9130 X205.943 Y10.367 Z0.
N9135 X205.954 Y10.338 Z-0.041
N9140 X205.969 Y10.299 Z-0.073
N9145 X205.987 Y10.254 Z-0.093
N9150 X206.006 Y10.206 Z-0.1
N9155 X206.078 Y10.019
N9160 G3 X206.337 Y9.905 I0.186 J0.072
N9165 X206.812 Y10.599 I-0.269 J0.694
N9170 X205.323 I-0.744 J0.
N9175 X206.337 Y9.905 I0.745 J0.001
N9180 X206.451 Y10.164 I-0.072 J0.186
N9185 G1 X206.378 Y10.35
N9190 X206.36 Y10.399 Z-0.093
N9195 X206.342 Y10.444 Z-0.073
N9200 X206.327 Y10.482 Z-0.041
N9205 X206.316 Y10.512 Z0.
N9210 X206.309 Y10.53 Z0.048
N9215 X206.306 Y10.537 Z0.1
N9220 G0 Z4.5
N9225 X205.933 Y10.392
N9230 G1 Z1.1 F333.33
N9235 Z-0.1
N9240 X205.936 Y10.386 Z-0.152 F250.
N9245 X205.943 Y10.367 Z-0.2
N9250 X205.954 Y10.338 Z-0.241
N9255 X205.969 Y10.299 Z-0.273
N9260 X205.987 Y10.254 Z-0.293
N9265 X206.006 Y10.206 Z-0.3
N9270 X206.078 Y10.019
N9275 G3 X206.337 Y9.905 I0.186 J0.072
N9280 X206.812 Y10.599 I-0.269 J0.694
N9285 X205.323 I-0.744 J0.
N9290 X206.337 Y9.905 I0.745 J0.001
N9295 X206.451 Y10.164 I-0.072 J0.186
N9300 G1 X206.378 Y10.35
N9305 X206.36 Y10.399 Z-0.293
N9310 X206.342 Y10.444 Z-0.273
N9315 X206.327 Y10.482 Z-0.241
N9320 X206.316 Y10.512 Z-0.2
N9325 X206.309 Y10.53 Z-0.152
N9330 X206.306 Y10.537 Z-0.1
N9335 G0 Z4.5
N9340 X205.933 Y10.392
N9345 G1 Z0.9 F333.33
N9350 Z-0.3
N9355 X205.936 Y10.386 Z-0.352 F250.
N9360 X205.943 Y10.367 Z-0.4
N9365 X205.954 Y10.338 Z-0.441
N9370 X205.969 Y10.299 Z-0.473
N9375 X205.987 Y10.254 Z-0.493
N9380 X206.006 Y10.206 Z-0.5
N9385 X206.078 Y10.019
N9390 G3 X206.337 Y9.905 I0.186 J0.072
N9395 X206.812 Y10.599 I-0.269 J0.694
N9400 X205.323 I-0.744 J0.
N9405 X206.337 Y9.905 I0.745 J0.001
N9410 X206.451 Y10.164 I-0.072 J0.186
N9415 G1 X206.378 Y10.35
N9420 X206.36 Y10.399 Z-0.493
N9425 X206.342 Y10.444 Z-0.473
N9430 X206.327 Y10.482 Z-0.441
N9435 X206.316 Y10.512 Z-0.4
N9440 X206.309 Y10.53 Z-0.352
N9445 X206.306 Y10.537 Z-0.3
N9450 G0 Z4.5
N9455 X222.048 Y17.603
N9460 G1 Z2.7 F333.33
N9465 Z1.5
N9470 Y17.596 Z1.448 F250.
N9475 Y17.576 Z1.4
N9480 Y17.544 Z1.359
N9485 X222.049 Y17.503 Z1.327
N9490 Y17.455 Z1.307
N9495 Y17.403 Z1.3
N9500 Y17.203
N9505 G3 X222.249 Y17.003 I0.2 J0.
N9510 X222.747 Y17.501 I0. J0.499
N9515 X221.75 I-0.498 J0.
N9520 X222.249 Y17.003 I0.499 J0.
N9525 X222.449 Y17.203 I0. J0.2
N9530 G1 Y17.403
N9535 Y17.455 Z1.307
N9540 Y17.503 Z1.327
N9545 X222.448 Y17.545 Z1.359
N9550 Y17.576 Z1.4
N9555 Y17.596 Z1.448
N9560 Y17.603 Z1.5
N9565 G0 Z4.5
N9570 X222.048
N9575 G1 Z2.5 F333.33
N9580 Z1.3
N9585 Y17.596 Z1.248 F250.
N9590 Y17.576 Z1.2
N9595 Y17.544 Z1.159
N9600 X222.049 Y17.503 Z1.127
N9605 Y17.455 Z1.107
N9610 Y17.403 Z1.1
N9615 Y17.203
N9620 G3 X222.249 Y17.003 I0.2 J0.
N9625 X222.747 Y17.501 I0. J0.499
N9630 X221.75 I-0.498 J0.
N9635 X222.249 Y17.003 I0.499 J0.
N9640 X222.449 Y17.203 I0. J0.2
N9645 G1 Y17.403
N9650 Y17.455 Z1.107
N9655 Y17.503 Z1.127
N9660 X222.448 Y17.545 Z1.159
N9665 Y17.576 Z1.2
N9670 Y17.596 Z1.248
N9675 Y17.603 Z1.3
N9680 G0 Z4.5
N9685 X222.048
N9690 G1 Z2.3 F333.33
N9695 Z1.1
N9700 Y17.596 Z1.048 F250.
N9705 Y17.576 Z1.
N9710 Y17.544 Z0.959
N9715 X222.049 Y17.503 Z0.927
N9720 Y17.455 Z0.907
N9725 Y17.403 Z0.9
N9730 Y17.203
N9735 G3 X222.249 Y17.003 I0.2 J0.
N9740 X222.747 Y17.501 I0. J0.499
N9745 X221.75 I-0.498 J0.
N9750 X222.249 Y17.003 I0.499 J0.
N9755 X222.449 Y17.203 I0. J0.2
N9760 G1 Y17.403
N9765 Y17.455 Z0.907
N9770 Y17.503 Z0.927
N9775 X222.448 Y17.545 Z0.959
N9780 Y17.576 Z1.
N9785 Y17.596 Z1.048
N9790 Y17.603 Z1.1
N9795 G0 Z4.5
N9800 X222.048
N9805 G1 Z2.1 F333.33
N9810 Z0.9
N9815 Y17.596 Z0.848 F250.
N9820 Y17.576 Z0.8
N9825 Y17.544 Z0.759
N9830 X222.049 Y17.503 Z0.727
N9835 Y17.455 Z0.707
N9840 Y17.403 Z0.7
N9845 Y17.203
N9850 G3 X222.249 Y17.003 I0.2 J0.
N9855 X222.747 Y17.501 I0. J0.499
N9860 X221.75 I-0.498 J0.
N9865 X222.249 Y17.003 I0.499 J0.
N9870 X222.449 Y17.203 I0. J0.2
N9875 G1 Y17.403
N9880 Y17.455 Z0.707
N9885 Y17.503 Z0.727
N9890 X222.448 Y17.545 Z0.759
N9895 Y17.576 Z0.8
N9900 Y17.596 Z0.848
N9905 Y17.603 Z0.9
N9910 G0 Z4.5
N9915 X222.048
N9920 G1 Z1.9 F333.33
N9925 Z0.7
N9930 Y17.596 Z0.648 F250.
N9935 Y17.576 Z0.6
N9940 Y17.544 Z0.559
N9945 X222.049 Y17.503 Z0.527
N9950 Y17.455 Z0.507
N9955 Y17.403 Z0.5
N9960 Y17.203
N9965 G3 X222.249 Y17.003 I0.2 J0.
N9970 X222.747 Y17.501 I0. J0.499
N9975 X221.75 I-0.498 J0.
N9980 X222.249 Y17.003 I0.499 J0.
N9985 X222.449 Y17.203 I0. J0.2
N9990 G1 Y17.403
N9995 Y17.455 Z0.507
N10000 Y17.503 Z0.527
N10005 X222.448 Y17.545 Z0.559
N10010 Y17.576 Z0.6
N10015 Y17.596 Z0.648
N10020 Y17.603 Z0.7
N10025 G0 Z4.5
N10030 X222.048
N10035 G1 Z1.7 F333.33
N10040 Z0.5
N10045 Y17.596 Z0.448 F250.
N10050 Y17.576 Z0.4
N10055 Y17.544 Z0.359
N10060 X222.049 Y17.503 Z0.327
N10065 Y17.455 Z0.307
N10070 Y17.403 Z0.3
N10075 Y17.203
N10080 G3 X222.249 Y17.003 I0.2 J0.
N10085 X222.747 Y17.501 I0. J0.499
N10090 X221.75 I-0.498 J0.
N10095 X222.249 Y17.003 I0.499 J0.
N10100 X222.449 Y17.203 I0. J0.2
N10105 G1 Y17.403
N10110 Y17.455 Z0.307
N10115 Y17.503 Z0.327
N10120 X222.448 Y17.545 Z0.359
N10125 Y17.576 Z0.4
N10130 Y17.596 Z0.448
N10135 Y17.603 Z0.5
N10140 G0 Z4.5
N10145 X222.048
N10150 G1 Z1.5 F333.33
N10155 Z0.3
N10160 Y17.596 Z0.248 F250.
N10165 Y17.576 Z0.2
N10170 Y17.544 Z0.159
N10175 X222.049 Y17.503 Z0.127
N10180 Y17.455 Z0.107
N10185 Y17.403 Z0.1
N10190 Y17.203
N10195 G3 X222.249 Y17.003 I0.2 J0.
N10200 X222.747 Y17.501 I0. J0.499
N10205 X221.75 I-0.498 J0.
N10210 X222.249 Y17.003 I0.499 J0.
N10215 X222.449 Y17.203 I0. J0.2
N10220 G1 Y17.403
N10225 Y17.455 Z0.107
N10230 Y17.503 Z0.127
N10235 X222.448 Y17.545 Z0.159
N10240 Y17.576 Z0.2
N10245 Y17.596 Z0.248
N10250 Y17.603 Z0.3
N10255 G0 Z4.5
N10260 X222.048
N10265 G1 Z1.3 F333.33
N10270 Z0.1
N10275 Y17.596 Z0.048 F250.
N10280 Y17.576 Z0.
N10285 Y17.544 Z-0.041
N10290 X222.049 Y17.503 Z-0.073
N10295 Y17.455 Z-0.093
N10300 Y17.403 Z-0.1
N10305 Y17.203
N10310 G3 X222.249 Y17.003 I0.2 J0.
N10315 X222.747 Y17.501 I0. J0.499
N10320 X221.75 I-0.498 J0.
N10325 X222.249 Y17.003 I0.499 J0.
N10330 X222.449 Y17.203 I0. J0.2
N10335 G1 Y17.403
N10340 Y17.455 Z-0.093
N10345 Y17.503 Z-0.073
N10350 X222.448 Y17.545 Z-0.041
N10355 Y17.576 Z0.
N10360 Y17.596 Z0.048
N10365 Y17.603 Z0.1
N10370 G0 Z4.5
N10375 X222.048
N10380 G1 Z1.1 F333.33
N10385 Z-0.1
N10390 Y17.596 Z-0.152 F250.
N10395 Y17.576 Z-0.2
N10400 Y17.544 Z-0.241
N10405 X222.049 Y17.503 Z-0.273
N10410 Y17.455 Z-0.293
N10415 Y17.403 Z-0.3
N10420 Y17.203
N10425 G3 X222.249 Y17.003 I0.2 J0.
N10430 X222.747 Y17.501 I0. J0.499
N10435 X221.75 I-0.498 J0.
N10440 X222.249 Y17.003 I0.499 J0.
N10445 X222.449 Y17.203 I0. J0.2
N10450 G1 Y17.403
N10455 Y17.455 Z-0.293
N10460 Y17.503 Z-0.273
N10465 X222.448 Y17.545 Z-0.241
N10470 Y17.576 Z-0.2
N10475 Y17.596 Z-0.152
N10480 Y17.603 Z-0.1
N10485 G0 Z4.5
N10490 X222.048
N10495 G1 Z0.9 F333.33
N10500 Z-0.3
N10505 Y17.596 Z-0.352 F250.
N10510 Y17.576 Z-0.4
N10515 Y17.544 Z-0.441
N10520 X222.049 Y17.503 Z-0.473
N10525 Y17.455 Z-0.493
N10530 Y17.403 Z-0.5
N10535 Y17.203
N10540 G3 X222.249 Y17.003 I0.2 J0.
N10545 X222.747 Y17.501 I0. J0.499
N10550 X221.75 I-0.498 J0.
N10555 X222.249 Y17.003 I0.499 J0.
N10560 X222.449 Y17.203 I0. J0.2
N10565 G1 Y17.403
N10570 Y17.455 Z-0.493
N10575 Y17.503 Z-0.473
N10580 X222.448 Y17.545 Z-0.441
N10585 Y17.576 Z-0.4
N10590 Y17.596 Z-0.352
N10595 Y17.603 Z-0.3
N10600 G0 Z4.5
N10605 X205.868 Y37.455
N10610 G1 Z2.7 F333.33
N10615 Z1.5
N10620 Y37.448 Z1.448 F250.
N10625 Y37.428 Z1.4
N10630 Y37.396 Z1.359
N10635 Y37.355 Z1.327
N10640 Y37.307 Z1.307
N10645 Y37.255 Z1.3
N10650 Y37.055
N10655 G3 X206.068 Y36.855 I0.2 J0.
N10660 X206.812 Y37.599 I0. J0.744
N10665 X205.323 I-0.744 J0.
N10670 X206.068 Y36.855 I0.745 J0.
N10675 X206.268 Y37.055 I0. J0.2
N10680 G1 Y37.255
N10685 Y37.307 Z1.307
N10690 Y37.355 Z1.327
N10695 Y37.396 Z1.359
N10700 Y37.428 Z1.4
N10705 Y37.448 Z1.448
N10710 Y37.455 Z1.5
N10715 G0 Z4.5
N10720 X205.868
N10725 G1 Z2.5 F333.33
N10730 Z1.3
N10735 Y37.448 Z1.248 F250.
N10740 Y37.428 Z1.2
N10745 Y37.396 Z1.159
N10750 Y37.355 Z1.127
N10755 Y37.307 Z1.107
N10760 Y37.255 Z1.1
N10765 Y37.055
N10770 G3 X206.068 Y36.855 I0.2 J0.
N10775 X206.812 Y37.599 I0. J0.744
N10780 X205.323 I-0.744 J0.
N10785 X206.068 Y36.855 I0.745 J0.
N10790 X206.268 Y37.055 I0. J0.2
N10795 G1 Y37.255
N10800 Y37.307 Z1.107
N10805 Y37.355 Z1.127
N10810 Y37.396 Z1.159
N10815 Y37.428 Z1.2
N10820 Y37.448 Z1.248
N10825 Y37.455 Z1.3
N10830 G0 Z4.5
N10835 X205.868
N10840 G1 Z2.3 F333.33
N10845 Z1.1
N10850 Y37.448 Z1.048 F250.
N10855 Y37.428 Z1.
N10860 Y37.396 Z0.959
N10865 Y37.355 Z0.927
N10870 Y37.307 Z0.907
N10875 Y37.255 Z0.9
N10880 Y37.055
N10885 G3 X206.068 Y36.855 I0.2 J0.
N10890 X206.812 Y37.599 I0. J0.744
N10895 X205.323 I-0.744 J0.
N10900 X206.068 Y36.855 I0.745 J0.
N10905 X206.268 Y37.055 I0. J0.2
N10910 G1 Y37.255
N10915 Y37.307 Z0.907
N10920 Y37.355 Z0.927
N10925 Y37.396 Z0.959
N10930 Y37.428 Z1.
N10935 Y37.448 Z1.048
N10940 Y37.455 Z1.1
N10945 G0 Z4.5
N10950 X205.868
N10955 G1 Z2.1 F333.33
N10960 Z0.9
N10965 Y37.448 Z0.848 F250.
N10970 Y37.428 Z0.8
N10975 Y37.396 Z0.759
N10980 Y37.355 Z0.727
N10985 Y37.307 Z0.707
N10990 Y37.255 Z0.7
N10995 Y37.055
N11000 G3 X206.068 Y36.855 I0.2 J0.
N11005 X206.812 Y37.599 I0. J0.744
N11010 X205.323 I-0.744 J0.
N11015 X206.068 Y36.855 I0.745 J0.
N11020 X206.268 Y37.055 I0. J0.2
N11025 G1 Y37.255
N11030 Y37.307 Z0.707
N11035 Y37.355 Z0.727
N11040 Y37.396 Z0.759
N11045 Y37.428 Z0.8
N11050 Y37.448 Z0.848
N11055 Y37.455 Z0.9
N11060 G0 Z4.5
N11065 X205.868
N11070 G1 Z1.9 F333.33
N11075 Z0.7
N11080 Y37.448 Z0.648 F250.
N11085 Y37.428 Z0.6
N11090 Y37.396 Z0.559
N11095 Y37.355 Z0.527
N11100 Y37.307 Z0.507
N11105 Y37.255 Z0.5
N11110 Y37.055
N11115 G3 X206.068 Y36.855 I0.2 J0.
N11120 X206.812 Y37.599 I0. J0.744
N11125 X205.323 I-0.744 J0.
N11130 X206.068 Y36.855 I0.745 J0.
N11135 X206.268 Y37.055 I0. J0.2
N11140 G1 Y37.255
N11145 Y37.307 Z0.507
N11150 Y37.355 Z0.527
N11155 Y37.396 Z0.559
N11160 Y37.428 Z0.6
N11165 Y37.448 Z0.648
N11170 Y37.455 Z0.7
N11175 G0 Z4.5
N11180 X205.868
N11185 G1 Z1.7 F333.33
N11190 Z0.5
N11195 Y37.448 Z0.448 F250.
N11200 Y37.428 Z0.4
N11205 Y37.396 Z0.359
N11210 Y37.355 Z0.327
N11215 Y37.307 Z0.307
N11220 Y37.255 Z0.3
N11225 Y37.055
N11230 G3 X206.068 Y36.855 I0.2 J0.
N11235 X206.812 Y37.599 I0. J0.744
N11240 X205.323 I-0.744 J0.
N11245 X206.068 Y36.855 I0.745 J0.
N11250 X206.268 Y37.055 I0. J0.2
N11255 G1 Y37.255
N11260 Y37.307 Z0.307
N11265 Y37.355 Z0.327
N11270 Y37.396 Z0.359
N11275 Y37.428 Z0.4
N11280 Y37.448 Z0.448
N11285 Y37.455 Z0.5
N11290 G0 Z4.5
N11295 X205.868
N11300 G1 Z1.5 F333.33
N11305 Z0.3
N11310 Y37.448 Z0.248 F250.
N11315 Y37.428 Z0.2
N11320 Y37.396 Z0.159
N11325 Y37.355 Z0.127
N11330 Y37.307 Z0.107
N11335 Y37.255 Z0.1
N11340 Y37.055
N11345 G3 X206.068 Y36.855 I0.2 J0.
N11350 X206.812 Y37.599 I0. J0.744
N11355 X205.323 I-0.744 J0.
N11360 X206.068 Y36.855 I0.745 J0.
N11365 X206.268 Y37.055 I0. J0.2
N11370 G1 Y37.255
N11375 Y37.307 Z0.107
N11380 Y37.355 Z0.127
N11385 Y37.396 Z0.159
N11390 Y37.428 Z0.2
N11395 Y37.448 Z0.248
N11400 Y37.455 Z0.3
N11405 G0 Z4.5
N11410 X205.868
N11415 G1 Z1.3 F333.33
N11420 Z0.1
N11425 Y37.448 Z0.048 F250.
N11430 Y37.428 Z0.
N11435 Y37.396 Z-0.041
N11440 Y37.355 Z-0.073
N11445 Y37.307 Z-0.093
N11450 Y37.255 Z-0.1
N11455 Y37.055
N11460 G3 X206.068 Y36.855 I0.2 J0.
N11465 X206.812 Y37.599 I0. J0.744
N11470 X205.323 I-0.744 J0.
N11475 X206.068 Y36.855 I0.745 J0.
N11480 X206.268 Y37.055 I0. J0.2
N11485 G1 Y37.255
N11490 Y37.307 Z-0.093
N11495 Y37.355 Z-0.073
N11500 Y37.396 Z-0.041
N11505 Y37.428 Z0.
N11510 Y37.448 Z0.048
N11515 Y37.455 Z0.1
N11520 G0 Z4.5
N11525 X205.868
N11530 G1 Z1.1 F333.33
N11535 Z-0.1
N11540 Y37.448 Z-0.152 F250.
N11545 Y37.428 Z-0.2
N11550 Y37.396 Z-0.241
N11555 Y37.355 Z-0.273
N11560 Y37.307 Z-0.293
N11565 Y37.255 Z-0.3
N11570 Y37.055
N11575 G3 X206.068 Y36.855 I0.2 J0.
N11580 X206.812 Y37.599 I0. J0.744
N11585 X205.323 I-0.744 J0.
N11590 X206.068 Y36.855 I0.745 J0.
N11595 X206.268 Y37.055 I0. J0.2
N11600 G1 Y37.255
N11605 Y37.307 Z-0.293
N11610 Y37.355 Z-0.273
N11615 Y37.396 Z-0.241
N11620 Y37.428 Z-0.2
N11625 Y37.448 Z-0.152
N11630 Y37.455 Z-0.1
N11635 G0 Z4.5
N11640 X205.868
N11645 G1 Z0.9 F333.33
N11650 Z-0.3
N11655 Y37.448 Z-0.352 F250.
N11660 Y37.428 Z-0.4
N11665 Y37.396 Z-0.441
N11670 Y37.355 Z-0.473
N11675 Y37.307 Z-0.493
N11680 Y37.255 Z-0.5
N11685 Y37.055
N11690 G3 X206.068 Y36.855 I0.2 J0.
N11695 X206.812 Y37.599 I0. J0.744
N11700 X205.323 I-0.744 J0.
N11705 X206.068 Y36.855 I0.745 J0.
N11710 X206.268 Y37.055 I0. J0.2
N11715 G1 Y37.255
N11720 Y37.307 Z-0.493
N11725 Y37.355 Z-0.473
N11730 Y37.396 Z-0.441
N11735 Y37.428 Z-0.4
N11740 Y37.448 Z-0.352
N11745 Y37.455 Z-0.3
N11750 G0 Z4.5
N11755 X205.625 Y46.234
N11760 G1 Z2.7 F333.33
N11765 Z1.5
N11770 G18 G2 X205.825 Z1.3 I0.2 K0. F250.
N11775 G1 X206.025
N11780 G17 G3 X206.225 Y46.434 I0. J0.2
N11785 X188.225 I-9. J0.
N11790 X206.225 I9. J0.
N11795 X206.025 Y46.634 I-0.2 J0.
N11800 G1 X205.825
N11805 G18 G3 X205.625 Z1.5 I0. K0.2
N11810 G0 Z4.5
N11815 Y46.234
N11820 G1 Z2.5 F333.33
N11825 Z1.3
N11830 G2 X205.825 Z1.1 I0.2 K0. F250.
N11835 G1 X206.025
N11840 G17 G3 X206.225 Y46.434 I0. J0.2
N11845 X188.225 I-9. J0.
N11850 X206.225 I9. J0.
N11855 X206.025 Y46.634 I-0.2 J0.
N11860 G1 X205.825
N11865 G18 G3 X205.625 Z1.3 I0. K0.2
N11870 G0 Z4.5
N11875 Y46.234
N11880 G1 Z2.3 F333.33
N11885 Z1.1
N11890 G2 X205.825 Z0.9 I0.2 K0. F250.
N11895 G1 X206.025
N11900 G17 G3 X206.225 Y46.434 I0. J0.2
N11905 X188.225 I-9. J0.
N11910 X206.225 I9. J0.
N11915 X206.025 Y46.634 I-0.2 J0.
N11920 G1 X205.825
N11925 G18 G3 X205.625 Z1.1 I0. K0.2
N11930 G0 Z4.5
N11935 Y46.234
N11940 G1 Z2.1 F333.33
N11945 Z0.9
N11950 G2 X205.825 Z0.7 I0.2 K0. F250.
N11955 G1 X206.025
N11960 G17 G3 X206.225 Y46.434 I0. J0.2
N11965 X188.225 I-9. J0.
N11970 X206.225 I9. J0.
N11975 X206.025 Y46.634 I-0.2 J0.
N11980 G1 X205.825
N11985 G18 G3 X205.625 Z0.9 I0. K0.2
N11990 G0 Z4.5
N11995 Y46.234
N12000 G1 Z1.9 F333.33
N12005 Z0.7
N12010 G2 X205.825 Z0.5 I0.2 K0. F250.
N12015 G1 X206.025
N12020 G17 G3 X206.225 Y46.434 I0. J0.2
N12025 X188.225 I-9. J0.
N12030 X206.225 I9. J0.
N12035 X206.025 Y46.634 I-0.2 J0.
N12040 G1 X205.825
N12045 G18 G3 X205.625 Z0.7 I0. K0.2
N12050 G0 Z4.5
N12055 Y46.234
N12060 G1 Z1.7 F333.33
N12065 Z0.5
N12070 Z4.5 F250.
N12075 Z0.5 F333.33
N12080 X205.825 F250.
N12085 X206.025
N12090 G17 G3 X206.225 Y46.434 I0. J0.2
N12095 X206.138 Y47.684 I-9. J0.
N12100 G1 Z0.3 F333.33
N12105 G3 X193.851 Y54.778 I-8.913 J-1.25 F250.
N12110 G1 Z0.5
N12115 G3 X191.686 Y53.528 I3.374 J-8.344
N12120 G1 Z0.3 F333.33
N12125 G3 Y39.341 I5.539 J-7.094 F250.
N12130 G1 Z0.5
N12135 G3 X193.851 Y38.091 I5.539 J7.094
N12140 G1 Z0.3 F333.33
N12145 G3 X206.138 Y45.184 I3.374 J8.344 F250.
N12150 G1 Z0.5
N12155 G3 X206.225 Y46.434 I-8.913 J1.25
N12160 X206.025 Y46.634 I-0.2 J0.
N12165 G1 X205.825
N12170 X205.625 F333.33
N12175 G0 Z4.5
N12180 Y46.234
N12185 G1 Z1.5 F333.33
N12190 Z0.5
N12195 X205.825 F250.
N12200 X206.025
N12205 G3 X206.225 Y46.434 I0. J0.2
N12210 X206.138 Y47.684 I-9. J0.
N12215 G1 Z0.1 F333.33
N12220 G3 X193.851 Y54.778 I-8.913 J-1.25 F250.
N12225 G1 Z0.5
N12230 G3 X191.686 Y53.528 I3.374 J-8.344
N12235 G1 Z0.1 F333.33
N12240 G3 Y39.341 I5.539 J-7.094 F250.
N12245 G1 Z0.5
N12250 G3 X193.851 Y38.091 I5.539 J7.094
N12255 G1 Z0.1 F333.33
N12260 G3 X206.138 Y45.184 I3.374 J8.344 F250.
N12265 G1 Z0.5
N12270 G3 X206.225 Y46.434 I-8.913 J1.25
N12275 X206.025 Y46.634 I-0.2 J0.
N12280 G1 X205.625
N12285 G0 Z4.5
N12290 Y46.234
N12295 G1 Z1.3 F333.33
N12300 Z0.5
N12305 X205.825 F250.
N12310 X206.025
N12315 G3 X206.225 Y46.434 I0. J0.2
N12320 X206.138 Y47.684 I-9. J0.
N12325 G1 Z-0.1 F333.33
N12330 G3 X193.851 Y54.778 I-8.913 J-1.25 F250.
N12335 G1 Z0.5
N12340 G3 X191.686 Y53.528 I3.374 J-8.344
N12345 G1 Z-0.1 F333.33
N12350 G3 Y39.341 I5.539 J-7.094 F250.
N12355 G1 Z0.5
N12360 G3 X193.851 Y38.091 I5.539 J7.094
N12365 G1 Z-0.1 F333.33
N12370 G3 X206.138 Y45.184 I3.374 J8.344 F250.
N12375 G1 Z0.5
N12380 G3 X206.225 Y46.434 I-8.913 J1.25
N12385 X206.025 Y46.634 I-0.2 J0.
N12390 G1 X205.625
N12395 G0 Z4.5
N12400 Y46.234
N12405 G1 Z1.1 F333.33
N12410 Z0.5
N12415 X205.825 F250.
N12420 X206.025
N12425 G3 X206.225 Y46.434 I0. J0.2
N12430 X206.138 Y47.684 I-9. J0.
N12435 G1 Z-0.3 F333.33
N12440 G3 X193.851 Y54.778 I-8.913 J-1.25 F250.
N12445 G1 Z0.5
N12450 G3 X191.686 Y53.528 I3.374 J-8.344
N12455 G1 Z-0.3 F333.33
N12460 G3 Y39.341 I5.539 J-7.094 F250.
N12465 G1 Z0.5
N12470 G3 X193.851 Y38.091 I5.539 J7.094
N12475 G1 Z-0.3 F333.33
N12480 G3 X206.138 Y45.184 I3.374 J8.344 F250.
N12485 G1 Z0.5
N12490 G3 X206.225 Y46.434 I-8.913 J1.25
N12495 X206.025 Y46.634 I-0.2 J0.
N12500 G1 X205.625
N12505 G0 Z4.5
N12510 Y46.234
N12515 G1 Z0.9 F333.33
N12520 Z0.5
N12525 X205.825 F250.
N12530 X206.025
N12535 G3 X206.225 Y46.434 I0. J0.2
N12540 X206.138 Y47.684 I-9. J0.
N12545 G1 Z-0.5 F333.33
N12550 G3 X193.851 Y54.778 I-8.913 J-1.25 F250.
N12555 G1 Z0.5
N12560 G3 X191.686 Y53.528 I3.374 J-8.344
N12565 G1 Z-0.5 F333.33
N12570 G3 Y39.341 I5.539 J-7.094 F250.
N12575 G1 Z0.5
N12580 G3 X193.851 Y38.091 I5.539 J7.094
N12585 G1 Z-0.5 F333.33
N12590 G3 X206.138 Y45.184 I3.374 J8.344 F250.
N12595 G1 Z0.5
N12600 G3 X206.225 Y46.434 I-8.913 J1.25
N12605 X206.025 Y46.634 I-0.2 J0.
N12610 G1 X205.625
N12615 G0 Z4.5
N12620 X188.525 Y55.08
N12625 G1 Z2.7 F333.33
N12630 Z1.5
N12635 G18 G2 X188.725 Z1.3 I0.2 K0. F250.
N12640 G1 X188.925
N12645 G17 G3 X189.125 Y55.28 I0. J0.2
N12650 X187.637 I-0.744 J0.
N12655 X189.125 I0.744 J0.
N12660 X188.925 Y55.48 I-0.2 J0.
N12665 G1 X188.725
N12670 G18 G3 X188.525 Z1.5 I0. K0.2
N12675 G0 Z4.5
N12680 Y55.08
N12685 G1 Z2.5 F333.33
N12690 Z1.3
N12695 G2 X188.725 Z1.1 I0.2 K0. F250.
N12700 G1 X188.925
N12705 G17 G3 X189.125 Y55.28 I0. J0.2
N12710 X187.637 I-0.744 J0.
N12715 X189.125 I0.744 J0.
N12720 X188.925 Y55.48 I-0.2 J0.
N12725 G1 X188.725
N12730 G18 G3 X188.525 Z1.3 I0. K0.2
N12735 G0 Z4.5
N12740 Y55.08
N12745 G1 Z2.3 F333.33
N12750 Z1.1
N12755 G2 X188.725 Z0.9 I0.2 K0. F250.
N12760 G1 X188.925
N12765 G17 G3 X189.125 Y55.28 I0. J0.2
N12770 X187.637 I-0.744 J0.
N12775 X189.125 I0.744 J0.
N12780 X188.925 Y55.48 I-0.2 J0.
N12785 G1 X188.725
N12790 G18 G3 X188.525 Z1.1 I0. K0.2
N12795 G0 Z4.5
N12800 Y55.08
N12805 G1 Z2.1 F333.33
N12810 Z0.9
N12815 G2 X188.725 Z0.7 I0.2 K0. F250.
N12820 G1 X188.925
N12825 G17 G3 X189.125 Y55.28 I0. J0.2
N12830 X187.637 I-0.744 J0.
N12835 X189.125 I0.744 J0.
N12840 X188.925 Y55.48 I-0.2 J0.
N12845 G1 X188.725
N12850 G18 G3 X188.525 Z0.9 I0. K0.2
N12855 G0 Z4.5
N12860 Y55.08
N12865 G1 Z1.9 F333.33
N12870 Z0.7
N12875 G2 X188.725 Z0.5 I0.2 K0. F250.
N12880 G1 X188.925
N12885 G17 G3 X189.125 Y55.28 I0. J0.2
N12890 X187.637 I-0.744 J0.
N12895 X189.125 I0.744 J0.
N12900 X188.925 Y55.48 I-0.2 J0.
N12905 G1 X188.725
N12910 G18 G3 X188.525 Z0.7 I0. K0.2
N12915 G0 Z4.5
N12920 Y55.08
N12925 G1 Z1.7 F333.33
N12930 Z0.5
N12935 G2 X188.725 Z0.3 I0.2 K0. F250.
N12940 G1 X188.925
N12945 G17 G3 X189.125 Y55.28 I0. J0.2
N12950 X187.637 I-0.744 J0.
N12955 X189.125 I0.744 J0.
N12960 X188.925 Y55.48 I-0.2 J0.
N12965 G1 X188.725
N12970 G18 G3 X188.525 Z0.5 I0. K0.2
N12975 G0 Z4.5
N12980 Y55.08
N12985 G1 Z1.5 F333.33
N12990 Z0.3
N12995 G2 X188.725 Z0.1 I0.2 K0. F250.
N13000 G1 X188.925
N13005 G17 G3 X189.125 Y55.28 I0. J0.2
N13010 X187.637 I-0.744 J0.
N13015 X189.125 I0.744 J0.
N13020 X188.925 Y55.48 I-0.2 J0.
N13025 G1 X188.725
N13030 G18 G3 X188.525 Z0.3 I0. K0.2
N13035 G0 Z4.5
N13040 Y55.08
N13045 G1 Z1.3 F333.33
N13050 Z0.1
N13055 G2 X188.725 Z-0.1 I0.2 K0. F250.
N13060 G1 X188.925
N13065 G17 G3 X189.125 Y55.28 I0. J0.2
N13070 X187.637 I-0.744 J0.
N13075 X189.125 I0.744 J0.
N13080 X188.925 Y55.48 I-0.2 J0.
N13085 G1 X188.725
N13090 G18 G3 X188.525 Z0.1 I0. K0.2
N13095 G0 Z4.5
N13100 Y55.08
N13105 G1 Z1.1 F333.33
N13110 Z-0.1
N13115 G2 X188.725 Z-0.3 I0.2 K0. F250.
N13120 G1 X188.925
N13125 G17 G3 X189.125 Y55.28 I0. J0.2
N13130 X187.637 I-0.744 J0.
N13135 X189.125 I0.744 J0.
N13140 X188.925 Y55.48 I-0.2 J0.
N13145 G1 X188.725
N13150 G18 G3 X188.525 Z-0.1 I0. K0.2
N13155 G0 Z4.5
N13160 Y55.08
N13165 G1 Z0.9 F333.33
N13170 Z-0.3
N13175 G2 X188.725 Z-0.5 I0.2 K0. F250.
N13180 G1 X188.925
N13185 G17 G3 X189.125 Y55.28 I0. J0.2
N13190 X187.637 I-0.744 J0.
N13195 X189.125 I0.744 J0.
N13200 X188.925 Y55.48 I-0.2 J0.
N13205 G1 X188.725
N13210 G18 G3 X188.525 Z-0.3 I0. K0.2
N13215 G0 Z4.5
N13220 X197.731 Y68.107
N13225 G1 Z2.7 F333.33
N13230 Z1.5
N13235 Y68.1 Z1.448 F250.
N13240 Y68.08 Z1.4
N13245 Y68.049 Z1.359
N13250 Y68.007 Z1.327
N13255 Y67.959 Z1.307
N13260 Y67.907 Z1.3
N13265 Y67.707
N13270 G17 G3 X197.931 Y67.507 I0.2 J0.
N13275 X198.996 Y68.572 I0. J1.065
N13280 X196.865 I-1.066 J0.
N13285 X197.931 Y67.507 I1.065 J0.001
N13290 X198.131 Y67.707 I0. J0.2
N13295 G1 Y67.907
N13300 Y67.959 Z1.307
N13305 Y68.007 Z1.327
N13310 Y68.049 Z1.359
N13315 Y68.08 Z1.4
N13320 Y68.1 Z1.448
N13325 Y68.107 Z1.5
N13330 G0 Z4.5
N13335 X197.731
N13340 G1 Z2.5 F333.33
N13345 Z1.3
N13350 Y68.1 Z1.248 F250.
N13355 Y68.08 Z1.2
N13360 Y68.049 Z1.159
N13365 Y68.007 Z1.127
N13370 Y67.959 Z1.107
N13375 Y67.907 Z1.1
N13380 Y67.707
N13385 G3 X197.931 Y67.507 I0.2 J0.
N13390 X198.996 Y68.572 I0. J1.065
N13395 X196.865 I-1.066 J0.
N13400 X197.931 Y67.507 I1.065 J0.001
N13405 X198.131 Y67.707 I0. J0.2
N13410 G1 Y67.907
N13415 Y67.959 Z1.107
N13420 Y68.007 Z1.127
N13425 Y68.049 Z1.159
N13430 Y68.08 Z1.2
N13435 Y68.1 Z1.248
N13440 Y68.107 Z1.3
N13445 G0 Z4.5
N13450 X197.731
N13455 G1 Z2.3 F333.33
N13460 Z1.1
N13465 Y68.1 Z1.048 F250.
N13470 Y68.08 Z1.
N13475 Y68.049 Z0.959
N13480 Y68.007 Z0.927
N13485 Y67.959 Z0.907
N13490 Y67.907 Z0.9
N13495 Y67.707
N13500 G3 X197.931 Y67.507 I0.2 J0.
N13505 X198.996 Y68.572 I0. J1.065
N13510 X196.865 I-1.066 J0.
N13515 X197.931 Y67.507 I1.065 J0.001
N13520 X198.131 Y67.707 I0. J0.2
N13525 G1 Y67.907
N13530 Y67.959 Z0.907
N13535 Y68.007 Z0.927
N13540 Y68.049 Z0.959
N13545 Y68.08 Z1.
N13550 Y68.1 Z1.048
N13555 Y68.107 Z1.1
N13560 G0 Z4.5
N13565 X197.731
N13570 G1 Z2.1 F333.33
N13575 Z0.9
N13580 Y68.1 Z0.848 F250.
N13585 Y68.08 Z0.8
N13590 Y68.049 Z0.759
N13595 Y68.007 Z0.727
N13600 Y67.959 Z0.707
N13605 Y67.907 Z0.7
N13610 Y67.707
N13615 G3 X197.931 Y67.507 I0.2 J0.
N13620 X198.996 Y68.572 I0. J1.065
N13625 X196.865 I-1.066 J0.
N13630 X197.931 Y67.507 I1.065 J0.001
N13635 X198.131 Y67.707 I0. J0.2
N13640 G1 Y67.907
N13645 Y67.959 Z0.707
N13650 Y68.007 Z0.727
N13655 Y68.049 Z0.759
N13660 Y68.08 Z0.8
N13665 Y68.1 Z0.848
N13670 Y68.107 Z0.9
N13675 G0 Z4.5
N13680 X197.731
N13685 G1 Z1.9 F333.33
N13690 Z0.7
N13695 Y68.1 Z0.648 F250.
N13700 Y68.08 Z0.6
N13705 Y68.049 Z0.559
N13710 Y68.007 Z0.527
N13715 Y67.959 Z0.507
N13720 Y67.907 Z0.5
N13725 Y67.707
N13730 G3 X197.931 Y67.507 I0.2 J0.
N13735 X198.996 Y68.572 I0. J1.065
N13740 X196.865 I-1.066 J0.
N13745 X197.931 Y67.507 I1.065 J0.001
N13750 X198.131 Y67.707 I0. J0.2
N13755 G1 Y67.907
N13760 Y67.959 Z0.507
N13765 Y68.007 Z0.527
N13770 Y68.049 Z0.559
N13775 Y68.08 Z0.6
N13780 Y68.1 Z0.648
N13785 Y68.107 Z0.7
N13790 G0 Z4.5
N13795 X197.731
N13800 G1 Z1.7 F333.33
N13805 Z0.5
N13810 Y68.1 Z0.448 F250.
N13815 Y68.08 Z0.4
N13820 Y68.049 Z0.359
N13825 Y68.007 Z0.327
N13830 Y67.959 Z0.307
N13835 Y67.907 Z0.3
N13840 Y67.707
N13845 G3 X197.931 Y67.507 I0.2 J0.
N13850 X198.996 Y68.572 I0. J1.065
N13855 X196.865 I-1.066 J0.
N13860 X197.931 Y67.507 I1.065 J0.001
N13865 X198.131 Y67.707 I0. J0.2
N13870 G1 Y67.907
N13875 Y67.959 Z0.307
N13880 Y68.007 Z0.327
N13885 Y68.049 Z0.359
N13890 Y68.08 Z0.4
N13895 Y68.1 Z0.448
N13900 Y68.107 Z0.5
N13905 G0 Z4.5
N13910 X197.731
N13915 G1 Z1.5 F333.33
N13920 Z0.3
N13925 Y68.1 Z0.248 F250.
N13930 Y68.08 Z0.2
N13935 Y68.049 Z0.159
N13940 Y68.007 Z0.127
N13945 Y67.959 Z0.107
N13950 Y67.907 Z0.1
N13955 Y67.707
N13960 G3 X197.931 Y67.507 I0.2 J0.
N13965 X198.996 Y68.572 I0. J1.065
N13970 X196.865 I-1.066 J0.
N13975 X197.931 Y67.507 I1.065 J0.001
N13980 X198.131 Y67.707 I0. J0.2
N13985 G1 Y67.907
N13990 Y67.959 Z0.107
N13995 Y68.007 Z0.127
N14000 Y68.049 Z0.159
N14005 Y68.08 Z0.2
N14010 Y68.1 Z0.248
N14015 Y68.107 Z0.3
N14020 G0 Z4.5
N14025 X197.731
N14030 G1 Z1.3 F333.33
N14035 Z0.1
N14040 Y68.1 Z0.048 F250.
N14045 Y68.08 Z0.
N14050 Y68.049 Z-0.041
N14055 Y68.007 Z-0.073
N14060 Y67.959 Z-0.093
N14065 Y67.907 Z-0.1
N14070 Y67.707
N14075 G3 X197.931 Y67.507 I0.2 J0.
N14080 X198.996 Y68.572 I0. J1.065
N14085 X196.865 I-1.066 J0.
N14090 X197.931 Y67.507 I1.065 J0.001
N14095 X198.131 Y67.707 I0. J0.2
N14100 G1 Y67.907
N14105 Y67.959 Z-0.093
N14110 Y68.007 Z-0.073
N14115 Y68.049 Z-0.041
N14120 Y68.08 Z0.
N14125 Y68.1 Z0.048
N14130 Y68.107 Z0.1
N14135 G0 Z4.5
N14140 X197.731
N14145 G1 Z1.1 F333.33
N14150 Z-0.1
N14155 Y68.1 Z-0.152 F250.
N14160 Y68.08 Z-0.2
N14165 Y68.049 Z-0.241
N14170 Y68.007 Z-0.273
N14175 Y67.959 Z-0.293
N14180 Y67.907 Z-0.3
N14185 Y67.707
N14190 G3 X197.931 Y67.507 I0.2 J0.
N14195 X198.996 Y68.572 I0. J1.065
N14200 X196.865 I-1.066 J0.
N14205 X197.931 Y67.507 I1.065 J0.001
N14210 X198.131 Y67.707 I0. J0.2
N14215 G1 Y67.907
N14220 Y67.959 Z-0.293
N14225 Y68.007 Z-0.273
N14230 Y68.049 Z-0.241
N14235 Y68.08 Z-0.2
N14240 Y68.1 Z-0.152
N14245 Y68.107 Z-0.1
N14250 G0 Z4.5
N14255 X197.731
N14260 G1 Z0.9 F333.33
N14265 Z-0.3
N14270 Y68.1 Z-0.352 F250.
N14275 Y68.08 Z-0.4
N14280 Y68.049 Z-0.441
N14285 Y68.007 Z-0.473
N14290 Y67.959 Z-0.493
N14295 Y67.907 Z-0.5
N14300 Y67.707
N14305 G3 X197.931 Y67.507 I0.2 J0.
N14310 X198.996 Y68.572 I0. J1.065
N14315 X196.865 I-1.066 J0.
N14320 X197.931 Y67.507 I1.065 J0.001
N14325 X198.131 Y67.707 I0. J0.2
N14330 G1 Y67.907
N14335 Y67.959 Z-0.493
N14340 Y68.007 Z-0.473
N14345 Y68.049 Z-0.441
N14350 Y68.08 Z-0.4
N14355 Y68.1 Z-0.352
N14360 Y68.107 Z-0.3
N14365 G0 Z4.5
N14370 X185.4 Y73.8
N14375 G1 Z2.7 F333.33
N14380 Z1.5
N14385 G18 G2 X185.6 Z1.3 I0.2 K0. F250.
N14390 G1 X185.8
N14395 G17 G3 X186. Y74. I0. J0.2
N14400 X180. I-3. J0.
N14405 X186. I3. J0.
N14410 X185.8 Y74.2 I-0.2 J0.
N14415 G1 X185.6
N14420 G18 G3 X185.4 Z1.5 I0. K0.2
N14425 G0 Z4.5
N14430 Y73.8
N14435 G1 Z2.5 F333.33
N14440 Z1.3
N14445 G2 X185.6 Z1.1 I0.2 K0. F250.
N14450 G1 X185.8
N14455 G17 G3 X186. Y74. I0. J0.2
N14460 X180. I-3. J0.
N14465 X186. I3. J0.
N14470 X185.8 Y74.2 I-0.2 J0.
N14475 G1 X185.6
N14480 G18 G3 X185.4 Z1.3 I0. K0.2
N14485 G0 Z4.5
N14490 Y73.8
N14495 G1 Z2.3 F333.33
N14500 Z1.1
N14505 G2 X185.6 Z0.9 I0.2 K0. F250.
N14510 G1 X185.8
N14515 G17 G3 X186. Y74. I0. J0.2
N14520 X180. I-3. J0.
N14525 X186. I3. J0.
N14530 X185.8 Y74.2 I-0.2 J0.
N14535 G1 X185.6
N14540 G18 G3 X185.4 Z1.1 I0. K0.2
N14545 G0 Z4.5
N14550 Y73.8
N14555 G1 Z2.1 F333.33
N14560 Z0.9
N14565 G2 X185.6 Z0.7 I0.2 K0. F250.
N14570 G1 X185.8
N14575 G17 G3 X186. Y74. I0. J0.2
N14580 X180. I-3. J0.
N14585 X186. I3. J0.
N14590 X185.8 Y74.2 I-0.2 J0.
N14595 G1 X185.6
N14600 G18 G3 X185.4 Z0.9 I0. K0.2
N14605 G0 Z4.5
N14610 Y73.8
N14615 G1 Z1.9 F333.33
N14620 Z0.7
N14625 G2 X185.6 Z0.5 I0.2 K0. F250.
N14630 G1 X185.8
N14635 G17 G3 X186. Y74. I0. J0.2
N14640 X180. I-3. J0.
N14645 X186. I3. J0.
N14650 X185.8 Y74.2 I-0.2 J0.
N14655 G1 X185.6
N14660 G18 G3 X185.4 Z0.7 I0. K0.2
N14665 G0 Z4.5
N14670 Y73.8
N14675 G1 Z1.7 F333.33
N14680 Z0.5
N14685 Z4.5 F250.
N14690 Z0.5 F333.33
N14695 X185.6 F250.
N14700 X185.8
N14705 G17 G3 X186. Y74. I0. J0.2
N14710 X185.727 Y75.25 I-3. J0.
N14715 G1 Z0.3 F333.33
N14720 G3 X180.273 Y72.75 I-2.727 J-1.25 F250.
N14725 X185.727 I2.727 J1.25
N14730 G1 Z0.5
N14735 G3 X186. Y74. I-2.727 J1.25
N14740 X185.8 Y74.2 I-0.2 J0.
N14745 G1 X185.6
N14750 X185.4 F333.33
N14755 G0 Z4.5
N14760 Y73.8
N14765 G1 Z1.5 F333.33
N14770 Z0.5
N14775 X185.6 F250.
N14780 X185.8
N14785 G3 X186. Y74. I0. J0.2
N14790 X185.727 Y75.25 I-3. J0.
N14795 G1 Z0.1 F333.33
N14800 G3 X180.273 Y72.75 I-2.727 J-1.25 F250.
N14805 X185.727 I2.727 J1.25
N14810 G1 Z0.5
N14815 G3 X186. Y74. I-2.727 J1.25
N14820 X185.8 Y74.2 I-0.2 J0.
N14825 G1 X185.4
N14830 G0 Z4.5
N14835 Y73.8
N14840 G1 Z1.3 F333.33
N14845 Z0.5
N14850 X185.6 F250.
N14855 X185.8
N14860 G3 X186. Y74. I0. J0.2
N14865 X185.727 Y75.25 I-3. J0.
N14870 G1 Z-0.1 F333.33
N14875 G3 X180.273 Y72.75 I-2.727 J-1.25 F250.
N14880 X185.727 I2.727 J1.25
N14885 G1 Z0.5
N14890 G3 X186. Y74. I-2.727 J1.25
N14895 X185.8 Y74.2 I-0.2 J0.
N14900 G1 X185.4
N14905 G0 Z4.5
N14910 Y73.8
N14915 G1 Z1.1 F333.33
N14920 Z0.5
N14925 X185.6 F250.
N14930 X185.8
N14935 G3 X186. Y74. I0. J0.2
N14940 X185.727 Y75.25 I-3. J0.
N14945 G1 Z-0.3 F333.33
N14950 G3 X180.273 Y72.75 I-2.727 J-1.25 F250.
N14955 X185.727 I2.727 J1.25
N14960 G1 Z0.5
N14965 G3 X186. Y74. I-2.727 J1.25
N14970 X185.8 Y74.2 I-0.2 J0.
N14975 G1 X185.4
N14980 G0 Z4.5
N14985 Y73.8
N14990 G1 Z0.9 F333.33
N14995 Z0.5
N15000 X185.6 F250.
N15005 X185.8
N15010 G3 X186. Y74. I0. J0.2
N15015 X185.727 Y75.25 I-3. J0.
N15020 G1 Z-0.5 F333.33
N15025 G3 X180.273 Y72.75 I-2.727 J-1.25 F250.
N15030 X185.727 I2.727 J1.25
N15035 G1 Z0.5
N15040 G3 X186. Y74. I-2.727 J1.25
N15045 X185.8 Y74.2 I-0.2 J0.
N15050 G1 X185.4
N15055 G0 Z4.5
N15060 X206.547 Y91.889
N15065 G1 Z2.7 F333.33
N15070 Z1.5
N15075 G18 G2 X206.747 Z1.3 I0.2 K0. F250.
N15080 G1 X206.947
N15085 G17 G3 X207.147 Y92.089 I0. J0.2
N15090 X187.147 I-10. J0.
N15095 X207.147 I10. J0.
N15100 X206.947 Y92.289 I-0.2 J0.
N15105 G1 X206.747
N15110 G18 G3 X206.547 Z1.5 I0. K0.2
N15115 G0 Z4.5
N15120 Y91.889
N15125 G1 Z2.5 F333.33
N15130 Z1.3
N15135 G2 X206.747 Z1.1 I0.2 K0. F250.
N15140 G1 X206.947
N15145 G17 G3 X207.147 Y92.089 I0. J0.2
N15150 X187.147 I-10. J0.
N15155 X207.147 I10. J0.
N15160 X206.947 Y92.289 I-0.2 J0.
N15165 G1 X206.747
N15170 G18 G3 X206.547 Z1.3 I0. K0.2
N15175 G0 Z4.5
N15180 Y91.889
N15185 G1 Z2.3 F333.33
N15190 Z1.1
N15195 G2 X206.747 Z0.9 I0.2 K0. F250.
N15200 G1 X206.947
N15205 G17 G3 X207.147 Y92.089 I0. J0.2
N15210 X187.147 I-10. J0.
N15215 X207.147 I10. J0.
N15220 X206.947 Y92.289 I-0.2 J0.
N15225 G1 X206.747
N15230 G18 G3 X206.547 Z1.1 I0. K0.2
N15235 G0 Z4.5
N15240 Y91.889
N15245 G1 Z2.1 F333.33
N15250 Z0.9
N15255 G2 X206.747 Z0.7 I0.2 K0. F250.
N15260 G1 X206.947
N15265 G17 G3 X207.147 Y92.089 I0. J0.2
N15270 X187.147 I-10. J0.
N15275 X207.147 I10. J0.
N15280 X206.947 Y92.289 I-0.2 J0.
N15285 G1 X206.747
N15290 G18 G3 X206.547 Z0.9 I0. K0.2
N15295 G0 Z4.5
N15300 Y91.889
N15305 G1 Z1.9 F333.33
N15310 Z0.7
N15315 G2 X206.747 Z0.5 I0.2 K0. F250.
N15320 G1 X206.947
N15325 G17 G3 X207.147 Y92.089 I0. J0.2
N15330 X187.147 I-10. J0.
N15335 X207.147 I10. J0.
N15340 X206.947 Y92.289 I-0.2 J0.
N15345 G1 X206.747
N15350 G18 G3 X206.547 Z0.7 I0. K0.2
N15355 G0 Z4.5
N15360 Y91.889
N15365 G1 Z1.7 F333.33
N15370 Z0.5
N15375 G2 X206.747 Z0.3 I0.2 K0. F250.
N15380 G1 X206.947
N15385 G17 G3 X207.147 Y92.089 I0. J0.2
N15390 X205.046 Y98.221 I-10. J0.
N15395 G1 Z0.5
N15400 G3 X203.279 Y99.988 I-7.899 J-6.132
N15405 G1 Z0.3 F333.33
N15410 G3 X191.015 I-6.132 J-7.9 F250.
N15415 G1 Z0.5
N15420 G3 X189.248 Y98.221 I6.132 J-7.9
N15425 G1 Z0.3 F333.33
N15430 G3 Y85.957 I7.899 J-6.132 F250.
N15435 G1 Z0.5
N15440 G3 X191.015 Y84.189 I7.899 J6.132
N15445 G1 Z0.3 F333.33
N15450 G3 X203.279 I6.132 J7.9 F250.
N15455 G1 Z0.5
N15460 G3 X205.046 Y85.957 I-6.132 J7.9
N15465 G1 Z0.3 F333.33
N15470 G3 X207.147 Y92.089 I-7.899 J6.132 F250.
N15475 X206.947 Y92.289 I-0.2 J0.
N15480 G1 X206.747
N15485 G18 G3 X206.547 Z0.5 I0. K0.2
N15490 G0 Z4.5
N15495 Y91.889
N15500 G1 Z1.5 F333.33
N15505 Z0.3
N15510 G2 X206.747 Z0.1 I0.2 K0. F250.
N15515 G1 X206.947
N15520 G17 G3 X207.147 Y92.089 I0. J0.2
N15525 X205.046 Y98.221 I-10. J0.
N15530 G1 Z0.5
N15535 G3 X203.279 Y99.988 I-7.899 J-6.132
N15540 G1 Z0.1 F333.33
N15545 G3 X191.015 I-6.132 J-7.9 F250.
N15550 G1 Z0.5
N15555 G3 X189.248 Y98.221 I6.132 J-7.9
N15560 G1 Z0.1 F333.33
N15565 G3 Y85.957 I7.899 J-6.132 F250.
N15570 G1 Z0.5
N15575 G3 X191.015 Y84.189 I7.899 J6.132
N15580 G1 Z0.1 F333.33
N15585 G3 X203.279 I6.132 J7.9 F250.
N15590 G1 Z0.5
N15595 G3 X205.046 Y85.957 I-6.132 J7.9
N15600 G1 Z0.1 F333.33
N15605 G3 X207.147 Y92.089 I-7.899 J6.132 F250.
N15610 X206.947 Y92.289 I-0.2 J0.
N15615 G1 X206.747
N15620 G18 G3 X206.547 Z0.3 I0. K0.2
N15625 G0 Z4.5
N15630 Y91.889
N15635 G1 Z1.3 F333.33
N15640 Z0.1
N15645 G2 X206.747 Z-0.1 I0.2 K0. F250.
N15650 G1 X206.947
N15655 G17 G3 X207.147 Y92.089 I0. J0.2
N15660 X205.046 Y98.221 I-10. J0.
N15665 G1 Z0.5
N15670 G3 X203.279 Y99.988 I-7.899 J-6.132
N15675 G1 Z-0.1 F333.33
N15680 G3 X191.015 I-6.132 J-7.9 F250.
N15685 G1 Z0.5
N15690 G3 X189.248 Y98.221 I6.132 J-7.9
N15695 G1 Z-0.1 F333.33
N15700 G3 Y85.957 I7.899 J-6.132 F250.
N15705 G1 Z0.5
N15710 G3 X191.015 Y84.189 I7.899 J6.132
N15715 G1 Z-0.1 F333.33
N15720 G3 X203.279 I6.132 J7.9 F250.
N15725 G1 Z0.5
N15730 G3 X205.046 Y85.957 I-6.132 J7.9
N15735 G1 Z-0.1 F333.33
N15740 G3 X207.147 Y92.089 I-7.899 J6.132 F250.
N15745 X206.947 Y92.289 I-0.2 J0.
N15750 G1 X206.747
N15755 G18 G3 X206.547 Z0.1 I0. K0.2
N15760 G0 Z4.5
N15765 Y91.889
N15770 G1 Z1.1 F333.33
N15775 Z-0.1
N15780 G2 X206.747 Z-0.3 I0.2 K0. F250.
N15785 G1 X206.947
N15790 G17 G3 X207.147 Y92.089 I0. J0.2
N15795 X205.046 Y98.221 I-10. J0.
N15800 G1 Z0.5
N15805 G3 X203.279 Y99.988 I-7.899 J-6.132
N15810 G1 Z-0.3 F333.33
N15815 G3 X191.015 I-6.132 J-7.9 F250.
N15820 G1 Z0.5
N15825 G3 X189.248 Y98.221 I6.132 J-7.9
N15830 G1 Z-0.3 F333.33
N15835 G3 Y85.957 I7.899 J-6.132 F250.
N15840 G1 Z0.5
N15845 G3 X191.015 Y84.189 I7.899 J6.132
N15850 G1 Z-0.3 F333.33
N15855 G3 X203.279 I6.132 J7.9 F250.
N15860 G1 Z0.5
N15865 G3 X205.046 Y85.957 I-6.132 J7.9
N15870 G1 Z-0.3 F333.33
N15875 G3 X207.147 Y92.089 I-7.899 J6.132 F250.
N15880 X206.947 Y92.289 I-0.2 J0.
N15885 G1 X206.747
N15890 G18 G3 X206.547 Z-0.1 I0. K0.2
N15895 G0 Z4.5
N15900 Y91.889
N15905 G1 Z0.9 F333.33
N15910 Z-0.3
N15915 G2 X206.747 Z-0.5 I0.2 K0. F250.
N15920 G1 X206.947
N15925 G17 G3 X207.147 Y92.089 I0. J0.2
N15930 X205.046 Y98.221 I-10. J0.
N15935 G1 Z0.5
N15940 G3 X203.279 Y99.988 I-7.899 J-6.132
N15945 G1 Z-0.5 F333.33
N15950 G3 X191.015 I-6.132 J-7.9 F250.
N15955 G1 Z0.5
N15960 G3 X189.248 Y98.221 I6.132 J-7.9
N15965 G1 Z-0.5 F333.33
N15970 G3 Y85.957 I7.899 J-6.132 F250.
N15975 G1 Z0.5
N15980 G3 X191.015 Y84.189 I7.899 J6.132
N15985 G1 Z-0.5 F333.33
N15990 G3 X203.279 I6.132 J7.9 F250.
N15995 G1 Z0.5
N16000 G3 X205.046 Y85.957 I-6.132 J7.9
N16005 G1 Z-0.5 F333.33
N16010 G3 X207.147 Y92.089 I-7.899 J6.132 F250.
N16015 X206.947 Y92.289 I-0.2 J0.
N16020 G1 X206.747
N16025 G18 G3 X206.547 Z-0.3 I0. K0.2
N16030 G0 Z4.5
N16035 X207.196 Y81.989
N16040 G1 Z2.7 F333.33
N16045 Z1.5
N16050 G2 X207.396 Z1.3 I0.2 K0. F250.
N16055 G1 X207.596
N16060 G17 G3 X207.796 Y82.189 I0. J0.2
N16065 X206.296 I-0.75 J0.
N16070 X207.796 I0.75 J0.
N16075 X207.596 Y82.389 I-0.2 J0.
N16080 G1 X207.396
N16085 G18 G3 X207.196 Z1.5 I0. K0.2
N16090 G0 Z4.5
N16095 Y81.989
N16100 G1 Z2.5 F333.33
N16105 Z1.3
N16110 G2 X207.396 Z1.1 I0.2 K0. F250.
N16115 G1 X207.596
N16120 G17 G3 X207.796 Y82.189 I0. J0.2
N16125 X206.296 I-0.75 J0.
N16130 X207.796 I0.75 J0.
N16135 X207.596 Y82.389 I-0.2 J0.
N16140 G1 X207.396
N16145 G18 G3 X207.196 Z1.3 I0. K0.2
N16150 G0 Z4.5
N16155 Y81.989
N16160 G1 Z2.3 F333.33
N16165 Z1.1
N16170 G2 X207.396 Z0.9 I0.2 K0. F250.
N16175 G1 X207.596
N16180 G17 G3 X207.796 Y82.189 I0. J0.2
N16185 X206.296 I-0.75 J0.
N16190 X207.796 I0.75 J0.
N16195 X207.596 Y82.389 I-0.2 J0.
N16200 G1 X207.396
N16205 G18 G3 X207.196 Z1.1 I0. K0.2
N16210 G0 Z4.5
N16215 Y81.989
N16220 G1 Z2.1 F333.33
N16225 Z0.9
N16230 G2 X207.396 Z0.7 I0.2 K0. F250.
N16235 G1 X207.596
N16240 G17 G3 X207.796 Y82.189 I0. J0.2
N16245 X206.296 I-0.75 J0.
N16250 X207.796 I0.75 J0.
N16255 X207.596 Y82.389 I-0.2 J0.
N16260 G1 X207.396
N16265 G18 G3 X207.196 Z0.9 I0. K0.2
N16270 G0 Z4.5
N16275 Y81.989
N16280 G1 Z1.9 F333.33
N16285 Z0.7
N16290 G2 X207.396 Z0.5 I0.2 K0. F250.
N16295 G1 X207.596
N16300 G17 G3 X207.796 Y82.189 I0. J0.2
N16305 X206.296 I-0.75 J0.
N16310 X207.796 I0.75 J0.
N16315 X207.596 Y82.389 I-0.2 J0.
N16320 G1 X207.396
N16325 G18 G3 X207.196 Z0.7 I0. K0.2
N16330 G0 Z4.5
N16335 Y81.989
N16340 G1 Z1.7 F333.33
N16345 Z0.5
N16350 G2 X207.396 Z0.3 I0.2 K0. F250.
N16355 G1 X207.596
N16360 G17 G3 X207.796 Y82.189 I0. J0.2
N16365 X206.296 I-0.75 J0.
N16370 X207.796 I0.75 J0.
N16375 X207.596 Y82.389 I-0.2 J0.
N16380 G1 X207.396
N16385 G18 G3 X207.196 Z0.5 I0. K0.2
N16390 G0 Z4.5
N16395 Y81.989
N16400 G1 Z1.5 F333.33
N16405 Z0.3
N16410 G2 X207.396 Z0.1 I0.2 K0. F250.
N16415 G1 X207.596
N16420 G17 G3 X207.796 Y82.189 I0. J0.2
N16425 X206.296 I-0.75 J0.
N16430 X207.796 I0.75 J0.
N16435 X207.596 Y82.389 I-0.2 J0.
N16440 G1 X207.396
N16445 G18 G3 X207.196 Z0.3 I0. K0.2
N16450 G0 Z4.5
N16455 Y81.989
N16460 G1 Z1.3 F333.33
N16465 Z0.1
N16470 G2 X207.396 Z-0.1 I0.2 K0. F250.
N16475 G1 X207.596
N16480 G17 G3 X207.796 Y82.189 I0. J0.2
N16485 X206.296 I-0.75 J0.
N16490 X207.796 I0.75 J0.
N16495 X207.596 Y82.389 I-0.2 J0.
N16500 G1 X207.396
N16505 G18 G3 X207.196 Z0.1 I0. K0.2
N16510 G0 Z4.5
N16515 Y81.989
N16520 G1 Z1.1 F333.33
N16525 Z-0.1
N16530 G2 X207.396 Z-0.3 I0.2 K0. F250.
N16535 G1 X207.596
N16540 G17 G3 X207.796 Y82.189 I0. J0.2
N16545 X206.296 I-0.75 J0.
N16550 X207.796 I0.75 J0.
N16555 X207.596 Y82.389 I-0.2 J0.
N16560 G1 X207.396
N16565 G18 G3 X207.196 Z-0.1 I0. K0.2
N16570 G0 Z4.5
N16575 Y81.989
N16580 G1 Z0.9 F333.33
N16585 Z-0.3
N16590 G2 X207.396 Z-0.5 I0.2 K0. F250.
N16595 G1 X207.596
N16600 G17 G3 X207.796 Y82.189 I0. J0.2
N16605 X206.296 I-0.75 J0.
N16610 X207.796 I0.75 J0.
N16615 X207.596 Y82.389 I-0.2 J0.
N16620 G1 X207.396
N16625 G18 G3 X207.196 Z-0.3 I0. K0.2
N16630 G0 Z4.5
N16635 X222.149 Y94.319
N16640 G1 Z2.7 F333.33
N16645 Z1.5
N16650 G2 X222.349 Z1.3 I0.2 K0. F250.
N16655 G1 X222.549
N16660 G17 G3 X222.749 Y94.519 I0. J0.2
N16665 X221.751 I-0.499 J0.
N16670 X222.749 I0.499 J0.
N16675 X222.549 Y94.719 I-0.2 J0.
N16680 G1 X222.349
N16685 G18 G3 X222.149 Z1.5 I0. K0.2
N16690 G0 Z4.5
N16695 Y94.319
N16700 G1 Z2.5 F333.33
N16705 Z1.3
N16710 G2 X222.349 Z1.1 I0.2 K0. F250.
N16715 G1 X222.549
N16720 G17 G3 X222.749 Y94.519 I0. J0.2
N16725 X221.751 I-0.499 J0.
N16730 X222.749 I0.499 J0.
N16735 X222.549 Y94.719 I-0.2 J0.
N16740 G1 X222.349
N16745 G18 G3 X222.149 Z1.3 I0. K0.2
N16750 G0 Z4.5
N16755 Y94.319
N16760 G1 Z2.3 F333.33
N16765 Z1.1
N16770 G2 X222.349 Z0.9 I0.2 K0. F250.
N16775 G1 X222.549
N16780 G17 G3 X222.749 Y94.519 I0. J0.2
N16785 X221.751 I-0.499 J0.
N16790 X222.749 I0.499 J0.
N16795 X222.549 Y94.719 I-0.2 J0.
N16800 G1 X222.349
N16805 G18 G3 X222.149 Z1.1 I0. K0.2
N16810 G0 Z4.5
N16815 Y94.319
N16820 G1 Z2.1 F333.33
N16825 Z0.9
N16830 G2 X222.349 Z0.7 I0.2 K0. F250.
N16835 G1 X222.549
N16840 G17 G3 X222.749 Y94.519 I0. J0.2
N16845 X221.751 I-0.499 J0.
N16850 X222.749 I0.499 J0.
N16855 X222.549 Y94.719 I-0.2 J0.
N16860 G1 X222.349
N16865 G18 G3 X222.149 Z0.9 I0. K0.2
N16870 G0 Z4.5
N16875 Y94.319
N16880 G1 Z1.9 F333.33
N16885 Z0.7
N16890 G2 X222.349 Z0.5 I0.2 K0. F250.
N16895 G1 X222.549
N16900 G17 G3 X222.749 Y94.519 I0. J0.2
N16905 X221.751 I-0.499 J0.
N16910 X222.749 I0.499 J0.
N16915 X222.549 Y94.719 I-0.2 J0.
N16920 G1 X222.349
N16925 G18 G3 X222.149 Z0.7 I0. K0.2
N16930 G0 Z4.5
N16935 Y94.319
N16940 G1 Z1.7 F333.33
N16945 Z0.5
N16950 G2 X222.349 Z0.3 I0.2 K0. F250.
N16955 G1 X222.549
N16960 G17 G3 X222.749 Y94.519 I0. J0.2
N16965 X221.751 I-0.499 J0.
N16970 X222.749 I0.499 J0.
N16975 X222.549 Y94.719 I-0.2 J0.
N16980 G1 X222.349
N16985 G18 G3 X222.149 Z0.5 I0. K0.2
N16990 G0 Z4.5
N16995 Y94.319
N17000 G1 Z1.5 F333.33
N17005 Z0.3
N17010 G2 X222.349 Z0.1 I0.2 K0. F250.
N17015 G1 X222.549
N17020 G17 G3 X222.749 Y94.519 I0. J0.2
N17025 X221.751 I-0.499 J0.
N17030 X222.749 I0.499 J0.
N17035 X222.549 Y94.719 I-0.2 J0.
N17040 G1 X222.349
N17045 G18 G3 X222.149 Z0.3 I0. K0.2
N17050 G0 Z4.5
N17055 Y94.319
N17060 G1 Z1.3 F333.33
N17065 Z0.1
N17070 G2 X222.349 Z-0.1 I0.2 K0. F250.
N17075 G1 X222.549
N17080 G17 G3 X222.749 Y94.519 I0. J0.2
N17085 X221.751 I-0.499 J0.
N17090 X222.749 I0.499 J0.
N17095 X222.549 Y94.719 I-0.2 J0.
N17100 G1 X222.349
N17105 G18 G3 X222.149 Z0.1 I0. K0.2
N17110 G0 Z4.5
N17115 Y94.319
N17120 G1 Z1.1 F333.33
N17125 Z-0.1
N17130 G2 X222.349 Z-0.3 I0.2 K0. F250.
N17135 G1 X222.549
N17140 G17 G3 X222.749 Y94.519 I0. J0.2
N17145 X221.751 I-0.499 J0.
N17150 X222.749 I0.499 J0.
N17155 X222.549 Y94.719 I-0.2 J0.
N17160 G1 X222.349
N17165 G18 G3 X222.149 Z-0.1 I0. K0.2
N17170 G0 Z4.5
N17175 Y94.319
N17180 G1 Z0.9 F333.33
N17185 Z-0.3
N17190 G2 X222.349 Z-0.5 I0.2 K0. F250.
N17195 G1 X222.549
N17200 G17 G3 X222.749 Y94.519 I0. J0.2
N17205 X221.751 I-0.499 J0.
N17210 X222.749 I0.499 J0.
N17215 X222.549 Y94.719 I-0.2 J0.
N17220 G1 X222.349
N17225 G18 G3 X222.149 Z-0.3 I0. K0.2
N17230 G0 Z4.5
N17235 X187.397 Y101.788
N17240 G1 Z2.7 F333.33
N17245 Z1.5
N17250 G2 X187.597 Z1.3 I0.2 K0. F250.
N17255 G1 X187.797
N17260 G17 G3 X187.997 Y101.988 I0. J0.2
N17265 X186.497 I-0.75 J0.
N17270 X187.997 I0.75 J0.
N17275 X187.797 Y102.188 I-0.2 J0.
N17280 G1 X187.597
N17285 G18 G3 X187.397 Z1.5 I0. K0.2
N17290 G0 Z4.5
N17295 Y101.788
N17300 G1 Z2.5 F333.33
N17305 Z1.3
N17310 G2 X187.597 Z1.1 I0.2 K0. F250.
N17315 G1 X187.797
N17320 G17 G3 X187.997 Y101.988 I0. J0.2
N17325 X186.497 I-0.75 J0.
N17330 X187.997 I0.75 J0.
N17335 X187.797 Y102.188 I-0.2 J0.
N17340 G1 X187.597
N17345 G18 G3 X187.397 Z1.3 I0. K0.2
N17350 G0 Z4.5
N17355 Y101.788
N17360 G1 Z2.3 F333.33
N17365 Z1.1
N17370 G2 X187.597 Z0.9 I0.2 K0. F250.
N17375 G1 X187.797
N17380 G17 G3 X187.997 Y101.988 I0. J0.2
N17385 X186.497 I-0.75 J0.
N17390 X187.997 I0.75 J0.
N17395 X187.797 Y102.188 I-0.2 J0.
N17400 G1 X187.597
N17405 G18 G3 X187.397 Z1.1 I0. K0.2
N17410 G0 Z4.5
N17415 Y101.788
N17420 G1 Z2.1 F333.33
N17425 Z0.9
N17430 G2 X187.597 Z0.7 I0.2 K0. F250.
N17435 G1 X187.797
N17440 G17 G3 X187.997 Y101.988 I0. J0.2
N17445 X186.497 I-0.75 J0.
N17450 X187.997 I0.75 J0.
N17455 X187.797 Y102.188 I-0.2 J0.
N17460 G1 X187.597
N17465 G18 G3 X187.397 Z0.9 I0. K0.2
N17470 G0 Z4.5
N17475 Y101.788
N17480 G1 Z1.9 F333.33
N17485 Z0.7
N17490 G2 X187.597 Z0.5 I0.2 K0. F250.
N17495 G1 X187.797
N17500 G17 G3 X187.997 Y101.988 I0. J0.2
N17505 X186.497 I-0.75 J0.
N17510 X187.997 I0.75 J0.
N17515 X187.797 Y102.188 I-0.2 J0.
N17520 G1 X187.597
N17525 G18 G3 X187.397 Z0.7 I0. K0.2
N17530 G0 Z4.5
N17535 Y101.788
N17540 G1 Z1.7 F333.33
N17545 Z0.5
N17550 G2 X187.597 Z0.3 I0.2 K0. F250.
N17555 G1 X187.797
N17560 G17 G3 X187.997 Y101.988 I0. J0.2
N17565 X186.497 I-0.75 J0.
N17570 X187.997 I0.75 J0.
N17575 X187.797 Y102.188 I-0.2 J0.
N17580 G1 X187.597
N17585 G18 G3 X187.397 Z0.5 I0. K0.2
N17590 G0 Z4.5
N17595 Y101.788
N17600 G1 Z1.5 F333.33
N17605 Z0.3
N17610 G2 X187.597 Z0.1 I0.2 K0. F250.
N17615 G1 X187.797
N17620 G17 G3 X187.997 Y101.988 I0. J0.2
N17625 X186.497 I-0.75 J0.
N17630 X187.997 I0.75 J0.
N17635 X187.797 Y102.188 I-0.2 J0.
N17640 G1 X187.597
N17645 G18 G3 X187.397 Z0.3 I0. K0.2
N17650 G0 Z4.5
N17655 Y101.788
N17660 G1 Z1.3 F333.33
N17665 Z0.1
N17670 G2 X187.597 Z-0.1 I0.2 K0. F250.
N17675 G1 X187.797
N17680 G17 G3 X187.997 Y101.988 I0. J0.2
N17685 X186.497 I-0.75 J0.
N17690 X187.997 I0.75 J0.
N17695 X187.797 Y102.188 I-0.2 J0.
N17700 G1 X187.597
N17705 G18 G3 X187.397 Z0.1 I0. K0.2
N17710 G0 Z4.5
N17715 Y101.788
N17720 G1 Z1.1 F333.33
N17725 Z-0.1
N17730 G2 X187.597 Z-0.3 I0.2 K0. F250.
N17735 G1 X187.797
N17740 G17 G3 X187.997 Y101.988 I0. J0.2
N17745 X186.497 I-0.75 J0.
N17750 X187.997 I0.75 J0.
N17755 X187.797 Y102.188 I-0.2 J0.
N17760 G1 X187.597
N17765 G18 G3 X187.397 Z-0.1 I0. K0.2
N17770 G0 Z4.5
N17775 Y101.788
N17780 G1 Z0.9 F333.33
N17785 Z-0.3
N17790 G2 X187.597 Z-0.5 I0.2 K0. F250.
N17795 G1 X187.797
N17800 G17 G3 X187.997 Y101.988 I0. J0.2
N17805 X186.497 I-0.75 J0.
N17810 X187.997 I0.75 J0.
N17815 X187.797 Y102.188 I-0.2 J0.
N17820 G1 X187.597
N17825 G18 G3 X187.397 Z-0.3 I0. K0.2
N17830 G0 Z4.5
N17835 X171.549 Y92.154
N17840 G1 Z2.7 F333.33
N17845 Z1.5
N17850 X171.556 Z1.448 F250.
N17855 X171.576 Y92.155 Z1.4
N17860 X171.607 Z1.359
N17865 X171.649 Y92.157 Z1.327
N17870 X171.697 Y92.158 Z1.307
N17875 X171.749 Y92.159 Z1.3
N17880 X171.949 Y92.165
N17885 G17 G3 X172.143 Y92.371 I-0.006 J0.2
N17890 X152.151 Y91.807 I-9.996 J-0.282
N17895 X172.143 Y92.371 I9.996 J0.282
N17900 X171.937 Y92.565 I-0.2 J-0.006
N17905 G1 X171.738 Y92.559
N17910 X171.686 Y92.558 Z1.307
N17915 X171.638 Y92.556 Z1.327
N17920 X171.596 Y92.555 Z1.359
N17925 X171.564 Y92.554 Z1.4
N17930 X171.544 Z1.448
N17935 X171.538 Z1.5
N17940 G0 Z4.5
N17945 X171.549 Y92.154
N17950 G1 Z2.5 F333.33
N17955 Z1.3
N17960 X171.556 Z1.248 F250.
N17965 X171.576 Y92.155 Z1.2
N17970 X171.607 Z1.159
N17975 X171.649 Y92.157 Z1.127
N17980 X171.697 Y92.158 Z1.107
N17985 X171.749 Y92.159 Z1.1
N17990 X171.949 Y92.165
N17995 G3 X172.143 Y92.371 I-0.006 J0.2
N18000 X152.151 Y91.807 I-9.996 J-0.282
N18005 X172.143 Y92.371 I9.996 J0.282
N18010 X171.937 Y92.565 I-0.2 J-0.006
N18015 G1 X171.738 Y92.559
N18020 X171.686 Y92.558 Z1.107
N18025 X171.638 Y92.556 Z1.127
N18030 X171.596 Y92.555 Z1.159
N18035 X171.564 Y92.554 Z1.2
N18040 X171.544 Z1.248
N18045 X171.538 Z1.3
N18050 G0 Z4.5
N18055 X171.549 Y92.154
N18060 G1 Z2.3 F333.33
N18065 Z1.1
N18070 X171.556 Z1.048 F250.
N18075 X171.576 Y92.155 Z1.
N18080 X171.607 Z0.959
N18085 X171.649 Y92.157 Z0.927
N18090 X171.697 Y92.158 Z0.907
N18095 X171.749 Y92.159 Z0.9
N18100 X171.949 Y92.165
N18105 G3 X172.143 Y92.371 I-0.006 J0.2
N18110 X152.151 Y91.807 I-9.996 J-0.282
N18115 X172.143 Y92.371 I9.996 J0.282
N18120 X171.937 Y92.565 I-0.2 J-0.006
N18125 G1 X171.738 Y92.559
N18130 X171.686 Y92.558 Z0.907
N18135 X171.638 Y92.556 Z0.927
N18140 X171.596 Y92.555 Z0.959
N18145 X171.564 Y92.554 Z1.
N18150 X171.544 Z1.048
N18155 X171.538 Z1.1
N18160 G0 Z4.5
N18165 X171.549 Y92.154
N18170 G1 Z2.1 F333.33
N18175 Z0.9
N18180 X171.556 Z0.848 F250.
N18185 X171.576 Y92.155 Z0.8
N18190 X171.607 Z0.759
N18195 X171.649 Y92.157 Z0.727
N18200 X171.697 Y92.158 Z0.707
N18205 X171.749 Y92.159 Z0.7
N18210 X171.949 Y92.165
N18215 G3 X172.143 Y92.371 I-0.006 J0.2
N18220 X152.151 Y91.807 I-9.996 J-0.282
N18225 X172.143 Y92.371 I9.996 J0.282
N18230 X171.937 Y92.565 I-0.2 J-0.006
N18235 G1 X171.738 Y92.559
N18240 X171.686 Y92.558 Z0.707
N18245 X171.638 Y92.556 Z0.727
N18250 X171.596 Y92.555 Z0.759
N18255 X171.564 Y92.554 Z0.8
N18260 X171.544 Z0.848
N18265 X171.538 Z0.9
N18270 G0 Z4.5
N18275 X171.549 Y92.154
N18280 G1 Z1.9 F333.33
N18285 Z0.7
N18290 X171.556 Z0.648 F250.
N18295 X171.576 Y92.155 Z0.6
N18300 X171.607 Z0.559
N18305 X171.649 Y92.157 Z0.527
N18310 X171.697 Y92.158 Z0.507
N18315 X171.749 Y92.159 Z0.5
N18320 X171.949 Y92.165
N18325 G3 X172.143 Y92.371 I-0.006 J0.2
N18330 X152.151 Y91.807 I-9.996 J-0.282
N18335 X172.143 Y92.371 I9.996 J0.282
N18340 X171.937 Y92.565 I-0.2 J-0.006
N18345 G1 X171.738 Y92.559
N18350 X171.686 Y92.558 Z0.507
N18355 X171.638 Y92.556 Z0.527
N18360 X171.596 Y92.555 Z0.559
N18365 X171.564 Y92.554 Z0.6
N18370 X171.544 Z0.648
N18375 X171.538 Z0.7
N18380 G0 Z4.5
N18385 X171.549 Y92.154
N18390 G1 Z1.7 F333.33
N18395 Z0.5
N18400 X171.556 Z0.448 F250.
N18405 X171.576 Y92.155 Z0.4
N18410 X171.607 Z0.359
N18415 X171.649 Y92.157 Z0.327
N18420 X171.697 Y92.158 Z0.307
N18425 X171.749 Y92.159 Z0.3
N18430 X171.949 Y92.165
N18435 G3 X172.143 Y92.371 I-0.006 J0.2
N18440 X170.046 Y98.221 I-9.996 J-0.282
N18445 G1 Z0.5
N18450 G3 X168.279 Y99.988 I-7.899 J-6.132
N18455 G1 Z0.3 F333.33
N18460 G3 X156.015 I-6.132 J-7.9 F250.
N18465 G1 Z0.5
N18470 G3 X154.248 Y98.221 I6.132 J-7.9
N18475 G1 Z0.3 F333.33
N18480 G3 Y85.957 I7.899 J-6.132 F250.
N18485 G1 Z0.5
N18490 G3 X156.015 Y84.189 I7.899 J6.132
N18495 G1 Z0.3 F333.33
N18500 G3 X168.279 I6.132 J7.9 F250.
N18505 G1 Z0.5
N18510 G3 X170.046 Y85.957 I-6.132 J7.9
N18515 G1 Z0.3 F333.33
N18520 G3 X172.143 Y92.371 I-7.899 J6.132 F250.
N18525 X171.937 Y92.565 I-0.2 J-0.006
N18530 G1 X171.738 Y92.559
N18535 X171.686 Y92.558 Z0.307
N18540 X171.638 Y92.556 Z0.327
N18545 X171.596 Y92.555 Z0.359
N18550 X171.564 Y92.554 Z0.4
N18555 X171.544 Z0.448
N18560 X171.538 Z0.5
N18565 G0 Z4.5
N18570 X171.549 Y92.154
N18575 G1 Z1.5 F333.33
N18580 Z0.3
N18585 X171.556 Z0.248 F250.
N18590 X171.576 Y92.155 Z0.2
N18595 X171.607 Z0.159
N18600 X171.649 Y92.157 Z0.127
N18605 X171.697 Y92.158 Z0.107
N18610 X171.749 Y92.159 Z0.1
N18615 X171.949 Y92.165
N18620 G3 X172.143 Y92.371 I-0.006 J0.2
N18625 X170.046 Y98.221 I-9.996 J-0.282
N18630 G1 Z0.5
N18635 G3 X168.279 Y99.988 I-7.899 J-6.132
N18640 G1 Z0.1 F333.33
N18645 G3 X156.015 I-6.132 J-7.9 F250.
N18650 G1 Z0.5
N18655 G3 X154.248 Y98.221 I6.132 J-7.9
N18660 G1 Z0.1 F333.33
N18665 G3 Y85.957 I7.899 J-6.132 F250.
N18670 G1 Z0.5
N18675 G3 X156.015 Y84.189 I7.899 J6.132
N18680 G1 Z0.1 F333.33
N18685 G3 X168.279 I6.132 J7.9 F250.
N18690 G1 Z0.5
N18695 G3 X170.046 Y85.957 I-6.132 J7.9
N18700 G1 Z0.1 F333.33
N18705 G3 X172.143 Y92.371 I-7.899 J6.132 F250.
N18710 X171.937 Y92.565 I-0.2 J-0.006
N18715 G1 X171.738 Y92.559
N18720 X171.686 Y92.558 Z0.107
N18725 X171.638 Y92.556 Z0.127
N18730 X171.596 Y92.555 Z0.159
N18735 X171.564 Y92.554 Z0.2
N18740 X171.544 Z0.248
N18745 X171.538 Z0.3
N18750 G0 Z4.5
N18755 X171.549 Y92.154
N18760 G1 Z1.3 F333.33
N18765 Z0.1
N18770 X171.556 Z0.048 F250.
N18775 X171.576 Y92.155 Z0.
N18780 X171.607 Z-0.041
N18785 X171.649 Y92.157 Z-0.073
N18790 X171.697 Y92.158 Z-0.093
N18795 X171.749 Y92.159 Z-0.1
N18800 X171.949 Y92.165
N18805 G3 X172.143 Y92.371 I-0.006 J0.2
N18810 X170.046 Y98.221 I-9.996 J-0.282
N18815 G1 Z0.5
N18820 G3 X168.279 Y99.988 I-7.899 J-6.132
N18825 G1 Z-0.1 F333.33
N18830 G3 X156.015 I-6.132 J-7.9 F250.
N18835 G1 Z0.5
N18840 G3 X154.248 Y98.221 I6.132 J-7.9
N18845 G1 Z-0.1 F333.33
N18850 G3 Y85.957 I7.899 J-6.132 F250.
N18855 G1 Z0.5
N18860 G3 X156.015 Y84.189 I7.899 J6.132
N18865 G1 Z-0.1 F333.33
N18870 G3 X168.279 I6.132 J7.9 F250.
N18875 G1 Z0.5
N18880 G3 X170.046 Y85.957 I-6.132 J7.9
N18885 G1 Z-0.1 F333.33
N18890 G3 X172.143 Y92.371 I-7.899 J6.132 F250.
N18895 X171.937 Y92.565 I-0.2 J-0.006
N18900 G1 X171.738 Y92.559
N18905 X171.686 Y92.558 Z-0.093
N18910 X171.638 Y92.556 Z-0.073
N18915 X171.596 Y92.555 Z-0.041
N18920 X171.564 Y92.554 Z0.
N18925 X171.544 Z0.048
N18930 X171.538 Z0.1
N18935 G0 Z4.5
N18940 X171.549 Y92.154
N18945 G1 Z1.1 F333.33
N18950 Z-0.1
N18955 X171.556 Z-0.152 F250.
N18960 X171.576 Y92.155 Z-0.2
N18965 X171.607 Z-0.241
N18970 X171.649 Y92.157 Z-0.273
N18975 X171.697 Y92.158 Z-0.293
N18980 X171.749 Y92.159 Z-0.3
N18985 X171.949 Y92.165
N18990 G3 X172.143 Y92.371 I-0.006 J0.2
N18995 X170.046 Y98.221 I-9.996 J-0.282
N19000 G1 Z0.5
N19005 G3 X168.279 Y99.988 I-7.899 J-6.132
N19010 G1 Z-0.3 F333.33
N19015 G3 X156.015 I-6.132 J-7.9 F250.
N19020 G1 Z0.5
N19025 G3 X154.248 Y98.221 I6.132 J-7.9
N19030 G1 Z-0.3 F333.33
N19035 G3 Y85.957 I7.899 J-6.132 F250.
N19040 G1 Z0.5
N19045 G3 X156.015 Y84.189 I7.899 J6.132
N19050 G1 Z-0.3 F333.33
N19055 G3 X168.279 I6.132 J7.9 F250.
