%
(STAB_OUTER)
(MACHINE)
(  VENDOR PLANETCNC)
(  DESCRIPTION CNC 4030)
(T1  D=2. CR=0. - ZMIN=-0.5 - FLAT END MILL)
N10 G90 G94 G17 G91.1
N15 G21
(2D CONTOUR6)
N20 T1 M6
N25 S12000 M3
N30 G54
N35 G0 X235.2 Y-1.6
N40 G43 Z11.5 H1
N45 G0 Z6.5
N50 G1 Z2.7 F333.33
N55 Z1.5
N60 G19 G3 Y-1.4 Z1.3 J0.2 K0. F250.
N65 G1 Y-1.2
N70 G17 G3 X235. Y-1. I-0.2 J0.
N75 G1 X0.
N80 G2 X-1. Y0. I0. J1.
N85 G1 Y112.
N90 G2 X0. Y113. I1. J0.
N95 G1 X235.
N100 G2 X236. Y112. I0. J-1.
N105 G1 Y0.
N110 G2 X235. Y-1. I-1. J0.
N115 G3 X234.8 Y-1.2 I0. J-0.2
N120 G1 Y-1.4
N125 G19 G2 Y-1.6 Z1.5 J0. K0.2
N130 G0 Z6.5
N135 X235.2
N140 G1 Z2.5 F333.33
N145 Z1.3
N150 G3 Y-1.4 Z1.1 J0.2 K0. F250.
N155 G1 Y-1.2
N160 G17 G3 X235. Y-1. I-0.2 J0.
N165 G1 X0.
N170 G2 X-1. Y0. I0. J1.
N175 G1 Y112.
N180 G2 X0. Y113. I1. J0.
N185 G1 X235.
N190 G2 X236. Y112. I0. J-1.
N195 G1 Y0.
N200 G2 X235. Y-1. I-1. J0.
N205 G3 X234.8 Y-1.2 I0. J-0.2
N210 G1 Y-1.4
N215 G19 G2 Y-1.6 Z1.3 J0. K0.2
N220 G0 Z6.5
N225 X235.2
N230 G1 Z2.3 F333.33
N235 Z1.1
N240 G3 Y-1.4 Z0.9 J0.2 K0. F250.
N245 G1 Y-1.2
N250 G17 G3 X235. Y-1. I-0.2 J0.
N255 G1 X0.
N260 G2 X-1. Y0. I0. J1.
N265 G1 Y112.
N270 G2 X0. Y113. I1. J0.
N275 G1 X235.
N280 G2 X236. Y112. I0. J-1.
N285 G1 Y0.
N290 G2 X235. Y-1. I-1. J0.
N295 G3 X234.8 Y-1.2 I0. J-0.2
N300 G1 Y-1.4
N305 G19 G2 Y-1.6 Z1.1 J0. K0.2
N310 G0 Z6.5
N315 X235.2
N320 G1 Z2.1 F333.33
N325 Z0.9
N330 G3 Y-1.4 Z0.7 J0.2 K0. F250.
N335 G1 Y-1.2
N340 G17 G3 X235. Y-1. I-0.2 J0.
N345 G1 X0.
N350 G2 X-1. Y0. I0. J1.
N355 G1 Y112.
N360 G2 X0. Y113. I1. J0.
N365 G1 X235.
N370 G2 X236. Y112. I0. J-1.
N375 G1 Y0.
N380 G2 X235. Y-1. I-1. J0.
N385 G3 X234.8 Y-1.2 I0. J-0.2
N390 G1 Y-1.4
N395 G19 G2 Y-1.6 Z0.9 J0. K0.2
N400 G0 Z6.5
N405 X235.2
N410 G1 Z1.9 F333.33
N415 Z0.7
N420 G3 Y-1.4 Z0.5 J0.2 K0. F250.
N425 G1 Y-1.2
N430 G17 G3 X235. Y-1. I-0.2 J0.
N435 G1 X0.
N440 G2 X-1. Y0. I0. J1.
N445 G1 Y112.
N450 G2 X0. Y113. I1. J0.
N455 G1 X235.
N460 G2 X236. Y112. I0. J-1.
N465 G1 Y0.
N470 G2 X235. Y-1. I-1. J0.
N475 G3 X234.8 Y-1.2 I0. J-0.2
N480 G1 Y-1.4
N485 G19 G2 Y-1.6 Z0.7 J0. K0.2
N490 G0 Z6.5
N495 X235.2
N500 G1 Z1.7 F333.33
N505 Z0.5
N510 G3 Y-1.4 Z0.3 J0.2 K0. F250.
N515 G1 Y-1.2
N520 G17 G3 X235. Y-1. I-0.2 J0.
N525 G1 X216.667
N530 Z0.5
N535 X214.167
N540 Z0.3 F333.33
N545 X177.5 F250.
N550 Z0.5
N555 X175.
N560 Z0.3 F333.33
N565 X138.333 F250.
N570 Z0.5
N575 X135.833
N580 Z0.3 F333.33
N585 X99.167 F250.
N590 Z0.5
N595 X96.667
N600 Z0.3 F333.33
N605 X60. F250.
N610 Z0.5
N615 X57.5
N620 Z0.3 F333.33
N625 X20.833 F250.
N630 Z0.5
N635 X18.333
N640 Z0.3 F333.33
N645 X0. F250.
N650 G2 X-1. Y0. I0. J1.
N655 G1 Y17.417
N660 Z0.5
N665 Y19.917
N670 Z0.3 F333.33
N675 Y54.75 F250.
N680 Z0.5
N685 Y57.25
N690 Z0.3 F333.33
N695 Y92.083 F250.
N700 Z0.5
N705 Y94.583
N710 Z0.3 F333.33
N715 Y112. F250.
N720 G2 X0. Y113. I1. J0.
N725 G1 X18.333
N730 Z0.5
N735 X20.833
N740 Z0.3 F333.33
N745 X57.5 F250.
N750 Z0.5
N755 X60.
N760 Z0.3 F333.33
N765 X96.667 F250.
N770 Z0.5
N775 X99.167
N780 Z0.3 F333.33
N785 X135.833 F250.
N790 Z0.5
N795 X138.333
N800 Z0.3 F333.33
N805 X175. F250.
N810 Z0.5
N815 X177.5
N820 Z0.3 F333.33
N825 X214.167 F250.
N830 Z0.5
N835 X216.667
N840 Z0.3 F333.33
N845 X235. F250.
N850 G2 X236. Y112. I0. J-1.
N855 G1 Y94.583
N860 Z0.5
N865 Y92.083
N870 Z0.3 F333.33
N875 Y57.25 F250.
N880 Z0.5
N885 Y54.75
N890 Z0.3 F333.33
N895 Y19.917 F250.
N900 Z0.5
N905 Y17.417
N910 Z0.3 F333.33
N915 Y0. F250.
N920 G2 X235. Y-1. I-1. J0.
N925 G3 X234.8 Y-1.2 I0. J-0.2
N930 G1 Y-1.4
N935 G19 G2 Y-1.6 Z0.5 J0. K0.2
N940 G0 Z6.5
N945 X235.2
N950 G1 Z1.5 F333.33
N955 Z0.3
N960 G3 Y-1.4 Z0.1 J0.2 K0. F250.
N965 G1 Y-1.2
N970 G17 G3 X235. Y-1. I-0.2 J0.
N975 G1 X216.667
N980 Z0.5
N985 X214.167
N990 Z0.1 F333.33
N995 X177.5 F250.
N1000 Z0.5
N1005 X175.
N1010 Z0.1 F333.33
N1015 X138.333 F250.
N1020 Z0.5
N1025 X135.833
N1030 Z0.1 F333.33
N1035 X99.167 F250.
N1040 Z0.5
N1045 X96.667
N1050 Z0.1 F333.33
N1055 X60. F250.
N1060 Z0.5
N1065 X57.5
N1070 Z0.1 F333.33
N1075 X20.833 F250.
N1080 Z0.5
N1085 X18.333
N1090 Z0.1 F333.33
N1095 X0. F250.
N1100 G2 X-1. Y0. I0. J1.
N1105 G1 Y17.417
N1110 Z0.5
N1115 Y19.917
N1120 Z0.1 F333.33
N1125 Y54.75 F250.
N1130 Z0.5
N1135 Y57.25
N1140 Z0.1 F333.33
N1145 Y92.083 F250.
N1150 Z0.5
N1155 Y94.583
N1160 Z0.1 F333.33
N1165 Y112. F250.
N1170 G2 X0. Y113. I1. J0.
N1175 G1 X18.333
N1180 Z0.5
N1185 X20.833
N1190 Z0.1 F333.33
N1195 X57.5 F250.
N1200 Z0.5
N1205 X60.
N1210 Z0.1 F333.33
N1215 X96.667 F250.
N1220 Z0.5
N1225 X99.167
N1230 Z0.1 F333.33
N1235 X135.833 F250.
N1240 Z0.5
N1245 X138.333
N1250 Z0.1 F333.33
N1255 X175. F250.
N1260 Z0.5
N1265 X177.5
N1270 Z0.1 F333.33
N1275 X214.167 F250.
N1280 Z0.5
N1285 X216.667
N1290 Z0.1 F333.33
N1295 X235. F250.
N1300 G2 X236. Y112. I0. J-1.
N1305 G1 Y94.583
N1310 Z0.5
N1315 Y92.083
N1320 Z0.1 F333.33
N1325 Y57.25 F250.
N1330 Z0.5
N1335 Y54.75
N1340 Z0.1 F333.33
N1345 Y19.917 F250.
N1350 Z0.5
N1355 Y17.417
N1360 Z0.1 F333.33
N1365 Y0. F250.
N1370 G2 X235. Y-1. I-1. J0.
N1375 G3 X234.8 Y-1.2 I0. J-0.2
N1380 G1 Y-1.4
N1385 G19 G2 Y-1.6 Z0.3 J0. K0.2
N1390 G0 Z6.5
N1395 X235.2
N1400 G1 Z1.3 F333.33
N1405 Z0.1
N1410 G3 Y-1.4 Z-0.1 J0.2 K0. F250.
N1415 G1 Y-1.2
N1420 G17 G3 X235. Y-1. I-0.2 J0.
N1425 G1 X216.667
N1430 Z0.5
N1435 X214.167
N1440 Z-0.1 F333.33
N1445 X177.5 F250.
N1450 Z0.5
N1455 X175.
N1460 Z-0.1 F333.33
N1465 X138.333 F250.
N1470 Z0.5
N1475 X135.833
N1480 Z-0.1 F333.33
N1485 X99.167 F250.
N1490 Z0.5
N1495 X96.667
N1500 Z-0.1 F333.33
N1505 X60. F250.
N1510 Z0.5
N1515 X57.5
N1520 Z-0.1 F333.33
N1525 X20.833 F250.
N1530 Z0.5
N1535 X18.333
N1540 Z-0.1 F333.33
N1545 X0. F250.
N1550 G2 X-1. Y0. I0. J1.
N1555 G1 Y17.417
N1560 Z0.5
N1565 Y19.917
N1570 Z-0.1 F333.33
N1575 Y54.75 F250.
N1580 Z0.5
N1585 Y57.25
N1590 Z-0.1 F333.33
N1595 Y92.083 F250.
N1600 Z0.5
N1605 Y94.583
N1610 Z-0.1 F333.33
N1615 Y112. F250.
N1620 G2 X0. Y113. I1. J0.
N1625 G1 X18.333
N1630 Z0.5
N1635 X20.833
N1640 Z-0.1 F333.33
N1645 X57.5 F250.
N1650 Z0.5
N1655 X60.
N1660 Z-0.1 F333.33
N1665 X96.667 F250.
N1670 Z0.5
N1675 X99.167
N1680 Z-0.1 F333.33
N1685 X135.833 F250.
N1690 Z0.5
N1695 X138.333
N1700 Z-0.1 F333.33
N1705 X175. F250.
N1710 Z0.5
N1715 X177.5
N1720 Z-0.1 F333.33
N1725 X214.167 F250.
N1730 Z0.5
N1735 X216.667
N1740 Z-0.1 F333.33
N1745 X235. F250.
N1750 G2 X236. Y112. I0. J-1.
N1755 G1 Y94.583
N1760 Z0.5
N1765 Y92.083
N1770 Z-0.1 F333.33
N1775 Y57.25 F250.
N1780 Z0.5
N1785 Y54.75
N1790 Z-0.1 F333.33
N1795 Y19.917 F250.
N1800 Z0.5
N1805 Y17.417
N1810 Z-0.1 F333.33
N1815 Y0. F250.
N1820 G2 X235. Y-1. I-1. J0.
N1825 G3 X234.8 Y-1.2 I0. J-0.2
N1830 G1 Y-1.4
N1835 G19 G2 Y-1.6 Z0.1 J0. K0.2
N1840 G0 Z6.5
N1845 X235.2
N1850 G1 Z1.1 F333.33
N1855 Z-0.1
N1860 G3 Y-1.4 Z-0.3 J0.2 K0. F250.
N1865 G1 Y-1.2
N1870 G17 G3 X235. Y-1. I-0.2 J0.
N1875 G1 X216.667
N1880 Z0.5
N1885 X214.167
N1890 Z-0.3 F333.33
N1895 X177.5 F250.
N1900 Z0.5
N1905 X175.
N1910 Z-0.3 F333.33
N1915 X138.333 F250.
N1920 Z0.5
N1925 X135.833
N1930 Z-0.3 F333.33
N1935 X99.167 F250.
N1940 Z0.5
N1945 X96.667
N1950 Z-0.3 F333.33
N1955 X60. F250.
N1960 Z0.5
N1965 X57.5
N1970 Z-0.3 F333.33
N1975 X20.833 F250.
N1980 Z0.5
N1985 X18.333
N1990 Z-0.3 F333.33
N1995 X0. F250.
N2000 G2 X-1. Y0. I0. J1.
N2005 G1 Y17.417
N2010 Z0.5
N2015 Y19.917
N2020 Z-0.3 F333.33
N2025 Y54.75 F250.
N2030 Z0.5
N2035 Y57.25
N2040 Z-0.3 F333.33
N2045 Y92.083 F250.
N2050 Z0.5
N2055 Y94.583
N2060 Z-0.3 F333.33
N2065 Y112. F250.
N2070 G2 X0. Y113. I1. J0.
N2075 G1 X18.333
N2080 Z0.5
N2085 X20.833
N2090 Z-0.3 F333.33
N2095 X57.5 F250.
N2100 Z0.5
N2105 X60.
N2110 Z-0.3 F333.33
N2115 X96.667 F250.
N2120 Z0.5
N2125 X99.167
N2130 Z-0.3 F333.33
N2135 X135.833 F250.
N2140 Z0.5
N2145 X138.333
N2150 Z-0.3 F333.33
N2155 X175. F250.
N2160 Z0.5
N2165 X177.5
N2170 Z-0.3 F333.33
N2175 X214.167 F250.
N2180 Z0.5
N2185 X216.667
N2190 Z-0.3 F333.33
N2195 X235. F250.
N2200 G2 X236. Y112. I0. J-1.
N2205 G1 Y94.583
N2210 Z0.5
N2215 Y92.083
N2220 Z-0.3 F333.33
N2225 Y57.25 F250.
N2230 Z0.5
N2235 Y54.75
N2240 Z-0.3 F333.33
N2245 Y19.917 F250.
N2250 Z0.5
N2255 Y17.417
N2260 Z-0.3 F333.33
N2265 Y0. F250.
N2270 G2 X235. Y-1. I-1. J0.
N2275 G3 X234.8 Y-1.2 I0. J-0.2
N2280 G1 Y-1.4
N2285 G19 G2 Y-1.6 Z-0.1 J0. K0.2
N2290 G0 Z6.5
N2295 X235.2
N2300 G1 Z0.9 F333.33
N2305 Z-0.3
N2310 G3 Y-1.4 Z-0.5 J0.2 K0. F250.
N2315 G1 Y-1.2
N2320 G17 G3 X235. Y-1. I-0.2 J0.
N2325 G1 X216.667
N2330 Z0.5
N2335 X214.167
N2340 Z-0.5 F333.33
N2345 X177.5 F250.
N2350 Z0.5
N2355 X175.
N2360 Z-0.5 F333.33
N2365 X138.333 F250.
N2370 Z0.5
N2375 X135.833
N2380 Z-0.5 F333.33
N2385 X99.167 F250.
N2390 Z0.5
N2395 X96.667
N2400 Z-0.5 F333.33
N2405 X60. F250.
N2410 Z0.5
N2415 X57.5
N2420 Z-0.5 F333.33
N2425 X20.833 F250.
N2430 Z0.5
N2435 X18.333
N2440 Z-0.5 F333.33
N2445 X0. F250.
N2450 G2 X-1. Y0. I0. J1.
N2455 G1 Y17.417
N2460 Z0.5
N2465 Y19.917
N2470 Z-0.5 F333.33
N2475 Y54.75 F250.
N2480 Z0.5
N2485 Y57.25
N2490 Z-0.5 F333.33
N2495 Y92.083 F250.
N2500 Z0.5
N2505 Y94.583
N2510 Z-0.5 F333.33
N2515 Y112. F250.
N2520 G2 X0. Y113. I1. J0.
N2525 G1 X18.333
N2530 Z0.5
N2535 X20.833
N2540 Z-0.5 F333.33
N2545 X57.5 F250.
N2550 Z0.5
N2555 X60.
N2560 Z-0.5 F333.33
N2565 X96.667 F250.
N2570 Z0.5
N2575 X99.167
N2580 Z-0.5 F333.33
N2585 X135.833 F250.
N2590 Z0.5
N2595 X138.333
N2600 Z-0.5 F333.33
N2605 X175. F250.
N2610 Z0.5
N2615 X177.5
N2620 Z-0.5 F333.33
N2625 X214.167 F250.
N2630 Z0.5
N2635 X216.667
N2640 Z-0.5 F333.33
N2645 X235. F250.
N2650 G2 X236. Y112. I0. J-1.
N2655 G1 Y94.583
N2660 Z0.5
N2665 Y92.083
N2670 Z-0.5 F333.33
N2675 Y57.25 F250.
N2680 Z0.5
N2685 Y54.75
N2690 Z-0.5 F333.33
N2695 Y19.917 F250.
N2700 Z0.5
N2705 Y17.417
N2710 Z-0.5 F333.33
N2715 Y0. F250.
N2720 G2 X235. Y-1. I-1. J0.
N2725 G3 X234.8 Y-1.2 I0. J-0.2
N2730 G1 Y-1.4
N2735 G19 G2 Y-1.6 Z-0.3 J0. K0.2
N2740 G0 Z11.5
N2745 G17
N2750 M30
%
