%
(TUBES_OUTER)
(MACHINE)
(  VENDOR PLANETCNC)
(  DESCRIPTION CNC 4030)
(T1  D=2. CR=0. - ZMIN=0. - FLAT END MILL)
N10 G90 G94 G17 G91.1
N15 G21
(2D CONTOUR2)
N20 T1 M6
N25 S12000 M3
N30 G54
N35 G0 X234.2 Y-1.6
N40 G43 Z11.5 H1
N45 G0 Z6.5
N50 G1 Z2.7 F333.33
N55 Z1.5
N60 G19 G3 Y-1.4 Z1.3 J0.2 K0. F250.
N65 G1 Y-1.2
N70 G17 G3 X234. Y-1. I-0.2 J0.
N75 G1 X0.
N80 G2 X-1. Y0. I0. J1.
N85 G1 Y112.
N90 G2 X0. Y113. I1. J0.
N95 G1 X234.
N100 G2 X235. Y112. I0. J-1.
N105 G1 Y0.
N110 G2 X234. Y-1. I-1. J0.
N115 G3 X233.8 Y-1.2 I0. J-0.2
N120 G1 Y-1.4
N125 G19 G2 Y-1.6 Z1.5 J0. K0.2
N130 G0 Z6.5
N135 X234.2
N140 G1 Z2.5 F333.33
N145 Z1.3
N150 G3 Y-1.4 Z1.1 J0.2 K0. F250.
N155 G1 Y-1.2
N160 G17 G3 X234. Y-1. I-0.2 J0.
N165 G1 X0.
N170 G2 X-1. Y0. I0. J1.
N175 G1 Y112.
N180 G2 X0. Y113. I1. J0.
N185 G1 X234.
N190 G2 X235. Y112. I0. J-1.
N195 G1 Y0.
N200 G2 X234. Y-1. I-1. J0.
N205 G3 X233.8 Y-1.2 I0. J-0.2
N210 G1 Y-1.4
N215 G19 G2 Y-1.6 Z1.3 J0. K0.2
N220 G0 Z6.5
N225 X234.2
N230 G1 Z2.3 F333.33
N235 Z1.1
N240 G3 Y-1.4 Z0.9 J0.2 K0. F250.
N245 G1 Y-1.2
N250 G17 G3 X234. Y-1. I-0.2 J0.
N255 G1 X0.
N260 G2 X-1. Y0. I0. J1.
N265 G1 Y112.
N270 G2 X0. Y113. I1. J0.
N275 G1 X234.
N280 G2 X235. Y112. I0. J-1.
N285 G1 Y0.
N290 G2 X234. Y-1. I-1. J0.
N295 G3 X233.8 Y-1.2 I0. J-0.2
N300 G1 Y-1.4
N305 G19 G2 Y-1.6 Z1.1 J0. K0.2
N310 G0 Z6.5
N315 X234.2
N320 G1 Z2.1 F333.33
N325 Z0.9
N330 G3 Y-1.4 Z0.7 J0.2 K0. F250.
N335 G1 Y-1.2
N340 G17 G3 X234. Y-1. I-0.2 J0.
N345 G1 X0.
N350 G2 X-1. Y0. I0. J1.
N355 G1 Y112.
N360 G2 X0. Y113. I1. J0.
N365 G1 X234.
N370 G2 X235. Y112. I0. J-1.
N375 G1 Y0.
N380 G2 X234. Y-1. I-1. J0.
N385 G3 X233.8 Y-1.2 I0. J-0.2
N390 G1 Y-1.4
N395 G19 G2 Y-1.6 Z0.9 J0. K0.2
N400 G0 Z6.5
N405 X234.2
N410 G1 Z1.9 F333.33
N415 Z0.7
N420 G3 Y-1.4 Z0.5 J0.2 K0. F250.
N425 G1 Y-1.2
N430 G17 G3 X234. Y-1. I-0.2 J0.
N435 G1 X0.
N440 G2 X-1. Y0. I0. J1.
N445 G1 Y112.
N450 G2 X0. Y113. I1. J0.
N455 G1 X234.
N460 G2 X235. Y112. I0. J-1.
N465 G1 Y0.
N470 G2 X234. Y-1. I-1. J0.
N475 G3 X233.8 Y-1.2 I0. J-0.2
N480 G1 Y-1.4
N485 G19 G2 Y-1.6 Z0.7 J0. K0.2
N490 G0 Z6.5
N495 X234.2
N500 G1 Z1.7 F333.33
N505 Z0.5
N510 G3 Y-1.4 Z0.3 J0.2 K0. F250.
N515 G1 Y-1.2
N520 G17 G3 X234. Y-1. I-0.2 J0.
N525 G1 X0.
N530 G2 X-1. Y0. I0. J1.
N535 G1 Y112.
N540 G2 X0. Y113. I1. J0.
N545 G1 X234.
N550 G2 X235. Y112. I0. J-1.
N555 G1 Y0.
N560 G2 X234. Y-1. I-1. J0.
N565 G3 X233.8 Y-1.2 I0. J-0.2
N570 G1 Y-1.4
N575 G19 G2 Y-1.6 Z0.5 J0. K0.2
N580 G0 Z6.5
N585 X234.2
N590 G1 Z1.5 F333.33
N595 Z0.3
N600 G3 Y-1.4 Z0.1 J0.2 K0. F250.
N605 G1 Y-1.2
N610 G17 G3 X234. Y-1. I-0.2 J0.
N615 G1 X0.
N620 G2 X-1. Y0. I0. J1.
N625 G1 Y112.
N630 G2 X0. Y113. I1. J0.
N635 G1 X234.
N640 G2 X235. Y112. I0. J-1.
N645 G1 Y0.
N650 G2 X234. Y-1. I-1. J0.
N655 G3 X233.8 Y-1.2 I0. J-0.2
N660 G1 Y-1.4
N665 G19 G2 Y-1.6 Z0.3 J0. K0.2
N670 G0 Z6.5
N675 X234.2
N680 G1 Z1.3 F333.33
N685 Z0.2
N690 G3 Y-1.4 Z0. J0.2 K0. F250.
N695 G1 Y-1.2
N700 G17 G3 X234. Y-1. I-0.2 J0.
N705 G1 X0.
N710 G2 X-1. Y0. I0. J1.
N715 G1 Y112.
N720 G2 X0. Y113. I1. J0.
N725 G1 X234.
N730 G2 X235. Y112. I0. J-1.
N735 G1 Y0.
N740 G2 X234. Y-1. I-1. J0.
N745 G3 X233.8 Y-1.2 I0. J-0.2
N750 G1 Y-1.4
N755 G19 G2 Y-1.6 Z0.2 J0. K0.2
N760 G0 Z11.5
N765 G17
N770 M30
%
