%
(TUBES_INNER)
(MACHINE)
(  VENDOR PLANETCNC)
(  DESCRIPTION CNC 4030)
(T1  D=2. CR=0. - ZMIN=-0.5 - FLAT END MILL)
N10 G90 G94 G17 G91.1
N15 G21
(2D CONTOUR1)
N20 T1 M6
N25 S12000 M3
N30 G54
N35 G0 X105.421 Y62.42
N40 G43 Z11.5 H1
N45 G0 Z6.5
N50 G1 Z2.7 F333.33
N55 Z1.5
N60 Y62.427 Z1.448 F250.
N65 Y62.447 Z1.4
N70 Y62.479 Z1.359
N75 X105.422 Y62.52 Z1.327
N80 Y62.569 Z1.307
N85 X105.423 Y62.62 Z1.3
N90 X105.425 Y62.82
N95 G3 X105.227 Y63.022 I-0.2 J0.002
N100 X95.632 Y53.523 I-0.095 J-9.5
N105 X114.632 I9.5 J0.
N110 X105.227 Y63.022 I-9.5 J0.
N115 X105.025 Y62.824 I-0.002 J-0.2
N120 G1 X105.023 Y62.624
N125 X105.022 Y62.573 Z1.307
N130 Y62.524 Z1.327
N135 Y62.483 Z1.359
N140 X105.021 Y62.451 Z1.4
N145 Y62.431 Z1.448
N150 Y62.424 Z1.5
N155 G0 Z6.5
N160 X105.421 Y62.42
N165 G1 Z2.5 F333.33
N170 Z1.3
N175 Y62.427 Z1.248 F250.
N180 Y62.447 Z1.2
N185 Y62.479 Z1.159
N190 X105.422 Y62.52 Z1.127
N195 Y62.569 Z1.107
N200 X105.423 Y62.62 Z1.1
N205 X105.425 Y62.82
N210 G3 X105.227 Y63.022 I-0.2 J0.002
N215 X95.632 Y53.523 I-0.095 J-9.5
N220 X114.632 I9.5 J0.
N225 X105.227 Y63.022 I-9.5 J0.
N230 X105.025 Y62.824 I-0.002 J-0.2
N235 G1 X105.023 Y62.624
N240 X105.022 Y62.573 Z1.107
N245 Y62.524 Z1.127
N250 Y62.483 Z1.159
N255 X105.021 Y62.451 Z1.2
N260 Y62.431 Z1.248
N265 Y62.424 Z1.3
N270 G0 Z6.5
N275 X105.421 Y62.42
N280 G1 Z2.3 F333.33
N285 Z1.1
N290 Y62.427 Z1.048 F250.
N295 Y62.447 Z1.
N300 Y62.479 Z0.959
N305 X105.422 Y62.52 Z0.927
N310 Y62.569 Z0.907
N315 X105.423 Y62.62 Z0.9
N320 X105.425 Y62.82
N325 G3 X105.227 Y63.022 I-0.2 J0.002
N330 X95.632 Y53.523 I-0.095 J-9.5
N335 X114.632 I9.5 J0.
N340 X105.227 Y63.022 I-9.5 J0.
N345 X105.025 Y62.824 I-0.002 J-0.2
N350 G1 X105.023 Y62.624
N355 X105.022 Y62.573 Z0.907
N360 Y62.524 Z0.927
N365 Y62.483 Z0.959
N370 X105.021 Y62.451 Z1.
N375 Y62.431 Z1.048
N380 Y62.424 Z1.1
N385 G0 Z6.5
N390 X105.421 Y62.42
N395 G1 Z2.1 F333.33
N400 Z0.9
N405 Y62.427 Z0.848 F250.
N410 Y62.447 Z0.8
N415 Y62.479 Z0.759
N420 X105.422 Y62.52 Z0.727
N425 Y62.569 Z0.707
N430 X105.423 Y62.62 Z0.7
N435 X105.425 Y62.82
N440 G3 X105.227 Y63.022 I-0.2 J0.002
N445 X95.632 Y53.523 I-0.095 J-9.5
N450 X114.632 I9.5 J0.
N455 X105.227 Y63.022 I-9.5 J0.
N460 X105.025 Y62.824 I-0.002 J-0.2
N465 G1 X105.023 Y62.624
N470 X105.022 Y62.573 Z0.707
N475 Y62.524 Z0.727
N480 Y62.483 Z0.759
N485 X105.021 Y62.451 Z0.8
N490 Y62.431 Z0.848
N495 Y62.424 Z0.9
N500 G0 Z6.5
N505 X105.421 Y62.42
N510 G1 Z1.9 F333.33
N515 Z0.7
N520 Y62.427 Z0.648 F250.
N525 Y62.447 Z0.6
N530 Y62.479 Z0.559
N535 X105.422 Y62.52 Z0.527
N540 Y62.569 Z0.507
N545 X105.423 Y62.62 Z0.5
N550 X105.425 Y62.82
N555 G3 X105.227 Y63.022 I-0.2 J0.002
N560 X95.632 Y53.523 I-0.095 J-9.5
N565 X114.632 I9.5 J0.
N570 X105.227 Y63.022 I-9.5 J0.
N575 X105.025 Y62.824 I-0.002 J-0.2
N580 G1 X105.023 Y62.624
N585 X105.022 Y62.573 Z0.507
N590 Y62.524 Z0.527
N595 Y62.483 Z0.559
N600 X105.021 Y62.451 Z0.6
N605 Y62.431 Z0.648
N610 Y62.424 Z0.7
N615 G0 Z6.5
N620 X105.421 Y62.42
N625 G1 Z1.7 F333.33
N630 Z0.5
N635 Y62.427 Z0.448 F250.
N640 Y62.447 Z0.4
N645 Y62.479 Z0.359
N650 X105.422 Y62.52 Z0.327
N655 Y62.569 Z0.307
N660 X105.423 Y62.62 Z0.3
N665 X105.425 Y62.82
N670 G3 X105.227 Y63.022 I-0.2 J0.002
N675 X99.357 Y61.066 I-0.095 J-9.5
N680 G1 Z0.5
N685 G3 X97.589 Y59.298 I5.775 J-7.543
N690 G1 Z0.3 F333.33
N695 G3 X95.632 Y53.523 I7.543 J-5.775 F250.
N700 X97.589 Y47.748 I9.5 J0.
N705 G1 Z0.5
N710 G3 X99.357 Y45.98 I7.543 J5.775
N715 G1 Z0.3 F333.33
N720 G3 X110.907 I5.775 J7.543 F250.
N725 G1 Z0.5
N730 G3 X112.675 Y47.747 I-5.775 J7.543
N735 G1 Z0.3 F333.33
N740 G3 X114.632 Y53.523 I-7.543 J5.776 F250.
N745 X112.675 Y59.298 I-9.5 J0.
N750 G1 Z0.5
N755 G3 X110.907 Y61.066 I-7.543 J-5.776
N760 G1 Z0.3 F333.33
N765 G3 X105.227 Y63.022 I-5.775 J-7.543 F250.
N770 X105.025 Y62.824 I-0.002 J-0.2
N775 G1 X105.023 Y62.624
N780 X105.022 Y62.573 Z0.307
N785 Y62.524 Z0.327
N790 Y62.483 Z0.359
N795 X105.021 Y62.451 Z0.4
N800 Y62.431 Z0.448
N805 Y62.424 Z0.5
N810 G0 Z6.5
N815 X105.421 Y62.42
N820 G1 Z1.5 F333.33
N825 Z0.3
N830 Y62.427 Z0.248 F250.
N835 Y62.447 Z0.2
N840 Y62.479 Z0.159
N845 X105.422 Y62.52 Z0.127
N850 Y62.569 Z0.107
N855 X105.423 Y62.62 Z0.1
N860 X105.425 Y62.82
N865 G3 X105.227 Y63.022 I-0.2 J0.002
N870 X99.357 Y61.066 I-0.095 J-9.5
N875 G1 Z0.5
N880 G3 X97.589 Y59.298 I5.775 J-7.543
N885 G1 Z0.1 F333.33
N890 G3 X95.632 Y53.523 I7.543 J-5.775 F250.
N895 X97.589 Y47.748 I9.5 J0.
N900 G1 Z0.5
N905 G3 X99.357 Y45.98 I7.543 J5.775
N910 G1 Z0.1 F333.33
N915 G3 X110.907 I5.775 J7.543 F250.
N920 G1 Z0.5
N925 G3 X112.675 Y47.747 I-5.775 J7.543
N930 G1 Z0.1 F333.33
N935 G3 X114.632 Y53.523 I-7.543 J5.776 F250.
N940 X112.675 Y59.298 I-9.5 J0.
N945 G1 Z0.5
N950 G3 X110.907 Y61.066 I-7.543 J-5.776
N955 G1 Z0.1 F333.33
N960 G3 X105.227 Y63.022 I-5.775 J-7.543 F250.
N965 X105.025 Y62.824 I-0.002 J-0.2
N970 G1 X105.023 Y62.624
N975 X105.022 Y62.573 Z0.107
N980 Y62.524 Z0.127
N985 Y62.483 Z0.159
N990 X105.021 Y62.451 Z0.2
N995 Y62.431 Z0.248
N1000 Y62.424 Z0.3
N1005 G0 Z6.5
N1010 X105.421 Y62.42
N1015 G1 Z1.3 F333.33
N1020 Z0.1
N1025 Y62.427 Z0.048 F250.
N1030 Y62.447 Z0.
N1035 Y62.479 Z-0.041
N1040 X105.422 Y62.52 Z-0.073
N1045 Y62.569 Z-0.093
N1050 X105.423 Y62.62 Z-0.1
N1055 X105.425 Y62.82
N1060 G3 X105.227 Y63.022 I-0.2 J0.002
N1065 X99.357 Y61.066 I-0.095 J-9.5
N1070 G1 Z0.5
N1075 G3 X97.589 Y59.298 I5.775 J-7.543
N1080 G1 Z-0.1 F333.33
N1085 G3 X95.632 Y53.523 I7.543 J-5.775 F250.
N1090 X97.589 Y47.748 I9.5 J0.
N1095 G1 Z0.5
N1100 G3 X99.357 Y45.98 I7.543 J5.775
N1105 G1 Z-0.1 F333.33
N1110 G3 X110.907 I5.775 J7.543 F250.
N1115 G1 Z0.5
N1120 G3 X112.675 Y47.747 I-5.775 J7.543
N1125 G1 Z-0.1 F333.33
N1130 G3 X114.632 Y53.523 I-7.543 J5.776 F250.
N1135 X112.675 Y59.298 I-9.5 J0.
N1140 G1 Z0.5
N1145 G3 X110.907 Y61.066 I-7.543 J-5.776
N1150 G1 Z-0.1 F333.33
N1155 G3 X105.227 Y63.022 I-5.775 J-7.543 F250.
N1160 X105.025 Y62.824 I-0.002 J-0.2
N1165 G1 X105.023 Y62.624
N1170 X105.022 Y62.573 Z-0.093
N1175 Y62.524 Z-0.073
N1180 Y62.483 Z-0.041
N1185 X105.021 Y62.451 Z0.
N1190 Y62.431 Z0.048
N1195 Y62.424 Z0.1
N1200 G0 Z6.5
N1205 X105.421 Y62.42
N1210 G1 Z1.1 F333.33
N1215 Z-0.1
N1220 Y62.427 Z-0.152 F250.
N1225 Y62.447 Z-0.2
N1230 Y62.479 Z-0.241
N1235 X105.422 Y62.52 Z-0.273
N1240 Y62.569 Z-0.293
N1245 X105.423 Y62.62 Z-0.3
N1250 X105.425 Y62.82
N1255 G3 X105.227 Y63.022 I-0.2 J0.002
N1260 X99.357 Y61.066 I-0.095 J-9.5
N1265 G1 Z0.5
N1270 G3 X97.589 Y59.298 I5.775 J-7.543
N1275 G1 Z-0.3 F333.33
N1280 G3 X95.632 Y53.523 I7.543 J-5.775 F250.
N1285 X97.589 Y47.748 I9.5 J0.
N1290 G1 Z0.5
N1295 G3 X99.357 Y45.98 I7.543 J5.775
N1300 G1 Z-0.3 F333.33
N1305 G3 X110.907 I5.775 J7.543 F250.
N1310 G1 Z0.5
N1315 G3 X112.675 Y47.747 I-5.775 J7.543
N1320 G1 Z-0.3 F333.33
N1325 G3 X114.632 Y53.523 I-7.543 J5.776 F250.
N1330 X112.675 Y59.298 I-9.5 J0.
N1335 G1 Z0.5
N1340 G3 X110.907 Y61.066 I-7.543 J-5.776
N1345 G1 Z-0.3 F333.33
N1350 G3 X105.227 Y63.022 I-5.775 J-7.543 F250.
N1355 X105.025 Y62.824 I-0.002 J-0.2
N1360 G1 X105.023 Y62.624
N1365 X105.022 Y62.573 Z-0.293
N1370 Y62.524 Z-0.273
N1375 Y62.483 Z-0.241
N1380 X105.021 Y62.451 Z-0.2
N1385 Y62.431 Z-0.152
N1390 Y62.424 Z-0.1
N1395 G0 Z6.5
N1400 X105.421 Y62.42
N1405 G1 Z0.9 F333.33
N1410 Z-0.3
N1415 Y62.427 Z-0.352 F250.
N1420 Y62.447 Z-0.4
N1425 Y62.479 Z-0.441
N1430 X105.422 Y62.52 Z-0.473
N1435 Y62.569 Z-0.493
N1440 X105.423 Y62.62 Z-0.5
N1445 X105.425 Y62.82
N1450 G3 X105.227 Y63.022 I-0.2 J0.002
N1455 X99.357 Y61.066 I-0.095 J-9.5
N1460 G1 Z0.5
N1465 G3 X97.589 Y59.298 I5.775 J-7.543
N1470 G1 Z-0.5 F333.33
N1475 G3 X95.632 Y53.523 I7.543 J-5.775 F250.
N1480 X97.589 Y47.748 I9.5 J0.
N1485 G1 Z0.5
N1490 G3 X99.357 Y45.98 I7.543 J5.775
N1495 G1 Z-0.5 F333.33
N1500 G3 X110.907 I5.775 J7.543 F250.
N1505 G1 Z0.5
N1510 G3 X112.675 Y47.747 I-5.775 J7.543
N1515 G1 Z-0.5 F333.33
N1520 G3 X114.632 Y53.523 I-7.543 J5.776 F250.
N1525 X112.675 Y59.298 I-9.5 J0.
N1530 G1 Z0.5
N1535 G3 X110.907 Y61.066 I-7.543 J-5.776
N1540 G1 Z-0.5 F333.33
N1545 G3 X105.227 Y63.022 I-5.775 J-7.543 F250.
N1550 X105.025 Y62.824 I-0.002 J-0.2
N1555 G1 X105.023 Y62.624
N1560 X105.022 Y62.573 Z-0.493
N1565 Y62.524 Z-0.473
N1570 Y62.483 Z-0.441
N1575 X105.021 Y62.451 Z-0.4
N1580 Y62.431 Z-0.352
N1585 Y62.424 Z-0.3
N1590 G0 Z6.5
N1595 X95.381 Y63.222
N1600 G1 Z2.7 F333.33
N1605 Z1.5
N1610 G18 G2 X95.581 Z1.3 I0.2 K0. F250.
N1615 G1 X95.781
N1620 G17 G3 X95.981 Y63.422 I0. J0.2
N1625 X94.477 Y63.421 I-0.752 J0.
N1630 X95.981 Y63.422 I0.752 J0.
N1635 X95.781 Y63.621 I-0.2 J0.
N1640 G1 X95.581
N1645 G18 G3 X95.381 Z1.5 I0. K0.2
N1650 G0 Z6.5
N1655 Y63.222
N1660 G1 Z2.5 F333.33
N1665 Z1.3
N1670 G2 X95.581 Z1.1 I0.2 K0. F250.
N1675 G1 X95.781
N1680 G17 G3 X95.981 Y63.422 I0. J0.2
N1685 X94.477 Y63.421 I-0.752 J0.
N1690 X95.981 Y63.422 I0.752 J0.
N1695 X95.781 Y63.621 I-0.2 J0.
N1700 G1 X95.581
N1705 G18 G3 X95.381 Z1.3 I0. K0.2
N1710 G0 Z6.5
N1715 Y63.222
N1720 G1 Z2.3 F333.33
N1725 Z1.1
N1730 G2 X95.581 Z0.9 I0.2 K0. F250.
N1735 G1 X95.781
N1740 G17 G3 X95.981 Y63.422 I0. J0.2
N1745 X94.477 Y63.421 I-0.752 J0.
N1750 X95.981 Y63.422 I0.752 J0.
N1755 X95.781 Y63.621 I-0.2 J0.
N1760 G1 X95.581
N1765 G18 G3 X95.381 Z1.1 I0. K0.2
N1770 G0 Z6.5
N1775 Y63.222
N1780 G1 Z2.1 F333.33
N1785 Z0.9
N1790 G2 X95.581 Z0.7 I0.2 K0. F250.
N1795 G1 X95.781
N1800 G17 G3 X95.981 Y63.422 I0. J0.2
N1805 X94.477 Y63.421 I-0.752 J0.
N1810 X95.981 Y63.422 I0.752 J0.
N1815 X95.781 Y63.621 I-0.2 J0.
N1820 G1 X95.581
N1825 G18 G3 X95.381 Z0.9 I0. K0.2
N1830 G0 Z6.5
N1835 Y63.222
N1840 G1 Z1.9 F333.33
N1845 Z0.7
N1850 G2 X95.581 Z0.5 I0.2 K0. F250.
N1855 G1 X95.781
N1860 G17 G3 X95.981 Y63.422 I0. J0.2
N1865 X94.477 Y63.421 I-0.752 J0.
N1870 X95.981 Y63.422 I0.752 J0.
N1875 X95.781 Y63.621 I-0.2 J0.
N1880 G1 X95.581
N1885 G18 G3 X95.381 Z0.7 I0. K0.2
N1890 G0 Z6.5
N1895 Y63.222
N1900 G1 Z1.7 F333.33
N1905 Z0.5
N1910 G2 X95.581 Z0.3 I0.2 K0. F250.
N1915 G1 X95.781
N1920 G17 G3 X95.981 Y63.422 I0. J0.2
N1925 X94.477 Y63.421 I-0.752 J0.
N1930 X95.981 Y63.422 I0.752 J0.
N1935 X95.781 Y63.621 I-0.2 J0.
N1940 G1 X95.581
N1945 G18 G3 X95.381 Z0.5 I0. K0.2
N1950 G0 Z6.5
N1955 Y63.222
N1960 G1 Z1.5 F333.33
N1965 Z0.3
N1970 G2 X95.581 Z0.1 I0.2 K0. F250.
N1975 G1 X95.781
N1980 G17 G3 X95.981 Y63.422 I0. J0.2
N1985 X94.477 Y63.421 I-0.752 J0.
N1990 X95.981 Y63.422 I0.752 J0.
N1995 X95.781 Y63.621 I-0.2 J0.
N2000 G1 X95.581
N2005 G18 G3 X95.381 Z0.3 I0. K0.2
N2010 G0 Z6.5
N2015 Y63.222
N2020 G1 Z1.3 F333.33
N2025 Z0.1
N2030 G2 X95.581 Z-0.1 I0.2 K0. F250.
N2035 G1 X95.781
N2040 G17 G3 X95.981 Y63.422 I0. J0.2
N2045 X94.477 Y63.421 I-0.752 J0.
N2050 X95.981 Y63.422 I0.752 J0.
N2055 X95.781 Y63.621 I-0.2 J0.
N2060 G1 X95.581
N2065 G18 G3 X95.381 Z0.1 I0. K0.2
N2070 G0 Z6.5
N2075 Y63.222
N2080 G1 Z1.1 F333.33
N2085 Z-0.1
N2090 G2 X95.581 Z-0.3 I0.2 K0. F250.
N2095 G1 X95.781
N2100 G17 G3 X95.981 Y63.422 I0. J0.2
N2105 X94.477 Y63.421 I-0.752 J0.
N2110 X95.981 Y63.422 I0.752 J0.
N2115 X95.781 Y63.621 I-0.2 J0.
N2120 G1 X95.581
N2125 G18 G3 X95.381 Z-0.1 I0. K0.2
N2130 G0 Z6.5
N2135 Y63.222
N2140 G1 Z0.9 F333.33
N2145 Z-0.3
N2150 G2 X95.581 Z-0.5 I0.2 K0. F250.
N2155 G1 X95.781
N2160 G17 G3 X95.981 Y63.422 I0. J0.2
N2165 X94.477 Y63.421 I-0.752 J0.
N2170 X95.981 Y63.422 I0.752 J0.
N2175 X95.781 Y63.621 I-0.2 J0.
N2180 G1 X95.581
N2185 G18 G3 X95.381 Z-0.3 I0. K0.2
N2190 G0 Z6.5
N2195 X84.034 Y53.587
N2200 G1 Z2.7 F333.33
N2205 Z1.5
N2210 X84.041 Z1.448 F250.
N2215 X84.061 Z1.4
N2220 X84.092 Y53.588 Z1.359
N2225 X84.134 Y53.59 Z1.327
N2230 X84.182 Y53.591 Z1.307
N2235 X84.234 Y53.593 Z1.3
N2240 X84.434 Y53.598
N2245 G17 G3 X84.628 Y53.804 I-0.006 J0.2
N2250 X65.636 Y53.241 I-9.496 J-0.282
N2255 X84.628 Y53.804 I9.496 J0.282
N2260 X84.422 Y53.998 I-0.2 J-0.006
N2265 G1 X84.222 Y53.992
N2270 X84.17 Y53.991 Z1.307
N2275 X84.122 Y53.989 Z1.327
N2280 X84.081 Y53.988 Z1.359
N2285 X84.049 Y53.987 Z1.4
N2290 X84.029 Z1.448
N2295 X84.022 Y53.986 Z1.5
N2300 G0 Z6.5
N2305 X84.034 Y53.587
N2310 G1 Z2.5 F333.33
N2315 Z1.3
N2320 X84.041 Z1.248 F250.
N2325 X84.061 Z1.2
N2330 X84.092 Y53.588 Z1.159
N2335 X84.134 Y53.59 Z1.127
N2340 X84.182 Y53.591 Z1.107
N2345 X84.234 Y53.593 Z1.1
N2350 X84.434 Y53.598
N2355 G3 X84.628 Y53.804 I-0.006 J0.2
N2360 X65.636 Y53.241 I-9.496 J-0.282
N2365 X84.628 Y53.804 I9.496 J0.282
N2370 X84.422 Y53.998 I-0.2 J-0.006
N2375 G1 X84.222 Y53.992
N2380 X84.17 Y53.991 Z1.107
N2385 X84.122 Y53.989 Z1.127
N2390 X84.081 Y53.988 Z1.159
N2395 X84.049 Y53.987 Z1.2
N2400 X84.029 Z1.248
N2405 X84.022 Y53.986 Z1.3
N2410 G0 Z6.5
N2415 X84.034 Y53.587
N2420 G1 Z2.3 F333.33
N2425 Z1.1
N2430 X84.041 Z1.048 F250.
N2435 X84.061 Z1.
N2440 X84.092 Y53.588 Z0.959
N2445 X84.134 Y53.59 Z0.927
N2450 X84.182 Y53.591 Z0.907
N2455 X84.234 Y53.593 Z0.9
N2460 X84.434 Y53.598
N2465 G3 X84.628 Y53.804 I-0.006 J0.2
N2470 X65.636 Y53.241 I-9.496 J-0.282
N2475 X84.628 Y53.804 I9.496 J0.282
N2480 X84.422 Y53.998 I-0.2 J-0.006
N2485 G1 X84.222 Y53.992
N2490 X84.17 Y53.991 Z0.907
N2495 X84.122 Y53.989 Z0.927
N2500 X84.081 Y53.988 Z0.959
N2505 X84.049 Y53.987 Z1.
N2510 X84.029 Z1.048
N2515 X84.022 Y53.986 Z1.1
N2520 G0 Z6.5
N2525 X84.034 Y53.587
N2530 G1 Z2.1 F333.33
N2535 Z0.9
N2540 X84.041 Z0.848 F250.
N2545 X84.061 Z0.8
N2550 X84.092 Y53.588 Z0.759
N2555 X84.134 Y53.59 Z0.727
N2560 X84.182 Y53.591 Z0.707
N2565 X84.234 Y53.593 Z0.7
N2570 X84.434 Y53.598
N2575 G3 X84.628 Y53.804 I-0.006 J0.2
N2580 X65.636 Y53.241 I-9.496 J-0.282
N2585 X84.628 Y53.804 I9.496 J0.282
N2590 X84.422 Y53.998 I-0.2 J-0.006
N2595 G1 X84.222 Y53.992
N2600 X84.17 Y53.991 Z0.707
N2605 X84.122 Y53.989 Z0.727
N2610 X84.081 Y53.988 Z0.759
N2615 X84.049 Y53.987 Z0.8
N2620 X84.029 Z0.848
N2625 X84.022 Y53.986 Z0.9
N2630 G0 Z6.5
N2635 X84.034 Y53.587
N2640 G1 Z1.9 F333.33
N2645 Z0.7
N2650 X84.041 Z0.648 F250.
N2655 X84.061 Z0.6
N2660 X84.092 Y53.588 Z0.559
N2665 X84.134 Y53.59 Z0.527
N2670 X84.182 Y53.591 Z0.507
N2675 X84.234 Y53.593 Z0.5
N2680 X84.434 Y53.598
N2685 G3 X84.628 Y53.804 I-0.006 J0.2
N2690 X65.636 Y53.241 I-9.496 J-0.282
N2695 X84.628 Y53.804 I9.496 J0.282
N2700 X84.422 Y53.998 I-0.2 J-0.006
N2705 G1 X84.222 Y53.992
N2710 X84.17 Y53.991 Z0.507
N2715 X84.122 Y53.989 Z0.527
N2720 X84.081 Y53.988 Z0.559
N2725 X84.049 Y53.987 Z0.6
N2730 X84.029 Z0.648
N2735 X84.022 Y53.986 Z0.7
N2740 G0 Z6.5
N2745 X84.034 Y53.587
N2750 G1 Z1.7 F333.33
N2755 Z0.5
N2760 X84.041 Z0.448 F250.
N2765 X84.061 Z0.4
N2770 X84.092 Y53.588 Z0.359
N2775 X84.134 Y53.59 Z0.327
N2780 X84.182 Y53.591 Z0.307
N2785 X84.234 Y53.593 Z0.3
N2790 X84.434 Y53.598
N2795 G3 X84.628 Y53.804 I-0.006 J0.2
N2800 X82.675 Y59.298 I-9.496 J-0.282
N2805 G1 Z0.5
N2810 G3 X80.907 Y61.066 I-7.543 J-5.775
N2815 G1 Z0.3 F333.33
N2820 G3 X69.357 I-5.775 J-7.543 F250.
N2825 G1 Z0.5
N2830 G3 X67.589 Y59.298 I5.775 J-7.543
N2835 G1 Z0.3 F333.33
N2840 G3 Y47.748 I7.543 J-5.775 F250.
N2845 G1 Z0.5
N2850 G3 X69.357 Y45.98 I7.543 J5.775
N2855 G1 Z0.3 F333.33
N2860 G3 X80.907 I5.775 J7.543 F250.
N2865 G1 Z0.5
N2870 G3 X82.675 Y47.748 I-5.775 J7.543
N2875 G1 Z0.3 F333.33
N2880 G3 X84.628 Y53.804 I-7.543 J5.775 F250.
N2885 X84.422 Y53.998 I-0.2 J-0.006
N2890 G1 X84.222 Y53.992
N2895 X84.17 Y53.991 Z0.307
N2900 X84.122 Y53.989 Z0.327
N2905 X84.081 Y53.988 Z0.359
N2910 X84.049 Y53.987 Z0.4
N2915 X84.029 Z0.448
N2920 X84.022 Y53.986 Z0.5
N2925 G0 Z6.5
N2930 X84.034 Y53.587
N2935 G1 Z1.5 F333.33
N2940 Z0.3
N2945 X84.041 Z0.248 F250.
N2950 X84.061 Z0.2
N2955 X84.092 Y53.588 Z0.159
N2960 X84.134 Y53.59 Z0.127
N2965 X84.182 Y53.591 Z0.107
N2970 X84.234 Y53.593 Z0.1
N2975 X84.434 Y53.598
N2980 G3 X84.628 Y53.804 I-0.006 J0.2
N2985 X82.675 Y59.298 I-9.496 J-0.282
N2990 G1 Z0.5
N2995 G3 X80.907 Y61.066 I-7.543 J-5.775
N3000 G1 Z0.1 F333.33
N3005 G3 X69.357 I-5.775 J-7.543 F250.
N3010 G1 Z0.5
N3015 G3 X67.589 Y59.298 I5.775 J-7.543
N3020 G1 Z0.1 F333.33
N3025 G3 Y47.748 I7.543 J-5.775 F250.
N3030 G1 Z0.5
N3035 G3 X69.357 Y45.98 I7.543 J5.775
N3040 G1 Z0.1 F333.33
N3045 G3 X80.907 I5.775 J7.543 F250.
N3050 G1 Z0.5
N3055 G3 X82.675 Y47.748 I-5.775 J7.543
N3060 G1 Z0.1 F333.33
N3065 G3 X84.628 Y53.804 I-7.543 J5.775 F250.
N3070 X84.422 Y53.998 I-0.2 J-0.006
N3075 G1 X84.222 Y53.992
N3080 X84.17 Y53.991 Z0.107
N3085 X84.122 Y53.989 Z0.127
N3090 X84.081 Y53.988 Z0.159
N3095 X84.049 Y53.987 Z0.2
N3100 X84.029 Z0.248
N3105 X84.022 Y53.986 Z0.3
N3110 G0 Z6.5
N3115 X84.034 Y53.587
N3120 G1 Z1.3 F333.33
N3125 Z0.1
N3130 X84.041 Z0.048 F250.
N3135 X84.061 Z0.
N3140 X84.092 Y53.588 Z-0.041
N3145 X84.134 Y53.59 Z-0.073
N3150 X84.182 Y53.591 Z-0.093
N3155 X84.234 Y53.593 Z-0.1
N3160 X84.434 Y53.598
N3165 G3 X84.628 Y53.804 I-0.006 J0.2
N3170 X82.675 Y59.298 I-9.496 J-0.282
N3175 G1 Z0.5
N3180 G3 X80.907 Y61.066 I-7.543 J-5.775
N3185 G1 Z-0.1 F333.33
N3190 G3 X69.357 I-5.775 J-7.543 F250.
N3195 G1 Z0.5
N3200 G3 X67.589 Y59.298 I5.775 J-7.543
N3205 G1 Z-0.1 F333.33
N3210 G3 Y47.748 I7.543 J-5.775 F250.
N3215 G1 Z0.5
N3220 G3 X69.357 Y45.98 I7.543 J5.775
N3225 G1 Z-0.1 F333.33
N3230 G3 X80.907 I5.775 J7.543 F250.
N3235 G1 Z0.5
N3240 G3 X82.675 Y47.748 I-5.775 J7.543
N3245 G1 Z-0.1 F333.33
N3250 G3 X84.628 Y53.804 I-7.543 J5.775 F250.
N3255 X84.422 Y53.998 I-0.2 J-0.006
N3260 G1 X84.222 Y53.992
N3265 X84.17 Y53.991 Z-0.093
N3270 X84.122 Y53.989 Z-0.073
N3275 X84.081 Y53.988 Z-0.041
N3280 X84.049 Y53.987 Z0.
N3285 X84.029 Z0.048
N3290 X84.022 Y53.986 Z0.1
N3295 G0 Z6.5
N3300 X84.034 Y53.587
N3305 G1 Z1.1 F333.33
N3310 Z-0.1
N3315 X84.041 Z-0.152 F250.
N3320 X84.061 Z-0.2
N3325 X84.092 Y53.588 Z-0.241
N3330 X84.134 Y53.59 Z-0.273
N3335 X84.182 Y53.591 Z-0.293
N3340 X84.234 Y53.593 Z-0.3
N3345 X84.434 Y53.598
N3350 G3 X84.628 Y53.804 I-0.006 J0.2
N3355 X82.675 Y59.298 I-9.496 J-0.282
N3360 G1 Z0.5
N3365 G3 X80.907 Y61.066 I-7.543 J-5.775
N3370 G1 Z-0.3 F333.33
N3375 G3 X69.357 I-5.775 J-7.543 F250.
N3380 G1 Z0.5
N3385 G3 X67.589 Y59.298 I5.775 J-7.543
N3390 G1 Z-0.3 F333.33
N3395 G3 Y47.748 I7.543 J-5.775 F250.
N3400 G1 Z0.5
N3405 G3 X69.357 Y45.98 I7.543 J5.775
N3410 G1 Z-0.3 F333.33
N3415 G3 X80.907 I5.775 J7.543 F250.
N3420 G1 Z0.5
N3425 G3 X82.675 Y47.748 I-5.775 J7.543
N3430 G1 Z-0.3 F333.33
N3435 G3 X84.628 Y53.804 I-7.543 J5.775 F250.
N3440 X84.422 Y53.998 I-0.2 J-0.006
N3445 G1 X84.222 Y53.992
N3450 X84.17 Y53.991 Z-0.293
N3455 X84.122 Y53.989 Z-0.273
N3460 X84.081 Y53.988 Z-0.241
N3465 X84.049 Y53.987 Z-0.2
N3470 X84.029 Z-0.152
N3475 X84.022 Y53.986 Z-0.1
N3480 G0 Z6.5
N3485 X84.034 Y53.587
N3490 G1 Z0.9 F333.33
N3495 Z-0.3
N3500 X84.041 Z-0.352 F250.
N3505 X84.061 Z-0.4
N3510 X84.092 Y53.588 Z-0.441
N3515 X84.134 Y53.59 Z-0.473
N3520 X84.182 Y53.591 Z-0.493
N3525 X84.234 Y53.593 Z-0.5
N3530 X84.434 Y53.598
N3535 G3 X84.628 Y53.804 I-0.006 J0.2
N3540 X82.675 Y59.298 I-9.496 J-0.282
N3545 G1 Z0.5
N3550 G3 X80.907 Y61.066 I-7.543 J-5.775
N3555 G1 Z-0.5 F333.33
N3560 G3 X69.357 I-5.775 J-7.543 F250.
N3565 G1 Z0.5
N3570 G3 X67.589 Y59.298 I5.775 J-7.543
N3575 G1 Z-0.5 F333.33
N3580 G3 Y47.748 I7.543 J-5.775 F250.
N3585 G1 Z0.5
N3590 G3 X69.357 Y45.98 I7.543 J5.775
N3595 G1 Z-0.5 F333.33
N3600 G3 X80.907 I5.775 J7.543 F250.
N3605 G1 Z0.5
N3610 G3 X82.675 Y47.748 I-5.775 J7.543
N3615 G1 Z-0.5 F333.33
N3620 G3 X84.628 Y53.804 I-7.543 J5.775 F250.
N3625 X84.422 Y53.998 I-0.2 J-0.006
N3630 G1 X84.222 Y53.992
N3635 X84.17 Y53.991 Z-0.493
N3640 X84.122 Y53.989 Z-0.473
N3645 X84.081 Y53.988 Z-0.441
N3650 X84.049 Y53.987 Z-0.4
N3655 X84.029 Z-0.352
N3660 X84.022 Y53.986 Z-0.3
N3665 G0 Z6.5
N3670 X85.173 Y43.424
N3675 G1 Z2.7 F333.33
N3680 Z1.5
N3685 G18 G2 X85.372 Z1.3 I0.2 K0. F250.
N3690 G1 X85.573
N3695 G17 G3 X85.772 Y43.624 I0. J0.2
N3700 X84.278 I-0.747 J0.
N3705 X85.772 I0.747 J0.
N3710 X85.573 Y43.824 I-0.2 J0.
N3715 G1 X85.372
N3720 G18 G3 X85.173 Z1.5 I0. K0.2
N3725 G0 Z6.5
N3730 Y43.424
N3735 G1 Z2.5 F333.33
N3740 Z1.3
N3745 G2 X85.372 Z1.1 I0.2 K0. F250.
N3750 G1 X85.573
N3755 G17 G3 X85.772 Y43.624 I0. J0.2
N3760 X84.278 I-0.747 J0.
N3765 X85.772 I0.747 J0.
N3770 X85.573 Y43.824 I-0.2 J0.
N3775 G1 X85.372
N3780 G18 G3 X85.173 Z1.3 I0. K0.2
N3785 G0 Z6.5
N3790 Y43.424
N3795 G1 Z2.3 F333.33
N3800 Z1.1
N3805 G2 X85.372 Z0.9 I0.2 K0. F250.
N3810 G1 X85.573
N3815 G17 G3 X85.772 Y43.624 I0. J0.2
N3820 X84.278 I-0.747 J0.
N3825 X85.772 I0.747 J0.
N3830 X85.573 Y43.824 I-0.2 J0.
N3835 G1 X85.372
N3840 G18 G3 X85.173 Z1.1 I0. K0.2
N3845 G0 Z6.5
N3850 Y43.424
N3855 G1 Z2.1 F333.33
N3860 Z0.9
N3865 G2 X85.372 Z0.7 I0.2 K0. F250.
N3870 G1 X85.573
N3875 G17 G3 X85.772 Y43.624 I0. J0.2
N3880 X84.278 I-0.747 J0.
N3885 X85.772 I0.747 J0.
N3890 X85.573 Y43.824 I-0.2 J0.
N3895 G1 X85.372
N3900 G18 G3 X85.173 Z0.9 I0. K0.2
N3905 G0 Z6.5
N3910 Y43.424
N3915 G1 Z1.9 F333.33
N3920 Z0.7
N3925 G2 X85.372 Z0.5 I0.2 K0. F250.
N3930 G1 X85.573
N3935 G17 G3 X85.772 Y43.624 I0. J0.2
N3940 X84.278 I-0.747 J0.
N3945 X85.772 I0.747 J0.
N3950 X85.573 Y43.824 I-0.2 J0.
N3955 G1 X85.372
N3960 G18 G3 X85.173 Z0.7 I0. K0.2
N3965 G0 Z6.5
N3970 Y43.424
N3975 G1 Z1.7 F333.33
N3980 Z0.5
N3985 G2 X85.372 Z0.3 I0.2 K0. F250.
N3990 G1 X85.573
N3995 G17 G3 X85.772 Y43.624 I0. J0.2
N4000 X84.278 I-0.747 J0.
N4005 X85.772 I0.747 J0.
N4010 X85.573 Y43.824 I-0.2 J0.
N4015 G1 X85.372
N4020 G18 G3 X85.173 Z0.5 I0. K0.2
N4025 G0 Z6.5
N4030 Y43.424
N4035 G1 Z1.5 F333.33
N4040 Z0.3
N4045 G2 X85.372 Z0.1 I0.2 K0. F250.
N4050 G1 X85.573
N4055 G17 G3 X85.772 Y43.624 I0. J0.2
N4060 X84.278 I-0.747 J0.
N4065 X85.772 I0.747 J0.
N4070 X85.573 Y43.824 I-0.2 J0.
N4075 G1 X85.372
N4080 G18 G3 X85.173 Z0.3 I0. K0.2
N4085 G0 Z6.5
N4090 Y43.424
N4095 G1 Z1.3 F333.33
N4100 Z0.1
N4105 G2 X85.372 Z-0.1 I0.2 K0. F250.
N4110 G1 X85.573
N4115 G17 G3 X85.772 Y43.624 I0. J0.2
N4120 X84.278 I-0.747 J0.
N4125 X85.772 I0.747 J0.
N4130 X85.573 Y43.824 I-0.2 J0.
N4135 G1 X85.372
N4140 G18 G3 X85.173 Z0.1 I0. K0.2
N4145 G0 Z6.5
N4150 Y43.424
N4155 G1 Z1.1 F333.33
N4160 Z-0.1
N4165 G2 X85.372 Z-0.3 I0.2 K0. F250.
N4170 G1 X85.573
N4175 G17 G3 X85.772 Y43.624 I0. J0.2
N4180 X84.278 I-0.747 J0.
N4185 X85.772 I0.747 J0.
N4190 X85.573 Y43.824 I-0.2 J0.
N4195 G1 X85.372
N4200 G18 G3 X85.173 Z-0.1 I0. K0.2
N4205 G0 Z6.5
N4210 Y43.424
N4215 G1 Z0.9 F333.33
N4220 Z-0.3
N4225 G2 X85.372 Z-0.5 I0.2 K0. F250.
N4230 G1 X85.573
N4235 G17 G3 X85.772 Y43.624 I0. J0.2
N4240 X84.278 I-0.747 J0.
N4245 X85.772 I0.747 J0.
N4250 X85.573 Y43.824 I-0.2 J0.
N4255 G1 X85.372
N4260 G18 G3 X85.173 Z-0.3 I0. K0.2
N4265 G0 Z6.5
N4270 X95.381 Y28.222
N4275 G1 Z2.7 F333.33
N4280 Z1.5
N4285 G2 X95.581 Z1.3 I0.2 K0. F250.
N4290 G1 X95.781
N4295 G17 G3 X95.981 Y28.421 I0. J0.2
N4300 X94.477 I-0.752 J0.
N4305 X95.981 I0.752 J0.
N4310 X95.781 Y28.622 I-0.2 J0.
N4315 G1 X95.581
N4320 G18 G3 X95.381 Z1.5 I0. K0.2
N4325 G0 Z6.5
N4330 Y28.222
N4335 G1 Z2.5 F333.33
N4340 Z1.3
N4345 G2 X95.581 Z1.1 I0.2 K0. F250.
N4350 G1 X95.781
N4355 G17 G3 X95.981 Y28.421 I0. J0.2
N4360 X94.477 I-0.752 J0.
N4365 X95.981 I0.752 J0.
N4370 X95.781 Y28.622 I-0.2 J0.
N4375 G1 X95.581
N4380 G18 G3 X95.381 Z1.3 I0. K0.2
N4385 G0 Z6.5
N4390 Y28.222
N4395 G1 Z2.3 F333.33
N4400 Z1.1
N4405 G2 X95.581 Z0.9 I0.2 K0. F250.
N4410 G1 X95.781
N4415 G17 G3 X95.981 Y28.421 I0. J0.2
N4420 X94.477 I-0.752 J0.
N4425 X95.981 I0.752 J0.
N4430 X95.781 Y28.622 I-0.2 J0.
N4435 G1 X95.581
N4440 G18 G3 X95.381 Z1.1 I0. K0.2
N4445 G0 Z6.5
N4450 Y28.222
N4455 G1 Z2.1 F333.33
N4460 Z0.9
N4465 G2 X95.581 Z0.7 I0.2 K0. F250.
N4470 G1 X95.781
N4475 G17 G3 X95.981 Y28.421 I0. J0.2
N4480 X94.477 I-0.752 J0.
N4485 X95.981 I0.752 J0.
N4490 X95.781 Y28.622 I-0.2 J0.
N4495 G1 X95.581
N4500 G18 G3 X95.381 Z0.9 I0. K0.2
N4505 G0 Z6.5
N4510 Y28.222
N4515 G1 Z1.9 F333.33
N4520 Z0.7
N4525 G2 X95.581 Z0.5 I0.2 K0. F250.
N4530 G1 X95.781
N4535 G17 G3 X95.981 Y28.421 I0. J0.2
N4540 X94.477 I-0.752 J0.
N4545 X95.981 I0.752 J0.
N4550 X95.781 Y28.622 I-0.2 J0.
N4555 G1 X95.581
N4560 G18 G3 X95.381 Z0.7 I0. K0.2
N4565 G0 Z6.5
N4570 Y28.222
N4575 G1 Z1.7 F333.33
N4580 Z0.5
N4585 G2 X95.581 Z0.3 I0.2 K0. F250.
N4590 G1 X95.781
N4595 G17 G3 X95.981 Y28.421 I0. J0.2
N4600 X94.477 I-0.752 J0.
N4605 X95.981 I0.752 J0.
N4610 X95.781 Y28.622 I-0.2 J0.
N4615 G1 X95.581
N4620 G18 G3 X95.381 Z0.5 I0. K0.2
N4625 G0 Z6.5
N4630 Y28.222
N4635 G1 Z1.5 F333.33
N4640 Z0.3
N4645 G2 X95.581 Z0.1 I0.2 K0. F250.
N4650 G1 X95.781
N4655 G17 G3 X95.981 Y28.421 I0. J0.2
N4660 X94.477 I-0.752 J0.
N4665 X95.981 I0.752 J0.
N4670 X95.781 Y28.622 I-0.2 J0.
N4675 G1 X95.581
N4680 G18 G3 X95.381 Z0.3 I0. K0.2
N4685 G0 Z6.5
N4690 Y28.222
N4695 G1 Z1.3 F333.33
N4700 Z0.1
N4705 G2 X95.581 Z-0.1 I0.2 K0. F250.
N4710 G1 X95.781
N4715 G17 G3 X95.981 Y28.421 I0. J0.2
N4720 X94.477 I-0.752 J0.
N4725 X95.981 I0.752 J0.
N4730 X95.781 Y28.622 I-0.2 J0.
N4735 G1 X95.581
N4740 G18 G3 X95.381 Z0.1 I0. K0.2
N4745 G0 Z6.5
N4750 Y28.222
N4755 G1 Z1.1 F333.33
N4760 Z-0.1
N4765 G2 X95.581 Z-0.3 I0.2 K0. F250.
N4770 G1 X95.781
N4775 G17 G3 X95.981 Y28.421 I0. J0.2
N4780 X94.477 I-0.752 J0.
N4785 X95.981 I0.752 J0.
N4790 X95.781 Y28.622 I-0.2 J0.
N4795 G1 X95.581
N4800 G18 G3 X95.381 Z-0.1 I0. K0.2
N4805 G0 Z6.5
N4810 Y28.222
N4815 G1 Z0.9 F333.33
N4820 Z-0.3
N4825 G2 X95.581 Z-0.5 I0.2 K0. F250.
N4830 G1 X95.781
N4835 G17 G3 X95.981 Y28.421 I0. J0.2
N4840 X94.477 I-0.752 J0.
N4845 X95.981 I0.752 J0.
N4850 X95.781 Y28.622 I-0.2 J0.
N4855 G1 X95.581
N4860 G18 G3 X95.381 Z-0.3 I0. K0.2
N4865 G0 Z6.5
N4870 X105.376 Y27.422
N4875 G1 Z2.7 F333.33
N4880 Z1.5
N4885 Y27.429 Z1.448 F250.
N4890 X105.377 Y27.448 Z1.4
N4895 Y27.48 Z1.359
N4900 Y27.522 Z1.327
N4905 Y27.57 Z1.307
N4910 Y27.622 Z1.3
N4915 X105.378 Y27.822
N4920 G17 G3 X105.179 Y28.023 I-0.2 J0.001
N4925 X95.632 Y18.523 I-0.048 J-9.5
N4930 X114.632 I9.5 J0.
N4935 X105.179 Y28.023 I-9.5 J0.
N4940 X104.978 Y27.824 I-0.001 J-0.2
N4945 G1 X104.977 Y27.624
N4950 Y27.572 Z1.307
N4955 Y27.524 Z1.327
N4960 Y27.482 Z1.359
N4965 Y27.45 Z1.4
N4970 X104.976 Y27.431 Z1.448
N4975 Y27.424 Z1.5
N4980 G0 Z6.5
N4985 X105.376 Y27.422
N4990 G1 Z2.5 F333.33
N4995 Z1.3
N5000 Y27.429 Z1.248 F250.
N5005 X105.377 Y27.448 Z1.2
N5010 Y27.48 Z1.159
N5015 Y27.522 Z1.127
N5020 Y27.57 Z1.107
N5025 Y27.622 Z1.1
N5030 X105.378 Y27.822
N5035 G3 X105.179 Y28.023 I-0.2 J0.001
N5040 X95.632 Y18.523 I-0.048 J-9.5
N5045 X114.632 I9.5 J0.
N5050 X105.179 Y28.023 I-9.5 J0.
N5055 X104.978 Y27.824 I-0.001 J-0.2
N5060 G1 X104.977 Y27.624
N5065 Y27.572 Z1.107
N5070 Y27.524 Z1.127
N5075 Y27.482 Z1.159
N5080 Y27.45 Z1.2
N5085 X104.976 Y27.431 Z1.248
N5090 Y27.424 Z1.3
N5095 G0 Z6.5
N5100 X105.376 Y27.422
N5105 G1 Z2.3 F333.33
N5110 Z1.1
N5115 Y27.429 Z1.048 F250.
N5120 X105.377 Y27.448 Z1.
N5125 Y27.48 Z0.959
N5130 Y27.522 Z0.927
N5135 Y27.57 Z0.907
N5140 Y27.622 Z0.9
N5145 X105.378 Y27.822
N5150 G3 X105.179 Y28.023 I-0.2 J0.001
N5155 X95.632 Y18.523 I-0.048 J-9.5
N5160 X114.632 I9.5 J0.
N5165 X105.179 Y28.023 I-9.5 J0.
N5170 X104.978 Y27.824 I-0.001 J-0.2
N5175 G1 X104.977 Y27.624
N5180 Y27.572 Z0.907
N5185 Y27.524 Z0.927
N5190 Y27.482 Z0.959
N5195 Y27.45 Z1.
N5200 X104.976 Y27.431 Z1.048
N5205 Y27.424 Z1.1
N5210 G0 Z6.5
N5215 X105.376 Y27.422
N5220 G1 Z2.1 F333.33
N5225 Z0.9
N5230 Y27.429 Z0.848 F250.
N5235 X105.377 Y27.448 Z0.8
N5240 Y27.48 Z0.759
N5245 Y27.522 Z0.727
N5250 Y27.57 Z0.707
N5255 Y27.622 Z0.7
N5260 X105.378 Y27.822
N5265 G3 X105.179 Y28.023 I-0.2 J0.001
N5270 X95.632 Y18.523 I-0.048 J-9.5
N5275 X114.632 I9.5 J0.
N5280 X105.179 Y28.023 I-9.5 J0.
N5285 X104.978 Y27.824 I-0.001 J-0.2
N5290 G1 X104.977 Y27.624
N5295 Y27.572 Z0.707
N5300 Y27.524 Z0.727
N5305 Y27.482 Z0.759
N5310 Y27.45 Z0.8
N5315 X104.976 Y27.431 Z0.848
N5320 Y27.424 Z0.9
N5325 G0 Z6.5
N5330 X105.376 Y27.422
N5335 G1 Z1.9 F333.33
N5340 Z0.7
N5345 Y27.429 Z0.648 F250.
N5350 X105.377 Y27.448 Z0.6
N5355 Y27.48 Z0.559
N5360 Y27.522 Z0.527
N5365 Y27.57 Z0.507
N5370 Y27.622 Z0.5
N5375 X105.378 Y27.822
N5380 G3 X105.179 Y28.023 I-0.2 J0.001
N5385 X95.632 Y18.523 I-0.048 J-9.5
N5390 X114.632 I9.5 J0.
N5395 X105.179 Y28.023 I-9.5 J0.
N5400 X104.978 Y27.824 I-0.001 J-0.2
N5405 G1 X104.977 Y27.624
N5410 Y27.572 Z0.507
N5415 Y27.524 Z0.527
N5420 Y27.482 Z0.559
N5425 Y27.45 Z0.6
N5430 X104.976 Y27.431 Z0.648
N5435 Y27.424 Z0.7
N5440 G0 Z6.5
N5445 X105.376 Y27.422
N5450 G1 Z1.7 F333.33
N5455 Z0.5
N5460 Y27.429 Z0.448 F250.
N5465 X105.377 Y27.448 Z0.4
N5470 Y27.48 Z0.359
N5475 Y27.522 Z0.327
N5480 Y27.57 Z0.307
N5485 Y27.622 Z0.3
N5490 X105.378 Y27.822
N5495 G3 X105.179 Y28.023 I-0.2 J0.001
N5500 X99.357 Y26.066 I-0.048 J-9.5
N5505 G1 Z0.5
N5510 G3 X97.589 Y24.298 I5.775 J-7.543
N5515 G1 Z0.3 F333.33
N5520 G3 X95.632 Y18.523 I7.543 J-5.775 F250.
N5525 X97.589 Y12.748 I9.5 J0.
N5530 G1 Z0.5
N5535 G3 X99.357 Y10.98 I7.543 J5.775
N5540 G1 Z0.3 F333.33
N5545 G3 X110.907 I5.775 J7.543 F250.
N5550 G1 Z0.5
N5555 G3 X112.675 Y12.747 I-5.775 J7.543
N5560 G1 Z0.3 F333.33
N5565 G3 X114.632 Y18.523 I-7.543 J5.776 F250.
N5570 X112.675 Y24.298 I-9.5 J0.
N5575 G1 Z0.5
N5580 G3 X110.907 Y26.066 I-7.543 J-5.776
N5585 G1 Z0.3 F333.33
N5590 G3 X105.179 Y28.023 I-5.775 J-7.543 F250.
N5595 X104.978 Y27.824 I-0.001 J-0.2
N5600 G1 X104.977 Y27.624
N5605 Y27.572 Z0.307
N5610 Y27.524 Z0.327
N5615 Y27.482 Z0.359
N5620 Y27.45 Z0.4
N5625 X104.976 Y27.431 Z0.448
N5630 Y27.424 Z0.5
N5635 G0 Z6.5
N5640 X105.376 Y27.422
N5645 G1 Z1.5 F333.33
N5650 Z0.3
N5655 Y27.429 Z0.248 F250.
N5660 X105.377 Y27.448 Z0.2
N5665 Y27.48 Z0.159
N5670 Y27.522 Z0.127
N5675 Y27.57 Z0.107
N5680 Y27.622 Z0.1
N5685 X105.378 Y27.822
N5690 G3 X105.179 Y28.023 I-0.2 J0.001
N5695 X99.357 Y26.066 I-0.048 J-9.5
N5700 G1 Z0.5
N5705 G3 X97.589 Y24.298 I5.775 J-7.543
N5710 G1 Z0.1 F333.33
N5715 G3 X95.632 Y18.523 I7.543 J-5.775 F250.
N5720 X97.589 Y12.748 I9.5 J0.
N5725 G1 Z0.5
N5730 G3 X99.357 Y10.98 I7.543 J5.775
N5735 G1 Z0.1 F333.33
N5740 G3 X110.907 I5.775 J7.543 F250.
N5745 G1 Z0.5
N5750 G3 X112.675 Y12.747 I-5.775 J7.543
N5755 G1 Z0.1 F333.33
N5760 G3 X114.632 Y18.523 I-7.543 J5.776 F250.
N5765 X112.675 Y24.298 I-9.5 J0.
N5770 G1 Z0.5
N5775 G3 X110.907 Y26.066 I-7.543 J-5.776
N5780 G1 Z0.1 F333.33
N5785 G3 X105.179 Y28.023 I-5.775 J-7.543 F250.
N5790 X104.978 Y27.824 I-0.001 J-0.2
N5795 G1 X104.977 Y27.624
N5800 Y27.572 Z0.107
N5805 Y27.524 Z0.127
N5810 Y27.482 Z0.159
N5815 Y27.45 Z0.2
N5820 X104.976 Y27.431 Z0.248
N5825 Y27.424 Z0.3
N5830 G0 Z6.5
N5835 X105.376 Y27.422
N5840 G1 Z1.3 F333.33
N5845 Z0.1
N5850 Y27.429 Z0.048 F250.
N5855 X105.377 Y27.448 Z0.
N5860 Y27.48 Z-0.041
N5865 Y27.522 Z-0.073
N5870 Y27.57 Z-0.093
N5875 Y27.622 Z-0.1
N5880 X105.378 Y27.822
N5885 G3 X105.179 Y28.023 I-0.2 J0.001
N5890 X99.357 Y26.066 I-0.048 J-9.5
N5895 G1 Z0.5
N5900 G3 X97.589 Y24.298 I5.775 J-7.543
N5905 G1 Z-0.1 F333.33
N5910 G3 X95.632 Y18.523 I7.543 J-5.775 F250.
N5915 X97.589 Y12.748 I9.5 J0.
N5920 G1 Z0.5
N5925 G3 X99.357 Y10.98 I7.543 J5.775
N5930 G1 Z-0.1 F333.33
N5935 G3 X110.907 I5.775 J7.543 F250.
N5940 G1 Z0.5
N5945 G3 X112.675 Y12.747 I-5.775 J7.543
N5950 G1 Z-0.1 F333.33
N5955 G3 X114.632 Y18.523 I-7.543 J5.776 F250.
N5960 X112.675 Y24.298 I-9.5 J0.
N5965 G1 Z0.5
N5970 G3 X110.907 Y26.066 I-7.543 J-5.776
N5975 G1 Z-0.1 F333.33
N5980 G3 X105.179 Y28.023 I-5.775 J-7.543 F250.
N5985 X104.978 Y27.824 I-0.001 J-0.2
N5990 G1 X104.977 Y27.624
N5995 Y27.572 Z-0.093
N6000 Y27.524 Z-0.073
N6005 Y27.482 Z-0.041
N6010 Y27.45 Z0.
N6015 X104.976 Y27.431 Z0.048
N6020 Y27.424 Z0.1
N6025 G0 Z6.5
N6030 X105.376 Y27.422
N6035 G1 Z1.1 F333.33
N6040 Z-0.1
N6045 Y27.429 Z-0.152 F250.
N6050 X105.377 Y27.448 Z-0.2
N6055 Y27.48 Z-0.241
N6060 Y27.522 Z-0.273
N6065 Y27.57 Z-0.293
N6070 Y27.622 Z-0.3
N6075 X105.378 Y27.822
N6080 G3 X105.179 Y28.023 I-0.2 J0.001
N6085 X99.357 Y26.066 I-0.048 J-9.5
N6090 G1 Z0.5
N6095 G3 X97.589 Y24.298 I5.775 J-7.543
N6100 G1 Z-0.3 F333.33
N6105 G3 X95.632 Y18.523 I7.543 J-5.775 F250.
N6110 X97.589 Y12.748 I9.5 J0.
N6115 G1 Z0.5
N6120 G3 X99.357 Y10.98 I7.543 J5.775
N6125 G1 Z-0.3 F333.33
N6130 G3 X110.907 I5.775 J7.543 F250.
N6135 G1 Z0.5
N6140 G3 X112.675 Y12.747 I-5.775 J7.543
N6145 G1 Z-0.3 F333.33
N6150 G3 X114.632 Y18.523 I-7.543 J5.776 F250.
N6155 X112.675 Y24.298 I-9.5 J0.
N6160 G1 Z0.5
N6165 G3 X110.907 Y26.066 I-7.543 J-5.776
N6170 G1 Z-0.3 F333.33
N6175 G3 X105.179 Y28.023 I-5.775 J-7.543 F250.
N6180 X104.978 Y27.824 I-0.001 J-0.2
N6185 G1 X104.977 Y27.624
N6190 Y27.572 Z-0.293
N6195 Y27.524 Z-0.273
N6200 Y27.482 Z-0.241
N6205 Y27.45 Z-0.2
N6210 X104.976 Y27.431 Z-0.152
N6215 Y27.424 Z-0.1
N6220 G0 Z6.5
N6225 X105.376 Y27.422
N6230 G1 Z0.9 F333.33
N6235 Z-0.3
N6240 Y27.429 Z-0.352 F250.
N6245 X105.377 Y27.448 Z-0.4
N6250 Y27.48 Z-0.441
N6255 Y27.522 Z-0.473
N6260 Y27.57 Z-0.493
N6265 Y27.622 Z-0.5
N6270 X105.378 Y27.822
N6275 G3 X105.179 Y28.023 I-0.2 J0.001
N6280 X99.357 Y26.066 I-0.048 J-9.5
N6285 G1 Z0.5
N6290 G3 X97.589 Y24.298 I5.775 J-7.543
N6295 G1 Z-0.5 F333.33
N6300 G3 X95.632 Y18.523 I7.543 J-5.775 F250.
N6305 X97.589 Y12.748 I9.5 J0.
N6310 G1 Z0.5
N6315 G3 X99.357 Y10.98 I7.543 J5.775
N6320 G1 Z-0.5 F333.33
N6325 G3 X110.907 I5.775 J7.543 F250.
N6330 G1 Z0.5
N6335 G3 X112.675 Y12.747 I-5.775 J7.543
N6340 G1 Z-0.5 F333.33
N6345 G3 X114.632 Y18.523 I-7.543 J5.776 F250.
N6350 X112.675 Y24.298 I-9.5 J0.
N6355 G1 Z0.5
N6360 G3 X110.907 Y26.066 I-7.543 J-5.776
N6365 G1 Z-0.5 F333.33
N6370 G3 X105.179 Y28.023 I-5.775 J-7.543 F250.
N6375 X104.978 Y27.824 I-0.001 J-0.2
N6380 G1 X104.977 Y27.624
N6385 Y27.572 Z-0.493
N6390 Y27.524 Z-0.473
N6395 Y27.482 Z-0.441
N6400 Y27.45 Z-0.4
N6405 X104.976 Y27.431 Z-0.352
N6410 Y27.424 Z-0.3
N6415 G0 Z6.5
N6420 X115.173 Y43.424
N6425 G1 Z2.7 F333.33
N6430 Z1.5
N6435 G18 G2 X115.373 Z1.3 I0.2 K0. F250.
N6440 G1 X115.573
N6445 G17 G3 X115.773 Y43.624 I0. J0.2
N6450 X114.277 I-0.748 J0.
N6455 X115.773 I0.748 J0.
N6460 X115.573 Y43.824 I-0.2 J0.
N6465 G1 X115.373
N6470 G18 G3 X115.173 Z1.5 I0. K0.2
N6475 G0 Z6.5
N6480 Y43.424
N6485 G1 Z2.5 F333.33
N6490 Z1.3
N6495 G2 X115.373 Z1.1 I0.2 K0. F250.
N6500 G1 X115.573
N6505 G17 G3 X115.773 Y43.624 I0. J0.2
N6510 X114.277 I-0.748 J0.
N6515 X115.773 I0.748 J0.
N6520 X115.573 Y43.824 I-0.2 J0.
N6525 G1 X115.373
N6530 G18 G3 X115.173 Z1.3 I0. K0.2
N6535 G0 Z6.5
N6540 Y43.424
N6545 G1 Z2.3 F333.33
N6550 Z1.1
N6555 G2 X115.373 Z0.9 I0.2 K0. F250.
N6560 G1 X115.573
N6565 G17 G3 X115.773 Y43.624 I0. J0.2
N6570 X114.277 I-0.748 J0.
N6575 X115.773 I0.748 J0.
N6580 X115.573 Y43.824 I-0.2 J0.
N6585 G1 X115.373
N6590 G18 G3 X115.173 Z1.1 I0. K0.2
N6595 G0 Z6.5
N6600 Y43.424
N6605 G1 Z2.1 F333.33
N6610 Z0.9
N6615 G2 X115.373 Z0.7 I0.2 K0. F250.
N6620 G1 X115.573
N6625 G17 G3 X115.773 Y43.624 I0. J0.2
N6630 X114.277 I-0.748 J0.
N6635 X115.773 I0.748 J0.
N6640 X115.573 Y43.824 I-0.2 J0.
N6645 G1 X115.373
N6650 G18 G3 X115.173 Z0.9 I0. K0.2
N6655 G0 Z6.5
N6660 Y43.424
N6665 G1 Z1.9 F333.33
N6670 Z0.7
N6675 G2 X115.373 Z0.5 I0.2 K0. F250.
N6680 G1 X115.573
N6685 G17 G3 X115.773 Y43.624 I0. J0.2
N6690 X114.277 I-0.748 J0.
N6695 X115.773 I0.748 J0.
N6700 X115.573 Y43.824 I-0.2 J0.
N6705 G1 X115.373
N6710 G18 G3 X115.173 Z0.7 I0. K0.2
N6715 G0 Z6.5
N6720 Y43.424
N6725 G1 Z1.7 F333.33
N6730 Z0.5
N6735 G2 X115.373 Z0.3 I0.2 K0. F250.
N6740 G1 X115.573
N6745 G17 G3 X115.773 Y43.624 I0. J0.2
N6750 X114.277 I-0.748 J0.
N6755 X115.773 I0.748 J0.
N6760 X115.573 Y43.824 I-0.2 J0.
N6765 G1 X115.373
N6770 G18 G3 X115.173 Z0.5 I0. K0.2
N6775 G0 Z6.5
N6780 Y43.424
N6785 G1 Z1.5 F333.33
N6790 Z0.3
N6795 G2 X115.373 Z0.1 I0.2 K0. F250.
N6800 G1 X115.573
N6805 G17 G3 X115.773 Y43.624 I0. J0.2
N6810 X114.277 I-0.748 J0.
N6815 X115.773 I0.748 J0.
N6820 X115.573 Y43.824 I-0.2 J0.
N6825 G1 X115.373
N6830 G18 G3 X115.173 Z0.3 I0. K0.2
N6835 G0 Z6.5
N6840 Y43.424
N6845 G1 Z1.3 F333.33
N6850 Z0.1
N6855 G2 X115.373 Z-0.1 I0.2 K0. F250.
N6860 G1 X115.573
N6865 G17 G3 X115.773 Y43.624 I0. J0.2
N6870 X114.277 I-0.748 J0.
N6875 X115.773 I0.748 J0.
N6880 X115.573 Y43.824 I-0.2 J0.
N6885 G1 X115.373
N6890 G18 G3 X115.173 Z0.1 I0. K0.2
N6895 G0 Z6.5
N6900 Y43.424
N6905 G1 Z1.1 F333.33
N6910 Z-0.1
N6915 G2 X115.373 Z-0.3 I0.2 K0. F250.
N6920 G1 X115.573
N6925 G17 G3 X115.773 Y43.624 I0. J0.2
N6930 X114.277 I-0.748 J0.
N6935 X115.773 I0.748 J0.
N6940 X115.573 Y43.824 I-0.2 J0.
N6945 G1 X115.373
N6950 G18 G3 X115.173 Z-0.1 I0. K0.2
N6955 G0 Z6.5
N6960 Y43.424
N6965 G1 Z0.9 F333.33
N6970 Z-0.3
N6975 G2 X115.373 Z-0.5 I0.2 K0. F250.
N6980 G1 X115.573
N6985 G17 G3 X115.773 Y43.624 I0. J0.2
N6990 X114.277 I-0.748 J0.
N6995 X115.773 I0.748 J0.
N7000 X115.573 Y43.824 I-0.2 J0.
N7005 G1 X115.373
N7010 G18 G3 X115.173 Z-0.3 I0. K0.2
N7015 G0 Z6.5
N7020 X144.032 Y53.323
N7025 G1 Z2.7 F333.33
N7030 Z1.5
N7035 G2 X144.232 Z1.3 I0.2 K0. F250.
N7040 G1 X144.432
N7045 G17 G3 X144.632 Y53.523 I0. J0.2
N7050 X125.632 I-9.5 J0.
N7055 X144.632 I9.5 J0.
N7060 X144.432 Y53.723 I-0.2 J0.
N7065 G1 X144.232
N7070 G18 G3 X144.032 Z1.5 I0. K0.2
N7075 G0 Z6.5
N7080 Y53.323
N7085 G1 Z2.5 F333.33
N7090 Z1.3
N7095 G2 X144.232 Z1.1 I0.2 K0. F250.
N7100 G1 X144.432
N7105 G17 G3 X144.632 Y53.523 I0. J0.2
N7110 X125.632 I-9.5 J0.
N7115 X144.632 I9.5 J0.
N7120 X144.432 Y53.723 I-0.2 J0.
N7125 G1 X144.232
N7130 G18 G3 X144.032 Z1.3 I0. K0.2
N7135 G0 Z6.5
N7140 Y53.323
N7145 G1 Z2.3 F333.33
N7150 Z1.1
N7155 G2 X144.232 Z0.9 I0.2 K0. F250.
N7160 G1 X144.432
N7165 G17 G3 X144.632 Y53.523 I0. J0.2
N7170 X125.632 I-9.5 J0.
N7175 X144.632 I9.5 J0.
N7180 X144.432 Y53.723 I-0.2 J0.
N7185 G1 X144.232
N7190 G18 G3 X144.032 Z1.1 I0. K0.2
N7195 G0 Z6.5
N7200 Y53.323
N7205 G1 Z2.1 F333.33
N7210 Z0.9
N7215 G2 X144.232 Z0.7 I0.2 K0. F250.
N7220 G1 X144.432
N7225 G17 G3 X144.632 Y53.523 I0. J0.2
N7230 X125.632 I-9.5 J0.
N7235 X144.632 I9.5 J0.
N7240 X144.432 Y53.723 I-0.2 J0.
N7245 G1 X144.232
N7250 G18 G3 X144.032 Z0.9 I0. K0.2
N7255 G0 Z6.5
N7260 Y53.323
N7265 G1 Z1.9 F333.33
N7270 Z0.7
N7275 G2 X144.232 Z0.5 I0.2 K0. F250.
N7280 G1 X144.432
N7285 G17 G3 X144.632 Y53.523 I0. J0.2
N7290 X125.632 I-9.5 J0.
N7295 X144.632 I9.5 J0.
N7300 X144.432 Y53.723 I-0.2 J0.
N7305 G1 X144.232
N7310 G18 G3 X144.032 Z0.7 I0. K0.2
N7315 G0 Z6.5
N7320 Y53.323
N7325 G1 Z1.7 F333.33
N7330 Z0.5
N7335 G2 X144.232 Z0.3 I0.2 K0. F250.
N7340 G1 X144.432
N7345 G17 G3 X144.632 Y53.523 I0. J0.2
N7350 X142.675 Y59.298 I-9.5 J0.
N7355 G1 Z0.5
N7360 G3 X140.907 Y61.066 I-7.543 J-5.776
N7365 G1 Z0.3 F333.33
N7370 G3 X129.357 I-5.775 J-7.543 F250.
N7375 G1 Z0.5
N7380 G3 X127.589 Y59.298 I5.775 J-7.543
N7385 G1 Z0.3 F333.33
N7390 G3 Y47.748 I7.543 J-5.775 F250.
N7395 G1 Z0.5
N7400 G3 X129.357 Y45.98 I7.543 J5.775
N7405 G1 Z0.3 F333.33
N7410 G3 X140.907 I5.775 J7.543 F250.
N7415 G1 Z0.5
N7420 G3 X142.675 Y47.747 I-5.775 J7.543
N7425 G1 Z0.3 F333.33
N7430 G3 X144.632 Y53.523 I-7.543 J5.776 F250.
N7435 X144.432 Y53.723 I-0.2 J0.
N7440 G1 X144.232
N7445 G18 G3 X144.032 Z0.5 I0. K0.2
N7450 G0 Z6.5
N7455 Y53.323
N7460 G1 Z1.5 F333.33
N7465 Z0.3
N7470 G2 X144.232 Z0.1 I0.2 K0. F250.
N7475 G1 X144.432
N7480 G17 G3 X144.632 Y53.523 I0. J0.2
N7485 X142.675 Y59.298 I-9.5 J0.
N7490 G1 Z0.5
N7495 G3 X140.907 Y61.066 I-7.543 J-5.776
N7500 G1 Z0.1 F333.33
N7505 G3 X129.357 I-5.775 J-7.543 F250.
N7510 G1 Z0.5
N7515 G3 X127.589 Y59.298 I5.775 J-7.543
N7520 G1 Z0.1 F333.33
N7525 G3 Y47.748 I7.543 J-5.775 F250.
N7530 G1 Z0.5
N7535 G3 X129.357 Y45.98 I7.543 J5.775
N7540 G1 Z0.1 F333.33
N7545 G3 X140.907 I5.775 J7.543 F250.
N7550 G1 Z0.5
N7555 G3 X142.675 Y47.747 I-5.775 J7.543
N7560 G1 Z0.1 F333.33
N7565 G3 X144.632 Y53.523 I-7.543 J5.776 F250.
N7570 X144.432 Y53.723 I-0.2 J0.
N7575 G1 X144.232
N7580 G18 G3 X144.032 Z0.3 I0. K0.2
N7585 G0 Z6.5
N7590 Y53.323
N7595 G1 Z1.3 F333.33
N7600 Z0.1
N7605 G2 X144.232 Z-0.1 I0.2 K0. F250.
N7610 G1 X144.432
N7615 G17 G3 X144.632 Y53.523 I0. J0.2
N7620 X142.675 Y59.298 I-9.5 J0.
N7625 G1 Z0.5
N7630 G3 X140.907 Y61.066 I-7.543 J-5.776
N7635 G1 Z-0.1 F333.33
N7640 G3 X129.357 I-5.775 J-7.543 F250.
N7645 G1 Z0.5
N7650 G3 X127.589 Y59.298 I5.775 J-7.543
N7655 G1 Z-0.1 F333.33
N7660 G3 Y47.748 I7.543 J-5.775 F250.
N7665 G1 Z0.5
N7670 G3 X129.357 Y45.98 I7.543 J5.775
N7675 G1 Z-0.1 F333.33
N7680 G3 X140.907 I5.775 J7.543 F250.
N7685 G1 Z0.5
N7690 G3 X142.675 Y47.747 I-5.775 J7.543
N7695 G1 Z-0.1 F333.33
N7700 G3 X144.632 Y53.523 I-7.543 J5.776 F250.
N7705 X144.432 Y53.723 I-0.2 J0.
N7710 G1 X144.232
N7715 G18 G3 X144.032 Z0.1 I0. K0.2
N7720 G0 Z6.5
N7725 Y53.323
N7730 G1 Z1.1 F333.33
N7735 Z-0.1
N7740 G2 X144.232 Z-0.3 I0.2 K0. F250.
N7745 G1 X144.432
N7750 G17 G3 X144.632 Y53.523 I0. J0.2
N7755 X142.675 Y59.298 I-9.5 J0.
N7760 G1 Z0.5
N7765 G3 X140.907 Y61.066 I-7.543 J-5.776
N7770 G1 Z-0.3 F333.33
N7775 G3 X129.357 I-5.775 J-7.543 F250.
N7780 G1 Z0.5
N7785 G3 X127.589 Y59.298 I5.775 J-7.543
N7790 G1 Z-0.3 F333.33
N7795 G3 Y47.748 I7.543 J-5.775 F250.
N7800 G1 Z0.5
N7805 G3 X129.357 Y45.98 I7.543 J5.775
N7810 G1 Z-0.3 F333.33
N7815 G3 X140.907 I5.775 J7.543 F250.
N7820 G1 Z0.5
N7825 G3 X142.675 Y47.747 I-5.775 J7.543
N7830 G1 Z-0.3 F333.33
N7835 G3 X144.632 Y53.523 I-7.543 J5.776 F250.
N7840 X144.432 Y53.723 I-0.2 J0.
N7845 G1 X144.232
N7850 G18 G3 X144.032 Z-0.1 I0. K0.2
N7855 G0 Z6.5
N7860 Y53.323
N7865 G1 Z0.9 F333.33
N7870 Z-0.3
N7875 G2 X144.232 Z-0.5 I0.2 K0. F250.
N7880 G1 X144.432
N7885 G17 G3 X144.632 Y53.523 I0. J0.2
N7890 X142.675 Y59.298 I-9.5 J0.
N7895 G1 Z0.5
N7900 G3 X140.907 Y61.066 I-7.543 J-5.776
N7905 G1 Z-0.5 F333.33
N7910 G3 X129.357 I-5.775 J-7.543 F250.
N7915 G1 Z0.5
N7920 G3 X127.589 Y59.298 I5.775 J-7.543
N7925 G1 Z-0.5 F333.33
N7930 G3 Y47.748 I7.543 J-5.775 F250.
N7935 G1 Z0.5
N7940 G3 X129.357 Y45.98 I7.543 J5.775
N7945 G1 Z-0.5 F333.33
N7950 G3 X140.907 I5.775 J7.543 F250.
N7955 G1 Z0.5
N7960 G3 X142.675 Y47.747 I-5.775 J7.543
N7965 G1 Z-0.5 F333.33
N7970 G3 X144.632 Y53.523 I-7.543 J5.776 F250.
N7975 X144.432 Y53.723 I-0.2 J0.
N7980 G1 X144.232
N7985 G18 G3 X144.032 Z-0.3 I0. K0.2
N7990 G0 Z6.5
N7995 X145.173 Y43.424
N8000 G1 Z2.7 F333.33
N8005 Z1.5
N8010 G2 X145.373 Z1.3 I0.2 K0. F250.
N8015 G1 X145.573
N8020 G17 G3 X145.773 Y43.624 I0. J0.2
N8025 X144.277 I-0.748 J0.
N8030 X145.773 I0.748 J0.
N8035 X145.573 Y43.824 I-0.2 J0.
N8040 G1 X145.373
N8045 G18 G3 X145.173 Z1.5 I0. K0.2
N8050 G0 Z6.5
N8055 Y43.424
N8060 G1 Z2.5 F333.33
N8065 Z1.3
N8070 G2 X145.373 Z1.1 I0.2 K0. F250.
N8075 G1 X145.573
N8080 G17 G3 X145.773 Y43.624 I0. J0.2
N8085 X144.277 I-0.748 J0.
N8090 X145.773 I0.748 J0.
N8095 X145.573 Y43.824 I-0.2 J0.
N8100 G1 X145.373
N8105 G18 G3 X145.173 Z1.3 I0. K0.2
N8110 G0 Z6.5
N8115 Y43.424
N8120 G1 Z2.3 F333.33
N8125 Z1.1
N8130 G2 X145.373 Z0.9 I0.2 K0. F250.
N8135 G1 X145.573
N8140 G17 G3 X145.773 Y43.624 I0. J0.2
N8145 X144.277 I-0.748 J0.
N8150 X145.773 I0.748 J0.
N8155 X145.573 Y43.824 I-0.2 J0.
N8160 G1 X145.373
N8165 G18 G3 X145.173 Z1.1 I0. K0.2
N8170 G0 Z6.5
N8175 Y43.424
N8180 G1 Z2.1 F333.33
N8185 Z0.9
N8190 G2 X145.373 Z0.7 I0.2 K0. F250.
N8195 G1 X145.573
N8200 G17 G3 X145.773 Y43.624 I0. J0.2
N8205 X144.277 I-0.748 J0.
N8210 X145.773 I0.748 J0.
N8215 X145.573 Y43.824 I-0.2 J0.
N8220 G1 X145.373
N8225 G18 G3 X145.173 Z0.9 I0. K0.2
N8230 G0 Z6.5
N8235 Y43.424
N8240 G1 Z1.9 F333.33
N8245 Z0.7
N8250 G2 X145.373 Z0.5 I0.2 K0. F250.
N8255 G1 X145.573
N8260 G17 G3 X145.773 Y43.624 I0. J0.2
N8265 X144.277 I-0.748 J0.
N8270 X145.773 I0.748 J0.
N8275 X145.573 Y43.824 I-0.2 J0.
N8280 G1 X145.373
N8285 G18 G3 X145.173 Z0.7 I0. K0.2
N8290 G0 Z6.5
N8295 Y43.424
N8300 G1 Z1.7 F333.33
N8305 Z0.5
N8310 G2 X145.373 Z0.3 I0.2 K0. F250.
N8315 G1 X145.573
N8320 G17 G3 X145.773 Y43.624 I0. J0.2
N8325 X144.277 I-0.748 J0.
N8330 X145.773 I0.748 J0.
N8335 X145.573 Y43.824 I-0.2 J0.
N8340 G1 X145.373
N8345 G18 G3 X145.173 Z0.5 I0. K0.2
N8350 G0 Z6.5
N8355 Y43.424
N8360 G1 Z1.5 F333.33
N8365 Z0.3
N8370 G2 X145.373 Z0.1 I0.2 K0. F250.
N8375 G1 X145.573
N8380 G17 G3 X145.773 Y43.624 I0. J0.2
N8385 X144.277 I-0.748 J0.
N8390 X145.773 I0.748 J0.
N8395 X145.573 Y43.824 I-0.2 J0.
N8400 G1 X145.373
N8405 G18 G3 X145.173 Z0.3 I0. K0.2
N8410 G0 Z6.5
N8415 Y43.424
N8420 G1 Z1.3 F333.33
N8425 Z0.1
N8430 G2 X145.373 Z-0.1 I0.2 K0. F250.
N8435 G1 X145.573
N8440 G17 G3 X145.773 Y43.624 I0. J0.2
N8445 X144.277 I-0.748 J0.
N8450 X145.773 I0.748 J0.
N8455 X145.573 Y43.824 I-0.2 J0.
N8460 G1 X145.373
N8465 G18 G3 X145.173 Z0.1 I0. K0.2
N8470 G0 Z6.5
N8475 Y43.424
N8480 G1 Z1.1 F333.33
N8485 Z-0.1
N8490 G2 X145.373 Z-0.3 I0.2 K0. F250.
N8495 G1 X145.573
N8500 G17 G3 X145.773 Y43.624 I0. J0.2
N8505 X144.277 I-0.748 J0.
N8510 X145.773 I0.748 J0.
N8515 X145.573 Y43.824 I-0.2 J0.
N8520 G1 X145.373
N8525 G18 G3 X145.173 Z-0.1 I0. K0.2
N8530 G0 Z6.5
N8535 Y43.424
N8540 G1 Z0.9 F333.33
N8545 Z-0.3
N8550 G2 X145.373 Z-0.5 I0.2 K0. F250.
N8555 G1 X145.573
N8560 G17 G3 X145.773 Y43.624 I0. J0.2
N8565 X144.277 I-0.748 J0.
N8570 X145.773 I0.748 J0.
N8575 X145.573 Y43.824 I-0.2 J0.
N8580 G1 X145.373
N8585 G18 G3 X145.173 Z-0.3 I0. K0.2
N8590 G0 Z6.5
N8595 X174.032 Y53.323
N8600 G1 Z2.7 F333.33
N8605 Z1.5
N8610 G2 X174.232 Z1.3 I0.2 K0. F250.
N8615 G1 X174.432
N8620 G17 G3 X174.632 Y53.523 I0. J0.2
N8625 X155.632 I-9.5 J0.
N8630 X174.632 I9.5 J0.
N8635 X174.432 Y53.723 I-0.2 J0.
N8640 G1 X174.232
N8645 G18 G3 X174.032 Z1.5 I0. K0.2
N8650 G0 Z6.5
N8655 Y53.323
N8660 G1 Z2.5 F333.33
N8665 Z1.3
N8670 G2 X174.232 Z1.1 I0.2 K0. F250.
N8675 G1 X174.432
N8680 G17 G3 X174.632 Y53.523 I0. J0.2
N8685 X155.632 I-9.5 J0.
N8690 X174.632 I9.5 J0.
N8695 X174.432 Y53.723 I-0.2 J0.
N8700 G1 X174.232
N8705 G18 G3 X174.032 Z1.3 I0. K0.2
N8710 G0 Z6.5
N8715 Y53.323
N8720 G1 Z2.3 F333.33
N8725 Z1.1
N8730 G2 X174.232 Z0.9 I0.2 K0. F250.
N8735 G1 X174.432
N8740 G17 G3 X174.632 Y53.523 I0. J0.2
N8745 X155.632 I-9.5 J0.
N8750 X174.632 I9.5 J0.
N8755 X174.432 Y53.723 I-0.2 J0.
N8760 G1 X174.232
N8765 G18 G3 X174.032 Z1.1 I0. K0.2
N8770 G0 Z6.5
N8775 Y53.323
N8780 G1 Z2.1 F333.33
N8785 Z0.9
N8790 G2 X174.232 Z0.7 I0.2 K0. F250.
N8795 G1 X174.432
N8800 G17 G3 X174.632 Y53.523 I0. J0.2
N8805 X155.632 I-9.5 J0.
N8810 X174.632 I9.5 J0.
N8815 X174.432 Y53.723 I-0.2 J0.
N8820 G1 X174.232
N8825 G18 G3 X174.032 Z0.9 I0. K0.2
N8830 G0 Z6.5
N8835 Y53.323
N8840 G1 Z1.9 F333.33
N8845 Z0.7
N8850 G2 X174.232 Z0.5 I0.2 K0. F250.
N8855 G1 X174.432
N8860 G17 G3 X174.632 Y53.523 I0. J0.2
N8865 X155.632 I-9.5 J0.
N8870 X174.632 I9.5 J0.
N8875 X174.432 Y53.723 I-0.2 J0.
N8880 G1 X174.232
N8885 G18 G3 X174.032 Z0.7 I0. K0.2
N8890 G0 Z6.5
N8895 Y53.323
N8900 G1 Z1.7 F333.33
N8905 Z0.5
N8910 G2 X174.232 Z0.3 I0.2 K0. F250.
N8915 G1 X174.432
N8920 G17 G3 X174.632 Y53.523 I0. J0.2
N8925 X172.675 Y59.298 I-9.5 J0.
N8930 G1 Z0.5
N8935 G3 X170.907 Y61.066 I-7.543 J-5.776
N8940 G1 Z0.3 F333.33
N8945 G3 X159.357 I-5.775 J-7.543 F250.
N8950 G1 Z0.5
N8955 G3 X157.589 Y59.298 I5.775 J-7.543
N8960 G1 Z0.3 F333.33
N8965 G3 Y47.748 I7.543 J-5.775 F250.
N8970 G1 Z0.5
N8975 G3 X159.357 Y45.98 I7.543 J5.775
N8980 G1 Z0.3 F333.33
N8985 G3 X170.907 I5.775 J7.543 F250.
N8990 G1 Z0.5
N8995 G3 X172.675 Y47.747 I-5.775 J7.543
N9000 G1 Z0.3 F333.33
N9005 G3 X174.632 Y53.523 I-7.543 J5.776 F250.
N9010 X174.432 Y53.723 I-0.2 J0.
N9015 G1 X174.232
N9020 G18 G3 X174.032 Z0.5 I0. K0.2
N9025 G0 Z6.5
N9030 Y53.323
N9035 G1 Z1.5 F333.33
N9040 Z0.3
N9045 G2 X174.232 Z0.1 I0.2 K0. F250.
N9050 G1 X174.432
N9055 G17 G3 X174.632 Y53.523 I0. J0.2
N9060 X172.675 Y59.298 I-9.5 J0.
N9065 G1 Z0.5
N9070 G3 X170.907 Y61.066 I-7.543 J-5.776
N9075 G1 Z0.1 F333.33
N9080 G3 X159.357 I-5.775 J-7.543 F250.
N9085 G1 Z0.5
N9090 G3 X157.589 Y59.298 I5.775 J-7.543
N9095 G1 Z0.1 F333.33
N9100 G3 Y47.748 I7.543 J-5.775 F250.
N9105 G1 Z0.5
N9110 G3 X159.357 Y45.98 I7.543 J5.775
N9115 G1 Z0.1 F333.33
N9120 G3 X170.907 I5.775 J7.543 F250.
N9125 G1 Z0.5
N9130 G3 X172.675 Y47.747 I-5.775 J7.543
N9135 G1 Z0.1 F333.33
N9140 G3 X174.632 Y53.523 I-7.543 J5.776 F250.
N9145 X174.432 Y53.723 I-0.2 J0.
N9150 G1 X174.232
N9155 G18 G3 X174.032 Z0.3 I0. K0.2
N9160 G0 Z6.5
N9165 Y53.323
N9170 G1 Z1.3 F333.33
N9175 Z0.1
N9180 G2 X174.232 Z-0.1 I0.2 K0. F250.
N9185 G1 X174.432
N9190 G17 G3 X174.632 Y53.523 I0. J0.2
N9195 X172.675 Y59.298 I-9.5 J0.
N9200 G1 Z0.5
N9205 G3 X170.907 Y61.066 I-7.543 J-5.776
N9210 G1 Z-0.1 F333.33
N9215 G3 X159.357 I-5.775 J-7.543 F250.
N9220 G1 Z0.5
N9225 G3 X157.589 Y59.298 I5.775 J-7.543
N9230 G1 Z-0.1 F333.33
N9235 G3 Y47.748 I7.543 J-5.775 F250.
N9240 G1 Z0.5
N9245 G3 X159.357 Y45.98 I7.543 J5.775
N9250 G1 Z-0.1 F333.33
N9255 G3 X170.907 I5.775 J7.543 F250.
N9260 G1 Z0.5
N9265 G3 X172.675 Y47.747 I-5.775 J7.543
N9270 G1 Z-0.1 F333.33
N9275 G3 X174.632 Y53.523 I-7.543 J5.776 F250.
N9280 X174.432 Y53.723 I-0.2 J0.
N9285 G1 X174.232
N9290 G18 G3 X174.032 Z0.1 I0. K0.2
N9295 G0 Z6.5
N9300 Y53.323
N9305 G1 Z1.1 F333.33
N9310 Z-0.1
N9315 G2 X174.232 Z-0.3 I0.2 K0. F250.
N9320 G1 X174.432
N9325 G17 G3 X174.632 Y53.523 I0. J0.2
N9330 X172.675 Y59.298 I-9.5 J0.
N9335 G1 Z0.5
N9340 G3 X170.907 Y61.066 I-7.543 J-5.776
N9345 G1 Z-0.3 F333.33
N9350 G3 X159.357 I-5.775 J-7.543 F250.
N9355 G1 Z0.5
N9360 G3 X157.589 Y59.298 I5.775 J-7.543
N9365 G1 Z-0.3 F333.33
N9370 G3 Y47.748 I7.543 J-5.775 F250.
N9375 G1 Z0.5
N9380 G3 X159.357 Y45.98 I7.543 J5.775
N9385 G1 Z-0.3 F333.33
N9390 G3 X170.907 I5.775 J7.543 F250.
N9395 G1 Z0.5
N9400 G3 X172.675 Y47.747 I-5.775 J7.543
N9405 G1 Z-0.3 F333.33
N9410 G3 X174.632 Y53.523 I-7.543 J5.776 F250.
N9415 X174.432 Y53.723 I-0.2 J0.
N9420 G1 X174.232
N9425 G18 G3 X174.032 Z-0.1 I0. K0.2
N9430 G0 Z6.5
N9435 Y53.323
N9440 G1 Z0.9 F333.33
N9445 Z-0.3
N9450 G2 X174.232 Z-0.5 I0.2 K0. F250.
N9455 G1 X174.432
N9460 G17 G3 X174.632 Y53.523 I0. J0.2
N9465 X172.675 Y59.298 I-9.5 J0.
N9470 G1 Z0.5
N9475 G3 X170.907 Y61.066 I-7.543 J-5.776
N9480 G1 Z-0.5 F333.33
N9485 G3 X159.357 I-5.775 J-7.543 F250.
N9490 G1 Z0.5
N9495 G3 X157.589 Y59.298 I5.775 J-7.543
N9500 G1 Z-0.5 F333.33
N9505 G3 Y47.748 I7.543 J-5.775 F250.
N9510 G1 Z0.5
N9515 G3 X159.357 Y45.98 I7.543 J5.775
N9520 G1 Z-0.5 F333.33
N9525 G3 X170.907 I5.775 J7.543 F250.
N9530 G1 Z0.5
N9535 G3 X172.675 Y47.747 I-5.775 J7.543
N9540 G1 Z-0.5 F333.33
N9545 G3 X174.632 Y53.523 I-7.543 J5.776 F250.
N9550 X174.432 Y53.723 I-0.2 J0.
N9555 G1 X174.232
N9560 G18 G3 X174.032 Z-0.3 I0. K0.2
N9565 G0 Z6.5
N9570 X175.173 Y43.424
N9575 G1 Z2.7 F333.33
N9580 Z1.5
N9585 G2 X175.373 Z1.3 I0.2 K0. F250.
N9590 G1 X175.573
N9595 G17 G3 X175.773 Y43.624 I0. J0.2
N9600 X174.277 I-0.748 J0.
N9605 X175.773 I0.748 J0.
N9610 X175.573 Y43.824 I-0.2 J0.
N9615 G1 X175.373
N9620 G18 G3 X175.173 Z1.5 I0. K0.2
N9625 G0 Z6.5
N9630 Y43.424
N9635 G1 Z2.5 F333.33
N9640 Z1.3
N9645 G2 X175.373 Z1.1 I0.2 K0. F250.
N9650 G1 X175.573
N9655 G17 G3 X175.773 Y43.624 I0. J0.2
N9660 X174.277 I-0.748 J0.
N9665 X175.773 I0.748 J0.
N9670 X175.573 Y43.824 I-0.2 J0.
N9675 G1 X175.373
N9680 G18 G3 X175.173 Z1.3 I0. K0.2
N9685 G0 Z6.5
N9690 Y43.424
N9695 G1 Z2.3 F333.33
N9700 Z1.1
N9705 G2 X175.373 Z0.9 I0.2 K0. F250.
N9710 G1 X175.573
N9715 G17 G3 X175.773 Y43.624 I0. J0.2
N9720 X174.277 I-0.748 J0.
N9725 X175.773 I0.748 J0.
N9730 X175.573 Y43.824 I-0.2 J0.
N9735 G1 X175.373
N9740 G18 G3 X175.173 Z1.1 I0. K0.2
N9745 G0 Z6.5
N9750 Y43.424
N9755 G1 Z2.1 F333.33
N9760 Z0.9
N9765 G2 X175.373 Z0.7 I0.2 K0. F250.
N9770 G1 X175.573
N9775 G17 G3 X175.773 Y43.624 I0. J0.2
N9780 X174.277 I-0.748 J0.
N9785 X175.773 I0.748 J0.
N9790 X175.573 Y43.824 I-0.2 J0.
N9795 G1 X175.373
N9800 G18 G3 X175.173 Z0.9 I0. K0.2
N9805 G0 Z6.5
N9810 Y43.424
N9815 G1 Z1.9 F333.33
N9820 Z0.7
N9825 G2 X175.373 Z0.5 I0.2 K0. F250.
N9830 G1 X175.573
N9835 G17 G3 X175.773 Y43.624 I0. J0.2
N9840 X174.277 I-0.748 J0.
N9845 X175.773 I0.748 J0.
N9850 X175.573 Y43.824 I-0.2 J0.
N9855 G1 X175.373
N9860 G18 G3 X175.173 Z0.7 I0. K0.2
N9865 G0 Z6.5
N9870 Y43.424
N9875 G1 Z1.7 F333.33
N9880 Z0.5
N9885 G2 X175.373 Z0.3 I0.2 K0. F250.
N9890 G1 X175.573
N9895 G17 G3 X175.773 Y43.624 I0. J0.2
N9900 X174.277 I-0.748 J0.
N9905 X175.773 I0.748 J0.
N9910 X175.573 Y43.824 I-0.2 J0.
N9915 G1 X175.373
N9920 G18 G3 X175.173 Z0.5 I0. K0.2
N9925 G0 Z6.5
N9930 Y43.424
N9935 G1 Z1.5 F333.33
N9940 Z0.3
N9945 G2 X175.373 Z0.1 I0.2 K0. F250.
N9950 G1 X175.573
N9955 G17 G3 X175.773 Y43.624 I0. J0.2
N9960 X174.277 I-0.748 J0.
N9965 X175.773 I0.748 J0.
N9970 X175.573 Y43.824 I-0.2 J0.
N9975 G1 X175.373
N9980 G18 G3 X175.173 Z0.3 I0. K0.2
N9985 G0 Z6.5
N9990 Y43.424
N9995 G1 Z1.3 F333.33
N10000 Z0.1
N10005 G2 X175.373 Z-0.1 I0.2 K0. F250.
N10010 G1 X175.573
N10015 G17 G3 X175.773 Y43.624 I0. J0.2
N10020 X174.277 I-0.748 J0.
N10025 X175.773 I0.748 J0.
N10030 X175.573 Y43.824 I-0.2 J0.
N10035 G1 X175.373
N10040 G18 G3 X175.173 Z0.1 I0. K0.2
N10045 G0 Z6.5
N10050 Y43.424
N10055 G1 Z1.1 F333.33
N10060 Z-0.1
N10065 G2 X175.373 Z-0.3 I0.2 K0. F250.
N10070 G1 X175.573
N10075 G17 G3 X175.773 Y43.624 I0. J0.2
N10080 X174.277 I-0.748 J0.
N10085 X175.773 I0.748 J0.
N10090 X175.573 Y43.824 I-0.2 J0.
N10095 G1 X175.373
N10100 G18 G3 X175.173 Z-0.1 I0. K0.2
N10105 G0 Z6.5
N10110 Y43.424
N10115 G1 Z0.9 F333.33
N10120 Z-0.3
N10125 G2 X175.373 Z-0.5 I0.2 K0. F250.
N10130 G1 X175.573
N10135 G17 G3 X175.773 Y43.624 I0. J0.2
N10140 X174.277 I-0.748 J0.
N10145 X175.773 I0.748 J0.
N10150 X175.573 Y43.824 I-0.2 J0.
N10155 G1 X175.373
N10160 G18 G3 X175.173 Z-0.3 I0. K0.2
N10165 G0 Z6.5
N10170 X204.032 Y53.323
N10175 G1 Z2.7 F333.33
N10180 Z1.5
N10185 G2 X204.232 Z1.3 I0.2 K0. F250.
N10190 G1 X204.432
N10195 G17 G3 X204.632 Y53.523 I0. J0.2
N10200 X185.632 I-9.5 J0.
N10205 X204.632 I9.5 J0.
N10210 X204.432 Y53.723 I-0.2 J0.
N10215 G1 X204.232
N10220 G18 G3 X204.032 Z1.5 I0. K0.2
N10225 G0 Z6.5
N10230 Y53.323
N10235 G1 Z2.5 F333.33
N10240 Z1.3
N10245 G2 X204.232 Z1.1 I0.2 K0. F250.
N10250 G1 X204.432
N10255 G17 G3 X204.632 Y53.523 I0. J0.2
N10260 X185.632 I-9.5 J0.
N10265 X204.632 I9.5 J0.
N10270 X204.432 Y53.723 I-0.2 J0.
N10275 G1 X204.232
N10280 G18 G3 X204.032 Z1.3 I0. K0.2
N10285 G0 Z6.5
N10290 Y53.323
N10295 G1 Z2.3 F333.33
N10300 Z1.1
N10305 G2 X204.232 Z0.9 I0.2 K0. F250.
N10310 G1 X204.432
N10315 G17 G3 X204.632 Y53.523 I0. J0.2
N10320 X185.632 I-9.5 J0.
N10325 X204.632 I9.5 J0.
N10330 X204.432 Y53.723 I-0.2 J0.
N10335 G1 X204.232
N10340 G18 G3 X204.032 Z1.1 I0. K0.2
N10345 G0 Z6.5
N10350 Y53.323
N10355 G1 Z2.1 F333.33
N10360 Z0.9
N10365 G2 X204.232 Z0.7 I0.2 K0. F250.
N10370 G1 X204.432
N10375 G17 G3 X204.632 Y53.523 I0. J0.2
N10380 X185.632 I-9.5 J0.
N10385 X204.632 I9.5 J0.
N10390 X204.432 Y53.723 I-0.2 J0.
N10395 G1 X204.232
N10400 G18 G3 X204.032 Z0.9 I0. K0.2
N10405 G0 Z6.5
N10410 Y53.323
N10415 G1 Z1.9 F333.33
N10420 Z0.7
N10425 G2 X204.232 Z0.5 I0.2 K0. F250.
N10430 G1 X204.432
N10435 G17 G3 X204.632 Y53.523 I0. J0.2
N10440 X185.632 I-9.5 J0.
N10445 X204.632 I9.5 J0.
N10450 X204.432 Y53.723 I-0.2 J0.
N10455 G1 X204.232
N10460 G18 G3 X204.032 Z0.7 I0. K0.2
N10465 G0 Z6.5
N10470 Y53.323
N10475 G1 Z1.7 F333.33
N10480 Z0.5
N10485 G2 X204.232 Z0.3 I0.2 K0. F250.
N10490 G1 X204.432
N10495 G17 G3 X204.632 Y53.523 I0. J0.2
N10500 X202.675 Y59.298 I-9.5 J0.
N10505 G1 Z0.5
N10510 G3 X200.907 Y61.066 I-7.543 J-5.776
N10515 G1 Z0.3 F333.33
N10520 G3 X189.357 I-5.775 J-7.543 F250.
N10525 G1 Z0.5
N10530 G3 X187.589 Y59.298 I5.775 J-7.543
N10535 G1 Z0.3 F333.33
N10540 G3 Y47.748 I7.543 J-5.775 F250.
N10545 G1 Z0.5
N10550 G3 X189.357 Y45.98 I7.543 J5.775
N10555 G1 Z0.3 F333.33
N10560 G3 X200.907 I5.775 J7.543 F250.
N10565 G1 Z0.5
N10570 G3 X202.675 Y47.747 I-5.775 J7.543
N10575 G1 Z0.3 F333.33
N10580 G3 X204.632 Y53.523 I-7.543 J5.776 F250.
N10585 X204.432 Y53.723 I-0.2 J0.
N10590 G1 X204.232
N10595 G18 G3 X204.032 Z0.5 I0. K0.2
N10600 G0 Z6.5
N10605 Y53.323
N10610 G1 Z1.5 F333.33
N10615 Z0.3
N10620 G2 X204.232 Z0.1 I0.2 K0. F250.
N10625 G1 X204.432
N10630 G17 G3 X204.632 Y53.523 I0. J0.2
N10635 X202.675 Y59.298 I-9.5 J0.
N10640 G1 Z0.5
N10645 G3 X200.907 Y61.066 I-7.543 J-5.776
N10650 G1 Z0.1 F333.33
N10655 G3 X189.357 I-5.775 J-7.543 F250.
N10660 G1 Z0.5
N10665 G3 X187.589 Y59.298 I5.775 J-7.543
N10670 G1 Z0.1 F333.33
N10675 G3 Y47.748 I7.543 J-5.775 F250.
N10680 G1 Z0.5
N10685 G3 X189.357 Y45.98 I7.543 J5.775
N10690 G1 Z0.1 F333.33
N10695 G3 X200.907 I5.775 J7.543 F250.
N10700 G1 Z0.5
N10705 G3 X202.675 Y47.747 I-5.775 J7.543
N10710 G1 Z0.1 F333.33
N10715 G3 X204.632 Y53.523 I-7.543 J5.776 F250.
N10720 X204.432 Y53.723 I-0.2 J0.
N10725 G1 X204.232
N10730 G18 G3 X204.032 Z0.3 I0. K0.2
N10735 G0 Z6.5
N10740 Y53.323
N10745 G1 Z1.3 F333.33
N10750 Z0.1
N10755 G2 X204.232 Z-0.1 I0.2 K0. F250.
N10760 G1 X204.432
N10765 G17 G3 X204.632 Y53.523 I0. J0.2
N10770 X202.675 Y59.298 I-9.5 J0.
N10775 G1 Z0.5
N10780 G3 X200.907 Y61.066 I-7.543 J-5.776
N10785 G1 Z-0.1 F333.33
N10790 G3 X189.357 I-5.775 J-7.543 F250.
N10795 G1 Z0.5
N10800 G3 X187.589 Y59.298 I5.775 J-7.543
N10805 G1 Z-0.1 F333.33
N10810 G3 Y47.748 I7.543 J-5.775 F250.
N10815 G1 Z0.5
N10820 G3 X189.357 Y45.98 I7.543 J5.775
N10825 G1 Z-0.1 F333.33
N10830 G3 X200.907 I5.775 J7.543 F250.
N10835 G1 Z0.5
N10840 G3 X202.675 Y47.747 I-5.775 J7.543
N10845 G1 Z-0.1 F333.33
N10850 G3 X204.632 Y53.523 I-7.543 J5.776 F250.
N10855 X204.432 Y53.723 I-0.2 J0.
N10860 G1 X204.232
N10865 G18 G3 X204.032 Z0.1 I0. K0.2
N10870 G0 Z6.5
N10875 Y53.323
N10880 G1 Z1.1 F333.33
N10885 Z-0.1
N10890 G2 X204.232 Z-0.3 I0.2 K0. F250.
N10895 G1 X204.432
N10900 G17 G3 X204.632 Y53.523 I0. J0.2
N10905 X202.675 Y59.298 I-9.5 J0.
N10910 G1 Z0.5
N10915 G3 X200.907 Y61.066 I-7.543 J-5.776
N10920 G1 Z-0.3 F333.33
N10925 G3 X189.357 I-5.775 J-7.543 F250.
N10930 G1 Z0.5
N10935 G3 X187.589 Y59.298 I5.775 J-7.543
N10940 G1 Z-0.3 F333.33
N10945 G3 Y47.748 I7.543 J-5.775 F250.
N10950 G1 Z0.5
N10955 G3 X189.357 Y45.98 I7.543 J5.775
N10960 G1 Z-0.3 F333.33
N10965 G3 X200.907 I5.775 J7.543 F250.
N10970 G1 Z0.5
N10975 G3 X202.675 Y47.747 I-5.775 J7.543
N10980 G1 Z-0.3 F333.33
N10985 G3 X204.632 Y53.523 I-7.543 J5.776 F250.
N10990 X204.432 Y53.723 I-0.2 J0.
N10995 G1 X204.232
N11000 G18 G3 X204.032 Z-0.1 I0. K0.2
N11005 G0 Z6.5
N11010 Y53.323
N11015 G1 Z0.9 F333.33
N11020 Z-0.3
N11025 G2 X204.232 Z-0.5 I0.2 K0. F250.
N11030 G1 X204.432
N11035 G17 G3 X204.632 Y53.523 I0. J0.2
N11040 X202.675 Y59.298 I-9.5 J0.
N11045 G1 Z0.5
N11050 G3 X200.907 Y61.066 I-7.543 J-5.776
N11055 G1 Z-0.5 F333.33
N11060 G3 X189.357 I-5.775 J-7.543 F250.
N11065 G1 Z0.5
N11070 G3 X187.589 Y59.298 I5.775 J-7.543
N11075 G1 Z-0.5 F333.33
N11080 G3 Y47.748 I7.543 J-5.775 F250.
N11085 G1 Z0.5
N11090 G3 X189.357 Y45.98 I7.543 J5.775
N11095 G1 Z-0.5 F333.33
N11100 G3 X200.907 I5.775 J7.543 F250.
N11105 G1 Z0.5
N11110 G3 X202.675 Y47.747 I-5.775 J7.543
N11115 G1 Z-0.5 F333.33
N11120 G3 X204.632 Y53.523 I-7.543 J5.776 F250.
N11125 X204.432 Y53.723 I-0.2 J0.
N11130 G1 X204.232
N11135 G18 G3 X204.032 Z-0.3 I0. K0.2
N11140 G0 Z6.5
N11145 X205.235 Y43.49
N11150 G1 Z2.7 F333.33
N11155 Z1.5
N11160 X205.242 Y43.493 Z1.448 F250.
N11165 X205.26 Y43.5 Z1.4
N11170 X205.29 Y43.512 Z1.359
N11175 X205.329 Y43.527 Z1.327
N11180 X205.373 Y43.544 Z1.307
N11185 X205.422 Y43.563 Z1.3
N11190 X205.608 Y43.635
N11195 G17 G3 X205.722 Y43.894 I-0.072 J0.186
N11200 X204.327 Y43.353 I-0.697 J-0.27
N11205 X205.722 Y43.894 I0.697 J0.27
N11210 X205.464 Y44.008 I-0.186 J-0.072
N11215 G1 X205.277 Y43.936
N11220 X205.229 Y43.917 Z1.307
N11225 X205.184 Y43.9 Z1.327
N11230 X205.145 Y43.885 Z1.359
N11235 X205.116 Y43.873 Z1.4
N11240 X205.097 Y43.866 Z1.448
N11245 X205.091 Y43.863 Z1.5
N11250 G0 Z6.5
N11255 X205.235 Y43.49
N11260 G1 Z2.5 F333.33
N11265 Z1.3
N11270 X205.242 Y43.493 Z1.248 F250.
N11275 X205.26 Y43.5 Z1.2
N11280 X205.29 Y43.512 Z1.159
N11285 X205.329 Y43.527 Z1.127
N11290 X205.373 Y43.544 Z1.107
N11295 X205.422 Y43.563 Z1.1
N11300 X205.608 Y43.635
N11305 G3 X205.722 Y43.894 I-0.072 J0.186
N11310 X204.327 Y43.353 I-0.697 J-0.27
N11315 X205.722 Y43.894 I0.697 J0.27
N11320 X205.464 Y44.008 I-0.186 J-0.072
N11325 G1 X205.277 Y43.936
N11330 X205.229 Y43.917 Z1.107
N11335 X205.184 Y43.9 Z1.127
N11340 X205.145 Y43.885 Z1.159
N11345 X205.116 Y43.873 Z1.2
N11350 X205.097 Y43.866 Z1.248
N11355 X205.091 Y43.863 Z1.3
N11360 G0 Z6.5
N11365 X205.235 Y43.49
N11370 G1 Z2.3 F333.33
N11375 Z1.1
N11380 X205.242 Y43.493 Z1.048 F250.
N11385 X205.26 Y43.5 Z1.
N11390 X205.29 Y43.512 Z0.959
N11395 X205.329 Y43.527 Z0.927
N11400 X205.373 Y43.544 Z0.907
N11405 X205.422 Y43.563 Z0.9
N11410 X205.608 Y43.635
N11415 G3 X205.722 Y43.894 I-0.072 J0.186
N11420 X204.327 Y43.353 I-0.697 J-0.27
N11425 X205.722 Y43.894 I0.697 J0.27
N11430 X205.464 Y44.008 I-0.186 J-0.072
N11435 G1 X205.277 Y43.936
N11440 X205.229 Y43.917 Z0.907
N11445 X205.184 Y43.9 Z0.927
N11450 X205.145 Y43.885 Z0.959
N11455 X205.116 Y43.873 Z1.
N11460 X205.097 Y43.866 Z1.048
N11465 X205.091 Y43.863 Z1.1
N11470 G0 Z6.5
N11475 X205.235 Y43.49
N11480 G1 Z2.1 F333.33
N11485 Z0.9
N11490 X205.242 Y43.493 Z0.848 F250.
N11495 X205.26 Y43.5 Z0.8
N11500 X205.29 Y43.512 Z0.759
N11505 X205.329 Y43.527 Z0.727
N11510 X205.373 Y43.544 Z0.707
N11515 X205.422 Y43.563 Z0.7
N11520 X205.608 Y43.635
N11525 G3 X205.722 Y43.894 I-0.072 J0.186
N11530 X204.327 Y43.353 I-0.697 J-0.27
N11535 X205.722 Y43.894 I0.697 J0.27
N11540 X205.464 Y44.008 I-0.186 J-0.072
N11545 G1 X205.277 Y43.936
N11550 X205.229 Y43.917 Z0.707
N11555 X205.184 Y43.9 Z0.727
N11560 X205.145 Y43.885 Z0.759
N11565 X205.116 Y43.873 Z0.8
N11570 X205.097 Y43.866 Z0.848
N11575 X205.091 Y43.863 Z0.9
N11580 G0 Z6.5
N11585 X205.235 Y43.49
N11590 G1 Z1.9 F333.33
N11595 Z0.7
N11600 X205.242 Y43.493 Z0.648 F250.
N11605 X205.26 Y43.5 Z0.6
N11610 X205.29 Y43.512 Z0.559
N11615 X205.329 Y43.527 Z0.527
N11620 X205.373 Y43.544 Z0.507
N11625 X205.422 Y43.563 Z0.5
N11630 X205.608 Y43.635
N11635 G3 X205.722 Y43.894 I-0.072 J0.186
N11640 X204.327 Y43.353 I-0.697 J-0.27
N11645 X205.722 Y43.894 I0.697 J0.27
N11650 X205.464 Y44.008 I-0.186 J-0.072
N11655 G1 X205.277 Y43.936
N11660 X205.229 Y43.917 Z0.507
N11665 X205.184 Y43.9 Z0.527
N11670 X205.145 Y43.885 Z0.559
N11675 X205.116 Y43.873 Z0.6
N11680 X205.097 Y43.866 Z0.648
N11685 X205.091 Y43.863 Z0.7
N11690 G0 Z6.5
N11695 X205.235 Y43.49
N11700 G1 Z1.7 F333.33
N11705 Z0.5
N11710 X205.242 Y43.493 Z0.448 F250.
N11715 X205.26 Y43.5 Z0.4
N11720 X205.29 Y43.512 Z0.359
N11725 X205.329 Y43.527 Z0.327
N11730 X205.373 Y43.544 Z0.307
N11735 X205.422 Y43.563 Z0.3
N11740 X205.608 Y43.635
N11745 G3 X205.722 Y43.894 I-0.072 J0.186
N11750 X204.327 Y43.353 I-0.697 J-0.27
N11755 X205.722 Y43.894 I0.697 J0.27
N11760 X205.464 Y44.008 I-0.186 J-0.072
N11765 G1 X205.277 Y43.936
N11770 X205.229 Y43.917 Z0.307
N11775 X205.184 Y43.9 Z0.327
N11780 X205.145 Y43.885 Z0.359
N11785 X205.116 Y43.873 Z0.4
N11790 X205.097 Y43.866 Z0.448
N11795 X205.091 Y43.863 Z0.5
N11800 G0 Z6.5
N11805 X205.235 Y43.49
N11810 G1 Z1.5 F333.33
N11815 Z0.3
N11820 X205.242 Y43.493 Z0.248 F250.
N11825 X205.26 Y43.5 Z0.2
N11830 X205.29 Y43.512 Z0.159
N11835 X205.329 Y43.527 Z0.127
N11840 X205.373 Y43.544 Z0.107
N11845 X205.422 Y43.563 Z0.1
N11850 X205.608 Y43.635
N11855 G3 X205.722 Y43.894 I-0.072 J0.186
N11860 X204.327 Y43.353 I-0.697 J-0.27
N11865 X205.722 Y43.894 I0.697 J0.27
N11870 X205.464 Y44.008 I-0.186 J-0.072
N11875 G1 X205.277 Y43.936
N11880 X205.229 Y43.917 Z0.107
N11885 X205.184 Y43.9 Z0.127
N11890 X205.145 Y43.885 Z0.159
N11895 X205.116 Y43.873 Z0.2
N11900 X205.097 Y43.866 Z0.248
N11905 X205.091 Y43.863 Z0.3
N11910 G0 Z6.5
N11915 X205.235 Y43.49
N11920 G1 Z1.3 F333.33
N11925 Z0.1
N11930 X205.242 Y43.493 Z0.048 F250.
N11935 X205.26 Y43.5 Z0.
N11940 X205.29 Y43.512 Z-0.041
N11945 X205.329 Y43.527 Z-0.073
N11950 X205.373 Y43.544 Z-0.093
N11955 X205.422 Y43.563 Z-0.1
N11960 X205.608 Y43.635
N11965 G3 X205.722 Y43.894 I-0.072 J0.186
N11970 X204.327 Y43.353 I-0.697 J-0.27
N11975 X205.722 Y43.894 I0.697 J0.27
N11980 X205.464 Y44.008 I-0.186 J-0.072
N11985 G1 X205.277 Y43.936
N11990 X205.229 Y43.917 Z-0.093
N11995 X205.184 Y43.9 Z-0.073
N12000 X205.145 Y43.885 Z-0.041
N12005 X205.116 Y43.873 Z0.
N12010 X205.097 Y43.866 Z0.048
N12015 X205.091 Y43.863 Z0.1
N12020 G0 Z6.5
N12025 X205.235 Y43.49
N12030 G1 Z1.1 F333.33
N12035 Z-0.1
N12040 X205.242 Y43.493 Z-0.152 F250.
N12045 X205.26 Y43.5 Z-0.2
N12050 X205.29 Y43.512 Z-0.241
N12055 X205.329 Y43.527 Z-0.273
N12060 X205.373 Y43.544 Z-0.293
N12065 X205.422 Y43.563 Z-0.3
N12070 X205.608 Y43.635
N12075 G3 X205.722 Y43.894 I-0.072 J0.186
N12080 X204.327 Y43.353 I-0.697 J-0.27
N12085 X205.722 Y43.894 I0.697 J0.27
N12090 X205.464 Y44.008 I-0.186 J-0.072
N12095 G1 X205.277 Y43.936
N12100 X205.229 Y43.917 Z-0.293
N12105 X205.184 Y43.9 Z-0.273
N12110 X205.145 Y43.885 Z-0.241
N12115 X205.116 Y43.873 Z-0.2
N12120 X205.097 Y43.866 Z-0.152
N12125 X205.091 Y43.863 Z-0.1
N12130 G0 Z6.5
N12135 X205.235 Y43.49
N12140 G1 Z0.9 F333.33
N12145 Z-0.3
N12150 X205.242 Y43.493 Z-0.352 F250.
N12155 X205.26 Y43.5 Z-0.4
N12160 X205.29 Y43.512 Z-0.441
N12165 X205.329 Y43.527 Z-0.473
N12170 X205.373 Y43.544 Z-0.493
N12175 X205.422 Y43.563 Z-0.5
N12180 X205.608 Y43.635
N12185 G3 X205.722 Y43.894 I-0.072 J0.186
N12190 X204.327 Y43.353 I-0.697 J-0.27
N12195 X205.722 Y43.894 I0.697 J0.27
N12200 X205.464 Y44.008 I-0.186 J-0.072
N12205 G1 X205.277 Y43.936
N12210 X205.229 Y43.917 Z-0.493
N12215 X205.184 Y43.9 Z-0.473
N12220 X205.145 Y43.885 Z-0.441
N12225 X205.116 Y43.873 Z-0.4
N12230 X205.097 Y43.866 Z-0.352
N12235 X205.091 Y43.863 Z-0.3
N12240 G0 Z6.5
N12245 X204.032 Y18.323
N12250 G1 Z2.7 F333.33
N12255 Z1.5
N12260 G18 G2 X204.232 Z1.3 I0.2 K0. F250.
N12265 G1 X204.432
N12270 G17 G3 X204.632 Y18.523 I0. J0.2
N12275 X185.632 I-9.5 J0.
N12280 X204.632 I9.5 J0.
N12285 X204.432 Y18.723 I-0.2 J0.
N12290 G1 X204.232
N12295 G18 G3 X204.032 Z1.5 I0. K0.2
N12300 G0 Z6.5
N12305 Y18.323
N12310 G1 Z2.5 F333.33
N12315 Z1.3
N12320 G2 X204.232 Z1.1 I0.2 K0. F250.
N12325 G1 X204.432
N12330 G17 G3 X204.632 Y18.523 I0. J0.2
N12335 X185.632 I-9.5 J0.
N12340 X204.632 I9.5 J0.
N12345 X204.432 Y18.723 I-0.2 J0.
N12350 G1 X204.232
N12355 G18 G3 X204.032 Z1.3 I0. K0.2
N12360 G0 Z6.5
N12365 Y18.323
N12370 G1 Z2.3 F333.33
N12375 Z1.1
N12380 G2 X204.232 Z0.9 I0.2 K0. F250.
N12385 G1 X204.432
N12390 G17 G3 X204.632 Y18.523 I0. J0.2
N12395 X185.632 I-9.5 J0.
N12400 X204.632 I9.5 J0.
N12405 X204.432 Y18.723 I-0.2 J0.
N12410 G1 X204.232
N12415 G18 G3 X204.032 Z1.1 I0. K0.2
N12420 G0 Z6.5
N12425 Y18.323
N12430 G1 Z2.1 F333.33
N12435 Z0.9
N12440 G2 X204.232 Z0.7 I0.2 K0. F250.
N12445 G1 X204.432
N12450 G17 G3 X204.632 Y18.523 I0. J0.2
N12455 X185.632 I-9.5 J0.
N12460 X204.632 I9.5 J0.
N12465 X204.432 Y18.723 I-0.2 J0.
N12470 G1 X204.232
N12475 G18 G3 X204.032 Z0.9 I0. K0.2
N12480 G0 Z6.5
N12485 Y18.323
N12490 G1 Z1.9 F333.33
N12495 Z0.7
N12500 G2 X204.232 Z0.5 I0.2 K0. F250.
N12505 G1 X204.432
N12510 G17 G3 X204.632 Y18.523 I0. J0.2
N12515 X185.632 I-9.5 J0.
N12520 X204.632 I9.5 J0.
N12525 X204.432 Y18.723 I-0.2 J0.
N12530 G1 X204.232
N12535 G18 G3 X204.032 Z0.7 I0. K0.2
N12540 G0 Z6.5
N12545 Y18.323
N12550 G1 Z1.7 F333.33
N12555 Z0.5
N12560 G2 X204.232 Z0.3 I0.2 K0. F250.
N12565 G1 X204.432
N12570 G17 G3 X204.632 Y18.523 I0. J0.2
N12575 X202.675 Y24.298 I-9.5 J0.
N12580 G1 Z0.5
N12585 G3 X200.907 Y26.066 I-7.543 J-5.776
N12590 G1 Z0.3 F333.33
N12595 G3 X189.357 I-5.775 J-7.543 F250.
N12600 G1 Z0.5
N12605 G3 X187.589 Y24.298 I5.775 J-7.543
N12610 G1 Z0.3 F333.33
N12615 G3 Y12.748 I7.543 J-5.775 F250.
N12620 G1 Z0.5
N12625 G3 X189.357 Y10.98 I7.543 J5.775
N12630 G1 Z0.3 F333.33
N12635 G3 X200.907 I5.775 J7.543 F250.
N12640 G1 Z0.5
N12645 G3 X202.675 Y12.747 I-5.775 J7.543
N12650 G1 Z0.3 F333.33
N12655 G3 X204.632 Y18.523 I-7.543 J5.776 F250.
N12660 X204.432 Y18.723 I-0.2 J0.
N12665 G1 X204.232
N12670 G18 G3 X204.032 Z0.5 I0. K0.2
N12675 G0 Z6.5
N12680 Y18.323
N12685 G1 Z1.5 F333.33
N12690 Z0.3
N12695 G2 X204.232 Z0.1 I0.2 K0. F250.
N12700 G1 X204.432
N12705 G17 G3 X204.632 Y18.523 I0. J0.2
N12710 X202.675 Y24.298 I-9.5 J0.
N12715 G1 Z0.5
N12720 G3 X200.907 Y26.066 I-7.543 J-5.776
N12725 G1 Z0.1 F333.33
N12730 G3 X189.357 I-5.775 J-7.543 F250.
N12735 G1 Z0.5
N12740 G3 X187.589 Y24.298 I5.775 J-7.543
N12745 G1 Z0.1 F333.33
N12750 G3 Y12.748 I7.543 J-5.775 F250.
N12755 G1 Z0.5
N12760 G3 X189.357 Y10.98 I7.543 J5.775
N12765 G1 Z0.1 F333.33
N12770 G3 X200.907 I5.775 J7.543 F250.
N12775 G1 Z0.5
N12780 G3 X202.675 Y12.747 I-5.775 J7.543
N12785 G1 Z0.1 F333.33
N12790 G3 X204.632 Y18.523 I-7.543 J5.776 F250.
N12795 X204.432 Y18.723 I-0.2 J0.
N12800 G1 X204.232
N12805 G18 G3 X204.032 Z0.3 I0. K0.2
N12810 G0 Z6.5
N12815 Y18.323
N12820 G1 Z1.3 F333.33
N12825 Z0.1
N12830 G2 X204.232 Z-0.1 I0.2 K0. F250.
N12835 G1 X204.432
N12840 G17 G3 X204.632 Y18.523 I0. J0.2
N12845 X202.675 Y24.298 I-9.5 J0.
N12850 G1 Z0.5
N12855 G3 X200.907 Y26.066 I-7.543 J-5.776
N12860 G1 Z-0.1 F333.33
N12865 G3 X189.357 I-5.775 J-7.543 F250.
N12870 G1 Z0.5
N12875 G3 X187.589 Y24.298 I5.775 J-7.543
N12880 G1 Z-0.1 F333.33
N12885 G3 Y12.748 I7.543 J-5.775 F250.
N12890 G1 Z0.5
N12895 G3 X189.357 Y10.98 I7.543 J5.775
N12900 G1 Z-0.1 F333.33
N12905 G3 X200.907 I5.775 J7.543 F250.
N12910 G1 Z0.5
N12915 G3 X202.675 Y12.747 I-5.775 J7.543
N12920 G1 Z-0.1 F333.33
N12925 G3 X204.632 Y18.523 I-7.543 J5.776 F250.
N12930 X204.432 Y18.723 I-0.2 J0.
N12935 G1 X204.232
N12940 G18 G3 X204.032 Z0.1 I0. K0.2
N12945 G0 Z6.5
N12950 Y18.323
N12955 G1 Z1.1 F333.33
N12960 Z-0.1
N12965 G2 X204.232 Z-0.3 I0.2 K0. F250.
N12970 G1 X204.432
N12975 G17 G3 X204.632 Y18.523 I0. J0.2
N12980 X202.675 Y24.298 I-9.5 J0.
N12985 G1 Z0.5
N12990 G3 X200.907 Y26.066 I-7.543 J-5.776
N12995 G1 Z-0.3 F333.33
N13000 G3 X189.357 I-5.775 J-7.543 F250.
N13005 G1 Z0.5
N13010 G3 X187.589 Y24.298 I5.775 J-7.543
N13015 G1 Z-0.3 F333.33
N13020 G3 Y12.748 I7.543 J-5.775 F250.
N13025 G1 Z0.5
N13030 G3 X189.357 Y10.98 I7.543 J5.775
N13035 G1 Z-0.3 F333.33
N13040 G3 X200.907 I5.775 J7.543 F250.
N13045 G1 Z0.5
N13050 G3 X202.675 Y12.747 I-5.775 J7.543
N13055 G1 Z-0.3 F333.33
N13060 G3 X204.632 Y18.523 I-7.543 J5.776 F250.
N13065 X204.432 Y18.723 I-0.2 J0.
N13070 G1 X204.232
N13075 G18 G3 X204.032 Z-0.1 I0. K0.2
N13080 G0 Z6.5
N13085 Y18.323
N13090 G1 Z0.9 F333.33
N13095 Z-0.3
N13100 G2 X204.232 Z-0.5 I0.2 K0. F250.
N13105 G1 X204.432
N13110 G17 G3 X204.632 Y18.523 I0. J0.2
N13115 X202.675 Y24.298 I-9.5 J0.
N13120 G1 Z0.5
N13125 G3 X200.907 Y26.066 I-7.543 J-5.776
N13130 G1 Z-0.5 F333.33
N13135 G3 X189.357 I-5.775 J-7.543 F250.
N13140 G1 Z0.5
N13145 G3 X187.589 Y24.298 I5.775 J-7.543
N13150 G1 Z-0.5 F333.33
N13155 G3 Y12.748 I7.543 J-5.775 F250.
N13160 G1 Z0.5
N13165 G3 X189.357 Y10.98 I7.543 J5.775
N13170 G1 Z-0.5 F333.33
N13175 G3 X200.907 I5.775 J7.543 F250.
N13180 G1 Z0.5
N13185 G3 X202.675 Y12.747 I-5.775 J7.543
N13190 G1 Z-0.5 F333.33
N13195 G3 X204.632 Y18.523 I-7.543 J5.776 F250.
N13200 X204.432 Y18.723 I-0.2 J0.
N13205 G1 X204.232
N13210 G18 G3 X204.032 Z-0.3 I0. K0.2
N13215 G0 Z6.5
N13220 X205.173 Y8.424
N13225 G1 Z2.7 F333.33
N13230 Z1.5
N13235 G2 X205.373 Z1.3 I0.2 K0. F250.
N13240 G1 X205.573
N13245 G17 G3 X205.773 Y8.623 I0. J0.2
N13250 X204.277 I-0.748 J0.
N13255 X205.773 I0.748 J0.
N13260 X205.573 Y8.823 I-0.2 J0.
N13265 G1 X205.373
N13270 G18 G3 X205.173 Z1.5 I0. K0.2
N13275 G0 Z6.5
N13280 Y8.424
N13285 G1 Z2.5 F333.33
N13290 Z1.3
N13295 G2 X205.373 Z1.1 I0.2 K0. F250.
N13300 G1 X205.573
N13305 G17 G3 X205.773 Y8.623 I0. J0.2
N13310 X204.277 I-0.748 J0.
N13315 X205.773 I0.748 J0.
N13320 X205.573 Y8.823 I-0.2 J0.
N13325 G1 X205.373
N13330 G18 G3 X205.173 Z1.3 I0. K0.2
N13335 G0 Z6.5
N13340 Y8.424
N13345 G1 Z2.3 F333.33
N13350 Z1.1
N13355 G2 X205.373 Z0.9 I0.2 K0. F250.
N13360 G1 X205.573
N13365 G17 G3 X205.773 Y8.623 I0. J0.2
N13370 X204.277 I-0.748 J0.
N13375 X205.773 I0.748 J0.
N13380 X205.573 Y8.823 I-0.2 J0.
N13385 G1 X205.373
N13390 G18 G3 X205.173 Z1.1 I0. K0.2
N13395 G0 Z6.5
N13400 Y8.424
N13405 G1 Z2.1 F333.33
N13410 Z0.9
N13415 G2 X205.373 Z0.7 I0.2 K0. F250.
N13420 G1 X205.573
N13425 G17 G3 X205.773 Y8.623 I0. J0.2
N13430 X204.277 I-0.748 J0.
N13435 X205.773 I0.748 J0.
N13440 X205.573 Y8.823 I-0.2 J0.
N13445 G1 X205.373
N13450 G18 G3 X205.173 Z0.9 I0. K0.2
N13455 G0 Z6.5
N13460 Y8.424
N13465 G1 Z1.9 F333.33
N13470 Z0.7
N13475 G2 X205.373 Z0.5 I0.2 K0. F250.
N13480 G1 X205.573
N13485 G17 G3 X205.773 Y8.623 I0. J0.2
N13490 X204.277 I-0.748 J0.
N13495 X205.773 I0.748 J0.
N13500 X205.573 Y8.823 I-0.2 J0.
N13505 G1 X205.373
N13510 G18 G3 X205.173 Z0.7 I0. K0.2
N13515 G0 Z6.5
N13520 Y8.424
N13525 G1 Z1.7 F333.33
N13530 Z0.5
N13535 G2 X205.373 Z0.3 I0.2 K0. F250.
N13540 G1 X205.573
N13545 G17 G3 X205.773 Y8.623 I0. J0.2
N13550 X204.277 I-0.748 J0.
N13555 X205.773 I0.748 J0.
N13560 X205.573 Y8.823 I-0.2 J0.
N13565 G1 X205.373
N13570 G18 G3 X205.173 Z0.5 I0. K0.2
N13575 G0 Z6.5
N13580 Y8.424
N13585 G1 Z1.5 F333.33
N13590 Z0.3
N13595 G2 X205.373 Z0.1 I0.2 K0. F250.
N13600 G1 X205.573
N13605 G17 G3 X205.773 Y8.623 I0. J0.2
N13610 X204.277 I-0.748 J0.
N13615 X205.773 I0.748 J0.
N13620 X205.573 Y8.823 I-0.2 J0.
N13625 G1 X205.373
N13630 G18 G3 X205.173 Z0.3 I0. K0.2
N13635 G0 Z6.5
N13640 Y8.424
N13645 G1 Z1.3 F333.33
N13650 Z0.1
N13655 G2 X205.373 Z-0.1 I0.2 K0. F250.
N13660 G1 X205.573
N13665 G17 G3 X205.773 Y8.623 I0. J0.2
N13670 X204.277 I-0.748 J0.
N13675 X205.773 I0.748 J0.
N13680 X205.573 Y8.823 I-0.2 J0.
N13685 G1 X205.373
N13690 G18 G3 X205.173 Z0.1 I0. K0.2
N13695 G0 Z6.5
N13700 Y8.424
N13705 G1 Z1.1 F333.33
N13710 Z-0.1
N13715 G2 X205.373 Z-0.3 I0.2 K0. F250.
N13720 G1 X205.573
N13725 G17 G3 X205.773 Y8.623 I0. J0.2
N13730 X204.277 I-0.748 J0.
N13735 X205.773 I0.748 J0.
N13740 X205.573 Y8.823 I-0.2 J0.
N13745 G1 X205.373
N13750 G18 G3 X205.173 Z-0.1 I0. K0.2
N13755 G0 Z6.5
N13760 Y8.424
N13765 G1 Z0.9 F333.33
N13770 Z-0.3
N13775 G2 X205.373 Z-0.5 I0.2 K0. F250.
N13780 G1 X205.573
N13785 G17 G3 X205.773 Y8.623 I0. J0.2
N13790 X204.277 I-0.748 J0.
N13795 X205.773 I0.748 J0.
N13800 X205.573 Y8.823 I-0.2 J0.
N13805 G1 X205.373
N13810 G18 G3 X205.173 Z-0.3 I0. K0.2
N13815 G0 Z6.5
N13820 X221.026 Y17.483
N13825 G1 Z2.7 F333.33
N13830 Z1.5
N13835 X221.029 Y17.478 Z1.448 F250.
N13840 X221.039 Y17.46 Z1.4
N13845 X221.055 Y17.433 Z1.359
N13850 X221.076 Y17.397 Z1.327
N13855 X221.1 Y17.355 Z1.307
N13860 X221.126 Y17.31 Z1.3
N13865 X221.226 Y17.137
N13870 G17 G3 X221.499 Y17.064 I0.173 J0.1
N13875 X221.749 Y17.497 I-0.25 J0.433
N13880 X220.748 I-0.5 J0.
N13885 X221.499 Y17.064 I0.501 J0.
N13890 X221.572 Y17.337 I-0.1 J0.173
N13895 G1 X221.472 Y17.51
N13900 X221.446 Y17.555 Z1.307
N13905 X221.422 Y17.597 Z1.327
N13910 X221.401 Y17.633 Z1.359
N13915 X221.385 Y17.66 Z1.4
N13920 X221.375 Y17.678 Z1.448
N13925 X221.372 Y17.683 Z1.5
N13930 G0 Z6.5
N13935 X221.026 Y17.483
N13940 G1 Z2.5 F333.33
N13945 Z1.3
N13950 X221.029 Y17.478 Z1.248 F250.
N13955 X221.039 Y17.46 Z1.2
N13960 X221.055 Y17.433 Z1.159
N13965 X221.076 Y17.397 Z1.127
N13970 X221.1 Y17.355 Z1.107
N13975 X221.126 Y17.31 Z1.1
N13980 X221.226 Y17.137
N13985 G3 X221.499 Y17.064 I0.173 J0.1
N13990 X221.749 Y17.497 I-0.25 J0.433
N13995 X220.748 I-0.5 J0.
N14000 X221.499 Y17.064 I0.501 J0.
N14005 X221.572 Y17.337 I-0.1 J0.173
N14010 G1 X221.472 Y17.51
N14015 X221.446 Y17.555 Z1.107
N14020 X221.422 Y17.597 Z1.127
N14025 X221.401 Y17.633 Z1.159
N14030 X221.385 Y17.66 Z1.2
N14035 X221.375 Y17.678 Z1.248
N14040 X221.372 Y17.683 Z1.3
N14045 G0 Z6.5
N14050 X221.026 Y17.483
N14055 G1 Z2.3 F333.33
N14060 Z1.1
N14065 X221.029 Y17.478 Z1.048 F250.
N14070 X221.039 Y17.46 Z1.
N14075 X221.055 Y17.433 Z0.959
N14080 X221.076 Y17.397 Z0.927
N14085 X221.1 Y17.355 Z0.907
N14090 X221.126 Y17.31 Z0.9
N14095 X221.226 Y17.137
N14100 G3 X221.499 Y17.064 I0.173 J0.1
N14105 X221.749 Y17.497 I-0.25 J0.433
N14110 X220.748 I-0.5 J0.
N14115 X221.499 Y17.064 I0.501 J0.
N14120 X221.572 Y17.337 I-0.1 J0.173
N14125 G1 X221.472 Y17.51
N14130 X221.446 Y17.555 Z0.907
N14135 X221.422 Y17.597 Z0.927
N14140 X221.401 Y17.633 Z0.959
N14145 X221.385 Y17.66 Z1.
N14150 X221.375 Y17.678 Z1.048
N14155 X221.372 Y17.683 Z1.1
N14160 G0 Z6.5
N14165 X221.026 Y17.483
N14170 G1 Z2.1 F333.33
N14175 Z0.9
N14180 X221.029 Y17.478 Z0.848 F250.
N14185 X221.039 Y17.46 Z0.8
N14190 X221.055 Y17.433 Z0.759
N14195 X221.076 Y17.397 Z0.727
N14200 X221.1 Y17.355 Z0.707
N14205 X221.126 Y17.31 Z0.7
N14210 X221.226 Y17.137
N14215 G3 X221.499 Y17.064 I0.173 J0.1
N14220 X221.749 Y17.497 I-0.25 J0.433
N14225 X220.748 I-0.5 J0.
N14230 X221.499 Y17.064 I0.501 J0.
N14235 X221.572 Y17.337 I-0.1 J0.173
N14240 G1 X221.472 Y17.51
N14245 X221.446 Y17.555 Z0.707
N14250 X221.422 Y17.597 Z0.727
N14255 X221.401 Y17.633 Z0.759
N14260 X221.385 Y17.66 Z0.8
N14265 X221.375 Y17.678 Z0.848
N14270 X221.372 Y17.683 Z0.9
N14275 G0 Z6.5
N14280 X221.026 Y17.483
N14285 G1 Z1.9 F333.33
N14290 Z0.7
N14295 X221.029 Y17.478 Z0.648 F250.
N14300 X221.039 Y17.46 Z0.6
N14305 X221.055 Y17.433 Z0.559
N14310 X221.076 Y17.397 Z0.527
N14315 X221.1 Y17.355 Z0.507
N14320 X221.126 Y17.31 Z0.5
N14325 X221.226 Y17.137
N14330 G3 X221.499 Y17.064 I0.173 J0.1
N14335 X221.749 Y17.497 I-0.25 J0.433
N14340 X220.748 I-0.5 J0.
N14345 X221.499 Y17.064 I0.501 J0.
N14350 X221.572 Y17.337 I-0.1 J0.173
N14355 G1 X221.472 Y17.51
N14360 X221.446 Y17.555 Z0.507
N14365 X221.422 Y17.597 Z0.527
N14370 X221.401 Y17.633 Z0.559
N14375 X221.385 Y17.66 Z0.6
N14380 X221.375 Y17.678 Z0.648
N14385 X221.372 Y17.683 Z0.7
N14390 G0 Z6.5
N14395 X221.026 Y17.483
N14400 G1 Z1.7 F333.33
N14405 Z0.5
N14410 X221.029 Y17.478 Z0.448 F250.
N14415 X221.039 Y17.46 Z0.4
N14420 X221.055 Y17.433 Z0.359
N14425 X221.076 Y17.397 Z0.327
N14430 X221.1 Y17.355 Z0.307
N14435 X221.126 Y17.31 Z0.3
N14440 X221.226 Y17.137
N14445 G3 X221.499 Y17.064 I0.173 J0.1
N14450 X221.749 Y17.497 I-0.25 J0.433
N14455 X220.748 I-0.5 J0.
N14460 X221.499 Y17.064 I0.501 J0.
N14465 X221.572 Y17.337 I-0.1 J0.173
N14470 G1 X221.472 Y17.51
N14475 X221.446 Y17.555 Z0.307
N14480 X221.422 Y17.597 Z0.327
N14485 X221.401 Y17.633 Z0.359
N14490 X221.385 Y17.66 Z0.4
N14495 X221.375 Y17.678 Z0.448
N14500 X221.372 Y17.683 Z0.5
N14505 G0 Z6.5
N14510 X221.026 Y17.483
N14515 G1 Z1.5 F333.33
N14520 Z0.3
N14525 X221.029 Y17.478 Z0.248 F250.
N14530 X221.039 Y17.46 Z0.2
N14535 X221.055 Y17.433 Z0.159
N14540 X221.076 Y17.397 Z0.127
N14545 X221.1 Y17.355 Z0.107
N14550 X221.126 Y17.31 Z0.1
N14555 X221.226 Y17.137
N14560 G3 X221.499 Y17.064 I0.173 J0.1
N14565 X221.749 Y17.497 I-0.25 J0.433
N14570 X220.748 I-0.5 J0.
N14575 X221.499 Y17.064 I0.501 J0.
N14580 X221.572 Y17.337 I-0.1 J0.173
N14585 G1 X221.472 Y17.51
N14590 X221.446 Y17.555 Z0.107
N14595 X221.422 Y17.597 Z0.127
N14600 X221.401 Y17.633 Z0.159
N14605 X221.385 Y17.66 Z0.2
N14610 X221.375 Y17.678 Z0.248
N14615 X221.372 Y17.683 Z0.3
N14620 G0 Z6.5
N14625 X221.026 Y17.483
N14630 G1 Z1.3 F333.33
N14635 Z0.1
N14640 X221.029 Y17.478 Z0.048 F250.
N14645 X221.039 Y17.46 Z0.
N14650 X221.055 Y17.433 Z-0.041
N14655 X221.076 Y17.397 Z-0.073
N14660 X221.1 Y17.355 Z-0.093
N14665 X221.126 Y17.31 Z-0.1
N14670 X221.226 Y17.137
N14675 G3 X221.499 Y17.064 I0.173 J0.1
N14680 X221.749 Y17.497 I-0.25 J0.433
N14685 X220.748 I-0.5 J0.
N14690 X221.499 Y17.064 I0.501 J0.
N14695 X221.572 Y17.337 I-0.1 J0.173
N14700 G1 X221.472 Y17.51
N14705 X221.446 Y17.555 Z-0.093
N14710 X221.422 Y17.597 Z-0.073
N14715 X221.401 Y17.633 Z-0.041
N14720 X221.385 Y17.66 Z0.
N14725 X221.375 Y17.678 Z0.048
N14730 X221.372 Y17.683 Z0.1
N14735 G0 Z6.5
N14740 X221.026 Y17.483
N14745 G1 Z1.1 F333.33
N14750 Z-0.1
N14755 X221.029 Y17.478 Z-0.152 F250.
N14760 X221.039 Y17.46 Z-0.2
N14765 X221.055 Y17.433 Z-0.241
N14770 X221.076 Y17.397 Z-0.273
N14775 X221.1 Y17.355 Z-0.293
N14780 X221.126 Y17.31 Z-0.3
N14785 X221.226 Y17.137
N14790 G3 X221.499 Y17.064 I0.173 J0.1
N14795 X221.749 Y17.497 I-0.25 J0.433
N14800 X220.748 I-0.5 J0.
N14805 X221.499 Y17.064 I0.501 J0.
N14810 X221.572 Y17.337 I-0.1 J0.173
N14815 G1 X221.472 Y17.51
N14820 X221.446 Y17.555 Z-0.293
N14825 X221.422 Y17.597 Z-0.273
N14830 X221.401 Y17.633 Z-0.241
N14835 X221.385 Y17.66 Z-0.2
N14840 X221.375 Y17.678 Z-0.152
N14845 X221.372 Y17.683 Z-0.1
N14850 G0 Z6.5
N14855 X221.026 Y17.483
N14860 G1 Z0.9 F333.33
N14865 Z-0.3
N14870 X221.029 Y17.478 Z-0.352 F250.
N14875 X221.039 Y17.46 Z-0.4
N14880 X221.055 Y17.433 Z-0.441
N14885 X221.076 Y17.397 Z-0.473
N14890 X221.1 Y17.355 Z-0.493
N14895 X221.126 Y17.31 Z-0.5
N14900 X221.226 Y17.137
N14905 G3 X221.499 Y17.064 I0.173 J0.1
N14910 X221.749 Y17.497 I-0.25 J0.433
N14915 X220.748 I-0.5 J0.
N14920 X221.499 Y17.064 I0.501 J0.
N14925 X221.572 Y17.337 I-0.1 J0.173
N14930 G1 X221.472 Y17.51
N14935 X221.446 Y17.555 Z-0.493
N14940 X221.422 Y17.597 Z-0.473
N14945 X221.401 Y17.633 Z-0.441
N14950 X221.385 Y17.66 Z-0.4
N14955 X221.375 Y17.678 Z-0.352
N14960 X221.372 Y17.683 Z-0.3
N14965 G0 Z6.5
N14970 X185.381 Y28.222
N14975 G1 Z2.7 F333.33
N14980 Z1.5
N14985 G18 G2 X185.581 Z1.3 I0.2 K0. F250.
N14990 G1 X185.781
N14995 G17 G3 X185.981 Y28.421 I0. J0.2
N15000 X184.477 I-0.752 J0.
N15005 X185.981 I0.752 J0.
N15010 X185.781 Y28.622 I-0.2 J0.
N15015 G1 X185.581
N15020 G18 G3 X185.381 Z1.5 I0. K0.2
N15025 G0 Z6.5
N15030 Y28.222
N15035 G1 Z2.5 F333.33
N15040 Z1.3
N15045 G2 X185.581 Z1.1 I0.2 K0. F250.
N15050 G1 X185.781
N15055 G17 G3 X185.981 Y28.421 I0. J0.2
N15060 X184.477 I-0.752 J0.
N15065 X185.981 I0.752 J0.
N15070 X185.781 Y28.622 I-0.2 J0.
N15075 G1 X185.581
N15080 G18 G3 X185.381 Z1.3 I0. K0.2
N15085 G0 Z6.5
N15090 Y28.222
N15095 G1 Z2.3 F333.33
N15100 Z1.1
N15105 G2 X185.581 Z0.9 I0.2 K0. F250.
N15110 G1 X185.781
N15115 G17 G3 X185.981 Y28.421 I0. J0.2
N15120 X184.477 I-0.752 J0.
N15125 X185.981 I0.752 J0.
N15130 X185.781 Y28.622 I-0.2 J0.
N15135 G1 X185.581
N15140 G18 G3 X185.381 Z1.1 I0. K0.2
N15145 G0 Z6.5
N15150 Y28.222
N15155 G1 Z2.1 F333.33
N15160 Z0.9
N15165 G2 X185.581 Z0.7 I0.2 K0. F250.
N15170 G1 X185.781
N15175 G17 G3 X185.981 Y28.421 I0. J0.2
N15180 X184.477 I-0.752 J0.
N15185 X185.981 I0.752 J0.
N15190 X185.781 Y28.622 I-0.2 J0.
N15195 G1 X185.581
N15200 G18 G3 X185.381 Z0.9 I0. K0.2
N15205 G0 Z6.5
N15210 Y28.222
N15215 G1 Z1.9 F333.33
N15220 Z0.7
N15225 G2 X185.581 Z0.5 I0.2 K0. F250.
N15230 G1 X185.781
N15235 G17 G3 X185.981 Y28.421 I0. J0.2
N15240 X184.477 I-0.752 J0.
N15245 X185.981 I0.752 J0.
N15250 X185.781 Y28.622 I-0.2 J0.
N15255 G1 X185.581
N15260 G18 G3 X185.381 Z0.7 I0. K0.2
N15265 G0 Z6.5
N15270 Y28.222
N15275 G1 Z1.7 F333.33
N15280 Z0.5
N15285 G2 X185.581 Z0.3 I0.2 K0. F250.
N15290 G1 X185.781
N15295 G17 G3 X185.981 Y28.421 I0. J0.2
N15300 X184.477 I-0.752 J0.
N15305 X185.981 I0.752 J0.
N15310 X185.781 Y28.622 I-0.2 J0.
N15315 G1 X185.581
N15320 G18 G3 X185.381 Z0.5 I0. K0.2
N15325 G0 Z6.5
N15330 Y28.222
N15335 G1 Z1.5 F333.33
N15340 Z0.3
N15345 G2 X185.581 Z0.1 I0.2 K0. F250.
N15350 G1 X185.781
N15355 G17 G3 X185.981 Y28.421 I0. J0.2
N15360 X184.477 I-0.752 J0.
N15365 X185.981 I0.752 J0.
N15370 X185.781 Y28.622 I-0.2 J0.
N15375 G1 X185.581
N15380 G18 G3 X185.381 Z0.3 I0. K0.2
N15385 G0 Z6.5
N15390 Y28.222
N15395 G1 Z1.3 F333.33
N15400 Z0.1
N15405 G2 X185.581 Z-0.1 I0.2 K0. F250.
N15410 G1 X185.781
N15415 G17 G3 X185.981 Y28.421 I0. J0.2
N15420 X184.477 I-0.752 J0.
N15425 X185.981 I0.752 J0.
N15430 X185.781 Y28.622 I-0.2 J0.
N15435 G1 X185.581
N15440 G18 G3 X185.381 Z0.1 I0. K0.2
N15445 G0 Z6.5
N15450 Y28.222
N15455 G1 Z1.1 F333.33
N15460 Z-0.1
N15465 G2 X185.581 Z-0.3 I0.2 K0. F250.
N15470 G1 X185.781
N15475 G17 G3 X185.981 Y28.421 I0. J0.2
N15480 X184.477 I-0.752 J0.
N15485 X185.981 I0.752 J0.
N15490 X185.781 Y28.622 I-0.2 J0.
N15495 G1 X185.581
N15500 G18 G3 X185.381 Z-0.1 I0. K0.2
N15505 G0 Z6.5
N15510 Y28.222
N15515 G1 Z0.9 F333.33
N15520 Z-0.3
N15525 G2 X185.581 Z-0.5 I0.2 K0. F250.
N15530 G1 X185.781
N15535 G17 G3 X185.981 Y28.421 I0. J0.2
N15540 X184.477 I-0.752 J0.
N15545 X185.981 I0.752 J0.
N15550 X185.781 Y28.622 I-0.2 J0.
N15555 G1 X185.581
N15560 G18 G3 X185.381 Z-0.3 I0. K0.2
N15565 G0 Z6.5
N15570 X174.032 Y18.323
N15575 G1 Z2.7 F333.33
N15580 Z1.5
N15585 G2 X174.232 Z1.3 I0.2 K0. F250.
N15590 G1 X174.432
N15595 G17 G3 X174.632 Y18.523 I0. J0.2
N15600 X155.632 I-9.5 J0.
N15605 X174.632 I9.5 J0.
N15610 X174.432 Y18.723 I-0.2 J0.
N15615 G1 X174.232
N15620 G18 G3 X174.032 Z1.5 I0. K0.2
N15625 G0 Z6.5
N15630 Y18.323
N15635 G1 Z2.5 F333.33
N15640 Z1.3
N15645 G2 X174.232 Z1.1 I0.2 K0. F250.
N15650 G1 X174.432
N15655 G17 G3 X174.632 Y18.523 I0. J0.2
N15660 X155.632 I-9.5 J0.
N15665 X174.632 I9.5 J0.
N15670 X174.432 Y18.723 I-0.2 J0.
N15675 G1 X174.232
N15680 G18 G3 X174.032 Z1.3 I0. K0.2
N15685 G0 Z6.5
N15690 Y18.323
N15695 G1 Z2.3 F333.33
N15700 Z1.1
N15705 G2 X174.232 Z0.9 I0.2 K0. F250.
N15710 G1 X174.432
N15715 G17 G3 X174.632 Y18.523 I0. J0.2
N15720 X155.632 I-9.5 J0.
N15725 X174.632 I9.5 J0.
N15730 X174.432 Y18.723 I-0.2 J0.
N15735 G1 X174.232
N15740 G18 G3 X174.032 Z1.1 I0. K0.2
N15745 G0 Z6.5
N15750 Y18.323
N15755 G1 Z2.1 F333.33
N15760 Z0.9
N15765 G2 X174.232 Z0.7 I0.2 K0. F250.
N15770 G1 X174.432
N15775 G17 G3 X174.632 Y18.523 I0. J0.2
N15780 X155.632 I-9.5 J0.
N15785 X174.632 I9.5 J0.
N15790 X174.432 Y18.723 I-0.2 J0.
N15795 G1 X174.232
N15800 G18 G3 X174.032 Z0.9 I0. K0.2
N15805 G0 Z6.5
N15810 Y18.323
N15815 G1 Z1.9 F333.33
N15820 Z0.7
N15825 G2 X174.232 Z0.5 I0.2 K0. F250.
N15830 G1 X174.432
N15835 G17 G3 X174.632 Y18.523 I0. J0.2
N15840 X155.632 I-9.5 J0.
N15845 X174.632 I9.5 J0.
N15850 X174.432 Y18.723 I-0.2 J0.
N15855 G1 X174.232
N15860 G18 G3 X174.032 Z0.7 I0. K0.2
N15865 G0 Z6.5
N15870 Y18.323
N15875 G1 Z1.7 F333.33
N15880 Z0.5
N15885 G2 X174.232 Z0.3 I0.2 K0. F250.
N15890 G1 X174.432
N15895 G17 G3 X174.632 Y18.523 I0. J0.2
N15900 X172.675 Y24.298 I-9.5 J0.
N15905 G1 Z0.5
N15910 G3 X170.907 Y26.066 I-7.543 J-5.776
N15915 G1 Z0.3 F333.33
N15920 G3 X159.357 I-5.775 J-7.543 F250.
N15925 G1 Z0.5
N15930 G3 X157.589 Y24.298 I5.775 J-7.543
N15935 G1 Z0.3 F333.33
N15940 G3 Y12.748 I7.543 J-5.775 F250.
N15945 G1 Z0.5
N15950 G3 X159.357 Y10.98 I7.543 J5.775
N15955 G1 Z0.3 F333.33
N15960 G3 X170.907 I5.775 J7.543 F250.
N15965 G1 Z0.5
N15970 G3 X172.675 Y12.747 I-5.775 J7.543
N15975 G1 Z0.3 F333.33
N15980 G3 X174.632 Y18.523 I-7.543 J5.776 F250.
N15985 X174.432 Y18.723 I-0.2 J0.
N15990 G1 X174.232
N15995 G18 G3 X174.032 Z0.5 I0. K0.2
N16000 G0 Z6.5
N16005 Y18.323
N16010 G1 Z1.5 F333.33
N16015 Z0.3
N16020 G2 X174.232 Z0.1 I0.2 K0. F250.
N16025 G1 X174.432
N16030 G17 G3 X174.632 Y18.523 I0. J0.2
N16035 X172.675 Y24.298 I-9.5 J0.
N16040 G1 Z0.5
N16045 G3 X170.907 Y26.066 I-7.543 J-5.776
N16050 G1 Z0.1 F333.33
N16055 G3 X159.357 I-5.775 J-7.543 F250.
N16060 G1 Z0.5
N16065 G3 X157.589 Y24.298 I5.775 J-7.543
N16070 G1 Z0.1 F333.33
N16075 G3 Y12.748 I7.543 J-5.775 F250.
N16080 G1 Z0.5
N16085 G3 X159.357 Y10.98 I7.543 J5.775
N16090 G1 Z0.1 F333.33
N16095 G3 X170.907 I5.775 J7.543 F250.
N16100 G1 Z0.5
N16105 G3 X172.675 Y12.747 I-5.775 J7.543
N16110 G1 Z0.1 F333.33
N16115 G3 X174.632 Y18.523 I-7.543 J5.776 F250.
N16120 X174.432 Y18.723 I-0.2 J0.
N16125 G1 X174.232
N16130 G18 G3 X174.032 Z0.3 I0. K0.2
N16135 G0 Z6.5
N16140 Y18.323
N16145 G1 Z1.3 F333.33
N16150 Z0.1
N16155 G2 X174.232 Z-0.1 I0.2 K0. F250.
N16160 G1 X174.432
N16165 G17 G3 X174.632 Y18.523 I0. J0.2
N16170 X172.675 Y24.298 I-9.5 J0.
N16175 G1 Z0.5
N16180 G3 X170.907 Y26.066 I-7.543 J-5.776
N16185 G1 Z-0.1 F333.33
N16190 G3 X159.357 I-5.775 J-7.543 F250.
N16195 G1 Z0.5
N16200 G3 X157.589 Y24.298 I5.775 J-7.543
N16205 G1 Z-0.1 F333.33
N16210 G3 Y12.748 I7.543 J-5.775 F250.
N16215 G1 Z0.5
N16220 G3 X159.357 Y10.98 I7.543 J5.775
N16225 G1 Z-0.1 F333.33
N16230 G3 X170.907 I5.775 J7.543 F250.
N16235 G1 Z0.5
N16240 G3 X172.675 Y12.747 I-5.775 J7.543
N16245 G1 Z-0.1 F333.33
N16250 G3 X174.632 Y18.523 I-7.543 J5.776 F250.
N16255 X174.432 Y18.723 I-0.2 J0.
N16260 G1 X174.232
N16265 G18 G3 X174.032 Z0.1 I0. K0.2
N16270 G0 Z6.5
N16275 Y18.323
N16280 G1 Z1.1 F333.33
N16285 Z-0.1
N16290 G2 X174.232 Z-0.3 I0.2 K0. F250.
N16295 G1 X174.432
N16300 G17 G3 X174.632 Y18.523 I0. J0.2
N16305 X172.675 Y24.298 I-9.5 J0.
N16310 G1 Z0.5
N16315 G3 X170.907 Y26.066 I-7.543 J-5.776
N16320 G1 Z-0.3 F333.33
N16325 G3 X159.357 I-5.775 J-7.543 F250.
N16330 G1 Z0.5
N16335 G3 X157.589 Y24.298 I5.775 J-7.543
N16340 G1 Z-0.3 F333.33
N16345 G3 Y12.748 I7.543 J-5.775 F250.
N16350 G1 Z0.5
N16355 G3 X159.357 Y10.98 I7.543 J5.775
N16360 G1 Z-0.3 F333.33
N16365 G3 X170.907 I5.775 J7.543 F250.
N16370 G1 Z0.5
N16375 G3 X172.675 Y12.747 I-5.775 J7.543
N16380 G1 Z-0.3 F333.33
N16385 G3 X174.632 Y18.523 I-7.543 J5.776 F250.
N16390 X174.432 Y18.723 I-0.2 J0.
N16395 G1 X174.232
N16400 G18 G3 X174.032 Z-0.1 I0. K0.2
N16405 G0 Z6.5
N16410 Y18.323
N16415 G1 Z0.9 F333.33
N16420 Z-0.3
N16425 G2 X174.232 Z-0.5 I0.2 K0. F250.
N16430 G1 X174.432
N16435 G17 G3 X174.632 Y18.523 I0. J0.2
N16440 X172.675 Y24.298 I-9.5 J0.
N16445 G1 Z0.5
N16450 G3 X170.907 Y26.066 I-7.543 J-5.776
N16455 G1 Z-0.5 F333.33
N16460 G3 X159.357 I-5.775 J-7.543 F250.
N16465 G1 Z0.5
N16470 G3 X157.589 Y24.298 I5.775 J-7.543
N16475 G1 Z-0.5 F333.33
N16480 G3 Y12.748 I7.543 J-5.775 F250.
N16485 G1 Z0.5
N16490 G3 X159.357 Y10.98 I7.543 J5.775
N16495 G1 Z-0.5 F333.33
N16500 G3 X170.907 I5.775 J7.543 F250.
N16505 G1 Z0.5
N16510 G3 X172.675 Y12.747 I-5.775 J7.543
N16515 G1 Z-0.5 F333.33
N16520 G3 X174.632 Y18.523 I-7.543 J5.776 F250.
N16525 X174.432 Y18.723 I-0.2 J0.
N16530 G1 X174.232
N16535 G18 G3 X174.032 Z-0.3 I0. K0.2
N16540 G0 Z6.5
N16545 X175.235 Y8.49
N16550 G1 Z2.7 F333.33
N16555 Z1.5
N16560 X175.242 Y8.493 Z1.448 F250.
N16565 X175.26 Y8.5 Z1.4
N16570 X175.29 Y8.512 Z1.359
N16575 X175.329 Y8.527 Z1.327
N16580 X175.373 Y8.544 Z1.307
N16585 X175.422 Y8.563 Z1.3
N16590 X175.608 Y8.635
N16595 G17 G3 X175.722 Y8.894 I-0.072 J0.186
N16600 X174.327 Y8.353 I-0.697 J-0.27
N16605 X175.722 Y8.894 I0.697 J0.27
N16610 X175.464 Y9.008 I-0.186 J-0.072
N16615 G1 X175.277 Y8.936
N16620 X175.229 Y8.917 Z1.307
N16625 X175.184 Y8.9 Z1.327
N16630 X175.145 Y8.885 Z1.359
N16635 X175.116 Y8.873 Z1.4
N16640 X175.097 Y8.866 Z1.448
N16645 X175.091 Y8.863 Z1.5
N16650 G0 Z6.5
N16655 X175.235 Y8.49
N16660 G1 Z2.5 F333.33
N16665 Z1.3
N16670 X175.242 Y8.493 Z1.248 F250.
N16675 X175.26 Y8.5 Z1.2
N16680 X175.29 Y8.512 Z1.159
N16685 X175.329 Y8.527 Z1.127
N16690 X175.373 Y8.544 Z1.107
N16695 X175.422 Y8.563 Z1.1
N16700 X175.608 Y8.635
N16705 G3 X175.722 Y8.894 I-0.072 J0.186
N16710 X174.327 Y8.353 I-0.697 J-0.27
N16715 X175.722 Y8.894 I0.697 J0.27
N16720 X175.464 Y9.008 I-0.186 J-0.072
N16725 G1 X175.277 Y8.936
N16730 X175.229 Y8.917 Z1.107
N16735 X175.184 Y8.9 Z1.127
N16740 X175.145 Y8.885 Z1.159
N16745 X175.116 Y8.873 Z1.2
N16750 X175.097 Y8.866 Z1.248
N16755 X175.091 Y8.863 Z1.3
N16760 G0 Z6.5
N16765 X175.235 Y8.49
N16770 G1 Z2.3 F333.33
N16775 Z1.1
N16780 X175.242 Y8.493 Z1.048 F250.
N16785 X175.26 Y8.5 Z1.
N16790 X175.29 Y8.512 Z0.959
N16795 X175.329 Y8.527 Z0.927
N16800 X175.373 Y8.544 Z0.907
N16805 X175.422 Y8.563 Z0.9
N16810 X175.608 Y8.635
N16815 G3 X175.722 Y8.894 I-0.072 J0.186
N16820 X174.327 Y8.353 I-0.697 J-0.27
N16825 X175.722 Y8.894 I0.697 J0.27
N16830 X175.464 Y9.008 I-0.186 J-0.072
N16835 G1 X175.277 Y8.936
N16840 X175.229 Y8.917 Z0.907
N16845 X175.184 Y8.9 Z0.927
N16850 X175.145 Y8.885 Z0.959
N16855 X175.116 Y8.873 Z1.
N16860 X175.097 Y8.866 Z1.048
N16865 X175.091 Y8.863 Z1.1
N16870 G0 Z6.5
N16875 X175.235 Y8.49
N16880 G1 Z2.1 F333.33
N16885 Z0.9
N16890 X175.242 Y8.493 Z0.848 F250.
N16895 X175.26 Y8.5 Z0.8
N16900 X175.29 Y8.512 Z0.759
N16905 X175.329 Y8.527 Z0.727
N16910 X175.373 Y8.544 Z0.707
N16915 X175.422 Y8.563 Z0.7
N16920 X175.608 Y8.635
N16925 G3 X175.722 Y8.894 I-0.072 J0.186
N16930 X174.327 Y8.353 I-0.697 J-0.27
N16935 X175.722 Y8.894 I0.697 J0.27
N16940 X175.464 Y9.008 I-0.186 J-0.072
N16945 G1 X175.277 Y8.936
N16950 X175.229 Y8.917 Z0.707
N16955 X175.184 Y8.9 Z0.727
N16960 X175.145 Y8.885 Z0.759
N16965 X175.116 Y8.873 Z0.8
N16970 X175.097 Y8.866 Z0.848
N16975 X175.091 Y8.863 Z0.9
N16980 G0 Z6.5
N16985 X175.235 Y8.49
N16990 G1 Z1.9 F333.33
N16995 Z0.7
N17000 X175.242 Y8.493 Z0.648 F250.
N17005 X175.26 Y8.5 Z0.6
N17010 X175.29 Y8.512 Z0.559
N17015 X175.329 Y8.527 Z0.527
N17020 X175.373 Y8.544 Z0.507
N17025 X175.422 Y8.563 Z0.5
N17030 X175.608 Y8.635
N17035 G3 X175.722 Y8.894 I-0.072 J0.186
N17040 X174.327 Y8.353 I-0.697 J-0.27
N17045 X175.722 Y8.894 I0.697 J0.27
N17050 X175.464 Y9.008 I-0.186 J-0.072
N17055 G1 X175.277 Y8.936
N17060 X175.229 Y8.917 Z0.507
N17065 X175.184 Y8.9 Z0.527
N17070 X175.145 Y8.885 Z0.559
N17075 X175.116 Y8.873 Z0.6
N17080 X175.097 Y8.866 Z0.648
N17085 X175.091 Y8.863 Z0.7
N17090 G0 Z6.5
N17095 X175.235 Y8.49
N17100 G1 Z1.7 F333.33
N17105 Z0.5
N17110 X175.242 Y8.493 Z0.448 F250.
N17115 X175.26 Y8.5 Z0.4
N17120 X175.29 Y8.512 Z0.359
N17125 X175.329 Y8.527 Z0.327
N17130 X175.373 Y8.544 Z0.307
N17135 X175.422 Y8.563 Z0.3
N17140 X175.608 Y8.635
N17145 G3 X175.722 Y8.894 I-0.072 J0.186
N17150 X174.327 Y8.353 I-0.697 J-0.27
N17155 X175.722 Y8.894 I0.697 J0.27
N17160 X175.464 Y9.008 I-0.186 J-0.072
N17165 G1 X175.277 Y8.936
N17170 X175.229 Y8.917 Z0.307
N17175 X175.184 Y8.9 Z0.327
N17180 X175.145 Y8.885 Z0.359
N17185 X175.116 Y8.873 Z0.4
N17190 X175.097 Y8.866 Z0.448
N17195 X175.091 Y8.863 Z0.5
N17200 G0 Z6.5
N17205 X175.235 Y8.49
N17210 G1 Z1.5 F333.33
N17215 Z0.3
N17220 X175.242 Y8.493 Z0.248 F250.
N17225 X175.26 Y8.5 Z0.2
N17230 X175.29 Y8.512 Z0.159
N17235 X175.329 Y8.527 Z0.127
N17240 X175.373 Y8.544 Z0.107
N17245 X175.422 Y8.563 Z0.1
N17250 X175.608 Y8.635
N17255 G3 X175.722 Y8.894 I-0.072 J0.186
N17260 X174.327 Y8.353 I-0.697 J-0.27
N17265 X175.722 Y8.894 I0.697 J0.27
N17270 X175.464 Y9.008 I-0.186 J-0.072
N17275 G1 X175.277 Y8.936
N17280 X175.229 Y8.917 Z0.107
N17285 X175.184 Y8.9 Z0.127
N17290 X175.145 Y8.885 Z0.159
N17295 X175.116 Y8.873 Z0.2
N17300 X175.097 Y8.866 Z0.248
N17305 X175.091 Y8.863 Z0.3
N17310 G0 Z6.5
N17315 X175.235 Y8.49
N17320 G1 Z1.3 F333.33
N17325 Z0.1
N17330 X175.242 Y8.493 Z0.048 F250.
N17335 X175.26 Y8.5 Z0.
N17340 X175.29 Y8.512 Z-0.041
N17345 X175.329 Y8.527 Z-0.073
N17350 X175.373 Y8.544 Z-0.093
N17355 X175.422 Y8.563 Z-0.1
N17360 X175.608 Y8.635
N17365 G3 X175.722 Y8.894 I-0.072 J0.186
N17370 X174.327 Y8.353 I-0.697 J-0.27
N17375 X175.722 Y8.894 I0.697 J0.27
N17380 X175.464 Y9.008 I-0.186 J-0.072
N17385 G1 X175.277 Y8.936
N17390 X175.229 Y8.917 Z-0.093
N17395 X175.184 Y8.9 Z-0.073
N17400 X175.145 Y8.885 Z-0.041
N17405 X175.116 Y8.873 Z0.
N17410 X175.097 Y8.866 Z0.048
N17415 X175.091 Y8.863 Z0.1
N17420 G0 Z6.5
N17425 X175.235 Y8.49
N17430 G1 Z1.1 F333.33
N17435 Z-0.1
N17440 X175.242 Y8.493 Z-0.152 F250.
N17445 X175.26 Y8.5 Z-0.2
N17450 X175.29 Y8.512 Z-0.241
N17455 X175.329 Y8.527 Z-0.273
N17460 X175.373 Y8.544 Z-0.293
N17465 X175.422 Y8.563 Z-0.3
N17470 X175.608 Y8.635
N17475 G3 X175.722 Y8.894 I-0.072 J0.186
N17480 X174.327 Y8.353 I-0.697 J-0.27
N17485 X175.722 Y8.894 I0.697 J0.27
N17490 X175.464 Y9.008 I-0.186 J-0.072
N17495 G1 X175.277 Y8.936
N17500 X175.229 Y8.917 Z-0.293
N17505 X175.184 Y8.9 Z-0.273
N17510 X175.145 Y8.885 Z-0.241
N17515 X175.116 Y8.873 Z-0.2
N17520 X175.097 Y8.866 Z-0.152
N17525 X175.091 Y8.863 Z-0.1
N17530 G0 Z6.5
N17535 X175.235 Y8.49
N17540 G1 Z0.9 F333.33
N17545 Z-0.3
N17550 X175.242 Y8.493 Z-0.352 F250.
N17555 X175.26 Y8.5 Z-0.4
N17560 X175.29 Y8.512 Z-0.441
N17565 X175.329 Y8.527 Z-0.473
N17570 X175.373 Y8.544 Z-0.493
N17575 X175.422 Y8.563 Z-0.5
N17580 X175.608 Y8.635
N17585 G3 X175.722 Y8.894 I-0.072 J0.186
N17590 X174.327 Y8.353 I-0.697 J-0.27
N17595 X175.722 Y8.894 I0.697 J0.27
N17600 X175.464 Y9.008 I-0.186 J-0.072
N17605 G1 X175.277 Y8.936
N17610 X175.229 Y8.917 Z-0.493
N17615 X175.184 Y8.9 Z-0.473
N17620 X175.145 Y8.885 Z-0.441
N17625 X175.116 Y8.873 Z-0.4
N17630 X175.097 Y8.866 Z-0.352
N17635 X175.091 Y8.863 Z-0.3
N17640 G0 Z6.5
N17645 X155.381 Y28.222
N17650 G1 Z2.7 F333.33
N17655 Z1.5
N17660 G18 G2 X155.581 Z1.3 I0.2 K0. F250.
N17665 G1 X155.781
N17670 G17 G3 X155.981 Y28.421 I0. J0.2
N17675 X154.477 I-0.752 J0.
N17680 X155.981 I0.752 J0.
N17685 X155.781 Y28.622 I-0.2 J0.
N17690 G1 X155.581
N17695 G18 G3 X155.381 Z1.5 I0. K0.2
N17700 G0 Z6.5
N17705 Y28.222
N17710 G1 Z2.5 F333.33
N17715 Z1.3
N17720 G2 X155.581 Z1.1 I0.2 K0. F250.
N17725 G1 X155.781
N17730 G17 G3 X155.981 Y28.421 I0. J0.2
N17735 X154.477 I-0.752 J0.
N17740 X155.981 I0.752 J0.
N17745 X155.781 Y28.622 I-0.2 J0.
N17750 G1 X155.581
N17755 G18 G3 X155.381 Z1.3 I0. K0.2
N17760 G0 Z6.5
N17765 Y28.222
N17770 G1 Z2.3 F333.33
N17775 Z1.1
N17780 G2 X155.581 Z0.9 I0.2 K0. F250.
N17785 G1 X155.781
N17790 G17 G3 X155.981 Y28.421 I0. J0.2
N17795 X154.477 I-0.752 J0.
N17800 X155.981 I0.752 J0.
N17805 X155.781 Y28.622 I-0.2 J0.
N17810 G1 X155.581
N17815 G18 G3 X155.381 Z1.1 I0. K0.2
N17820 G0 Z6.5
N17825 Y28.222
N17830 G1 Z2.1 F333.33
N17835 Z0.9
N17840 G2 X155.581 Z0.7 I0.2 K0. F250.
N17845 G1 X155.781
N17850 G17 G3 X155.981 Y28.421 I0. J0.2
N17855 X154.477 I-0.752 J0.
N17860 X155.981 I0.752 J0.
N17865 X155.781 Y28.622 I-0.2 J0.
N17870 G1 X155.581
N17875 G18 G3 X155.381 Z0.9 I0. K0.2
N17880 G0 Z6.5
N17885 Y28.222
N17890 G1 Z1.9 F333.33
N17895 Z0.7
N17900 G2 X155.581 Z0.5 I0.2 K0. F250.
N17905 G1 X155.781
N17910 G17 G3 X155.981 Y28.421 I0. J0.2
N17915 X154.477 I-0.752 J0.
N17920 X155.981 I0.752 J0.
N17925 X155.781 Y28.622 I-0.2 J0.
N17930 G1 X155.581
N17935 G18 G3 X155.381 Z0.7 I0. K0.2
N17940 G0 Z6.5
N17945 Y28.222
N17950 G1 Z1.7 F333.33
N17955 Z0.5
N17960 G2 X155.581 Z0.3 I0.2 K0. F250.
N17965 G1 X155.781
N17970 G17 G3 X155.981 Y28.421 I0. J0.2
N17975 X154.477 I-0.752 J0.
N17980 X155.981 I0.752 J0.
N17985 X155.781 Y28.622 I-0.2 J0.
N17990 G1 X155.581
N17995 G18 G3 X155.381 Z0.5 I0. K0.2
N18000 G0 Z6.5
N18005 Y28.222
N18010 G1 Z1.5 F333.33
N18015 Z0.3
N18020 G2 X155.581 Z0.1 I0.2 K0. F250.
N18025 G1 X155.781
